<?xml version="1.0" encoding="UTF-8"?>
<map version="1.10" tiledversion="1.11.2" orientation="orthogonal" renderorder="right-down" width="58" height="23" tilewidth="16" tileheight="16" infinite="0" nextlayerid="6" nextobjectid="28">
 <tileset firstgid="1" source="sunny_land.tsx"/>
 <layer id="1" name="Tiles" width="58" height="23">
  <data encoding="csv">
0,0,0,0,0,0,0,0,0,0,0,98,100,100,100,100,100,100,100,100,100,100,100,100,100,100,100,325,326,0,0,0,0,0,0,0,0,0,0,0,0,0,0,0,0,0,0,0,0,0,0,0,0,0,0,0,0,0,
0,0,0,0,0,0,0,0,0,0,0,98,100,100,230,100,100,100,100,100,100,100,100,230,100,100,100,326,0,0,0,0,0,0,0,0,0,0,0,0,0,0,0,0,0,0,0,0,0,0,0,0,0,0,0,0,0,0,
642,0,0,0,0,0,0,0,0,0,0,355,323,100,100,100,100,100,100,100,100,100,100,100,100,325,326,0,0,0,0,0,0,0,0,0,0,0,0,0,0,0,0,0,0,0,0,0,0,0,0,0,0,0,0,0,0,642,
642,226,0,0,0,0,0,0,0,0,0,0,355,430,430,430,430,426,430,428,430,430,430,430,430,357,0,0,0,0,0,0,0,0,0,0,0,0,0,0,0,0,0,0,0,0,0,0,0,0,0,0,0,0,0,0,642,642,
644,645,0,0,0,0,0,0,0,0,0,0,0,0,482,483,598,458,598,460,598,517,0,0,0,0,0,0,0,0,0,0,0,0,0,0,0,0,0,0,0,0,0,0,0,0,0,0,0,0,0,0,0,0,0,0,644,645,
676,677,0,0,0,0,0,0,0,0,0,0,0,0,0,515,598,490,598,598,594,549,550,0,0,0,228,228,228,228,0,0,0,0,0,0,0,0,0,0,0,0,0,0,0,0,0,0,0,0,0,0,0,0,0,0,676,677,
644,645,644,645,0,0,0,0,0,0,0,0,0,0,546,547,598,598,598,598,598,598,549,550,0,464,466,466,466,466,468,0,0,0,0,0,0,0,0,0,0,0,0,0,0,0,0,0,0,0,0,0,0,0,0,0,644,645,
676,677,676,677,642,0,0,0,0,0,0,0,0,0,578,598,594,598,598,598,598,598,642,582,0,0,515,598,598,517,0,0,0,0,0,0,642,642,0,0,331,0,0,0,0,331,228,0,0,0,0,0,0,0,0,642,676,677,
100,100,230,100,102,0,0,0,0,0,36,36,36,36,40,40,40,40,40,40,40,40,40,40,40,40,40,40,40,40,36,36,642,36,36,36,36,36,36,36,38,332,332,332,332,34,36,36,36,36,36,36,36,36,36,644,645,100,
100,230,100,100,168,169,170,0,0,107,108,100,100,100,100,232,100,100,100,100,100,100,100,232,100,100,100,230,100,100,100,100,100,100,642,100,642,100,100,100,102,0,0,0,0,98,642,100,100,100,100,100,230,100,100,676,677,100,
100,100,100,102,326,0,0,0,228,0,642,642,100,100,100,100,100,100,230,100,100,100,100,100,100,100,100,232,100,100,100,100,100,100,100,100,100,100,100,100,168,169,170,0,0,98,100,100,100,232,100,100,232,100,100,100,100,100,
100,100,100,102,226,226,0,42,43,43,44,100,100,230,230,100,100,100,100,100,642,370,424,370,642,100,100,100,100,100,100,100,230,100,100,100,100,100,100,100,102,0,0,0,0,98,100,100,100,100,100,100,100,100,100,100,100,100,
100,100,168,169,169,169,170,0,0,0,98,100,100,100,100,100,100,232,100,100,308,598,456,598,368,430,430,430,430,430,428,426,430,428,430,370,370,370,642,100,102,0,0,42,43,44,100,100,100,100,100,230,100,100,100,100,100,100,
100,100,102,0,0,0,0,0,42,43,44,100,100,100,100,100,100,100,100,100,308,598,598,598,598,598,524,598,598,598,460,458,598,460,598,598,598,598,304,100,168,169,170,0,0,98,100,230,232,100,100,230,100,100,100,100,100,100,
100,100,102,0,0,0,0,42,43,43,368,424,370,370,370,370,428,370,370,370,372,598,596,598,598,598,524,598,598,598,598,490,598,598,530,531,532,598,304,100,102,0,0,0,0,98,100,100,100,100,100,100,100,100,100,100,100,100,
100,100,102,0,226,0,0,0,0,0,515,456,598,524,598,598,460,626,598,524,598,598,598,626,598,598,524,598,598,626,598,598,598,598,598,598,626,598,304,100,102,0,0,42,43,44,100,100,100,100,100,100,100,100,100,100,100,100,
232,100,642,642,169,170,0,0,0,0,515,598,598,524,598,598,598,658,598,524,598,598,598,658,598,598,524,598,598,658,598,598,598,527,528,598,658,598,368,370,168,169,170,0,0,98,100,100,100,100,100,100,100,100,100,100,100,100,
100,100,100,642,0,0,0,0,0,0,515,598,598,524,598,598,598,598,598,524,654,655,656,598,598,598,556,598,598,598,598,598,598,559,560,598,598,598,598,517,0,0,0,0,0,98,230,100,100,232,232,100,100,100,100,100,100,100,
100,100,100,100,642,0,0,0,0,0,240,242,242,242,642,242,242,242,244,524,686,687,688,598,598,587,588,589,530,531,532,644,645,591,592,598,598,598,598,549,550,0,0,42,43,44,100,100,100,100,100,100,100,100,100,100,100,100,
232,100,100,644,645,642,228,228,228,228,304,100,642,100,100,100,100,642,642,242,242,242,242,242,242,242,242,642,242,642,242,676,677,242,242,242,642,242,242,242,242,642,642,0,0,98,100,100,100,100,100,100,100,100,100,100,100,100,
100,100,100,676,677,642,36,36,36,36,642,100,100,100,100,100,100,100,100,100,100,100,100,100,100,100,100,100,100,100,100,100,232,100,100,100,100,100,100,100,230,644,645,642,642,642,642,100,100,100,100,230,100,100,100,100,100,100,
100,100,232,100,100,100,100,642,100,100,100,100,100,100,230,100,100,100,100,100,100,100,100,100,100,100,100,100,100,100,100,100,100,100,100,100,100,100,100,230,100,676,677,644,645,642,230,100,100,100,100,100,100,100,100,100,100,100,
100,100,100,100,100,100,100,100,100,100,100,100,100,100,100,100,100,100,100,100,230,100,100,100,100,100,100,230,100,100,100,100,100,100,100,100,232,100,100,100,100,644,645,676,677,100,100,100,100,100,100,100,100,100,100,100,100,100
</data>
 </layer>
 <objectgroup id="2" name="Objects">
  <object id="11" name="GEM" x="32" y="48" width="16" height="16"/>
  <object id="12" name="GEM" x="48" y="48" width="16" height="16"/>
  <object id="13" name="GEM" x="64" y="48" width="16" height="16"/>
  <object id="14" name="EAGLE" x="96" y="80" width="16" height="16"/>
  <object id="15" name="FROG" x="208" y="112" width="16" height="16"/>
  <object id="16" name="CHERRY" x="464" y="32" width="16" height="16"/>
  <object id="17" name="CHERRY" x="480" y="32" width="16" height="16"/>
  <object id="18" name="CHERRY" x="496" y="32" width="16" height="16"/>
  <object id="19" name="EAGLE" x="528" y="48" width="16" height="16"/>
  <object id="20" name="OPOSSUM" x="784" y="112" width="16" height="16"/>
  <object id="21" name="PLAYER_SPAWN" x="832" y="112" width="16" height="16"/>
  <object id="22" name="GEM" x="688" y="160" width="16" height="16"/>
  <object id="23" name="GEM" x="672" y="176" width="16" height="16"/>
  <object id="24" name="GEM" x="672" y="224" width="16" height="16"/>
  <object id="25" name="FROG" x="512" y="272" width="16" height="16"/>
  <object id="26" name="CHERRY" x="400" y="240" width="16" height="16"/>
  <object id="27" name="OPOSSUM" x="384" y="288" width="16" height="16"/>
 </objectgroup>
</map>
