<?xml version="1.0" encoding="UTF-8"?>
<map version="1.10" tiledversion="1.11.2" orientation="orthogonal" renderorder="right-down" compressionlevel="0" width="32" height="32" tilewidth="16" tileheight="16" infinite="0" backgroundcolor="#37494e" nextlayerid="9" nextobjectid="10">
 <tileset firstgid="1" name="SunnyLand_by_Ansimuz" tilewidth="16" tileheight="16" tilecount="483" columns="23" objectalignment="topleft">
  <image source="atlas/SunnyLand_by_Ansimuz-extended.png" width="368" height="336"/>
 </tileset>
 <tileset firstgid="484" name="Collisions" tilewidth="16" tileheight="16" tilecount="2" columns="2" objectalignment="topleft">
  <image source="Collisions.intgrid.png" width="32" height="16"/>
 </tileset>
 <layer id="1" name="Background_1" width="32" height="32">
  <data encoding="csv">
0,0,0,0,0,0,0,0,0,0,0,0,0,0,0,0,0,0,0,0,0,0,0,0,0,0,0,0,0,0,0,0,
0,0,0,0,0,0,0,0,0,0,0,0,0,0,0,0,0,0,0,0,0,0,0,0,0,0,0,0,0,0,0,0,
0,0,0,0,0,0,0,0,0,0,0,0,0,0,0,0,0,0,0,0,0,0,0,0,0,0,0,0,0,0,0,0,
0,0,0,0,0,0,0,0,0,0,0,0,0,0,0,0,0,0,0,0,0,0,0,0,0,0,0,0,0,0,0,0,
0,0,0,0,0,0,0,0,0,0,0,0,0,0,0,0,0,0,0,0,0,0,0,0,0,0,0,0,0,0,0,0,
0,0,0,0,0,0,0,0,0,0,0,0,0,0,0,0,0,0,0,0,0,0,0,0,0,0,0,0,0,0,0,0,
0,0,0,412,2147484011,2147484010,1073742227,412,306,412,331,412,331,412,3221225946,3221225945,0,0,0,0,0,0,0,0,0,0,0,0,0,0,0,0,
412,412,412,412,412,412,412,412,412,412,412,412,412,412,412,363,0,0,0,0,306,412,331,412,331,412,306,412,308,412,1073742226,412,
0,0,0,1073742236,2147484011,412,412,412,412,412,412,412,412,412,412,363,0,0,0,0,2147484011,412,412,412,363,412,412,412,412,412,412,412,
0,0,0,0,412,412,412,412,412,412,412,412,412,412,412,412,0,0,0,0,2147484011,412,412,412,412,412,412,412,412,412,412,412,
0,0,0,0,412,412,412,412,412,412,412,412,412,412,412,412,0,0,0,0,2147484011,412,412,412,412,412,412,412,412,412,402,412,
0,0,0,0,0,0,0,0,0,0,0,0,0,0,0,0,0,0,0,0,2147484011,412,412,412,412,412,363,2147484060,0,0,0,0,
0,0,0,0,0,0,0,0,0,0,0,0,0,0,0,0,0,0,0,412,2147484011,2147484010,412,412,363,412,412,412,3221225946,3221225945,0,0,
0,0,0,412,306,412,412,412,306,412,1073742226,412,412,412,412,1073742226,412,412,412,412,412,412,412,412,412,412,412,412,412,363,0,0,
0,0,0,2147484011,412,412,412,412,363,412,412,412,412,412,412,412,412,363,412,412,363,412,412,412,412,412,412,412,412,363,0,0,
0,0,0,2147484011,412,412,412,412,412,412,412,412,412,412,412,1073742180,412,412,412,412,412,412,412,412,412,412,412,412,412,363,0,0,
0,0,0,2147484011,412,412,363,412,412,412,412,363,3221225884,0,0,0,0,0,0,1073742236,363,3221225884,0,0,0,0,0,1073742236,363,2147484060,0,0,
0,0,0,2147484011,412,412,412,412,412,412,412,363,0,0,0,0,0,0,0,362,363,0,0,0,0,0,0,0,2147484011,2147484010,0,0,
0,0,0,2147484011,412,412,412,412,412,412,412,363,0,0,0,0,0,0,0,362,363,0,0,0,0,0,0,0,2147484011,2147484010,0,0,
0,0,0,2147484011,412,412,412,412,412,412,412,363,0,0,0,0,0,0,0,412,363,2147484060,0,0,0,0,0,0,2147484011,2147484010,0,0,
0,0,0,2147484011,2147484010,3221225884,1073742236,2147484011,412,412,412,363,0,0,2147484011,412,412,412,331,412,412,412,308,412,412,3221225945,0,0,2147484011,2147484010,0,0,
0,0,0,2147484011,2147484010,0,0,412,412,412,412,412,0,0,2147484011,412,412,412,412,412,412,412,412,412,412,363,0,0,2147484011,2147484010,0,0,
0,0,0,2147484011,2147484010,0,0,412,412,412,412,412,0,0,412,412,412,412,412,412,412,412,412,412,412,412,0,0,2147484011,2147484010,2147484060,0,
0,0,0,2147484011,2147484010,0,0,412,412,412,412,412,0,0,412,412,412,412,412,412,412,412,412,412,412,412,0,0,2147484011,412,412,412,
0,0,412,2147484011,2147484010,0,0,412,412,412,412,412,0,0,412,412,412,412,412,412,412,412,412,412,412,412,0,0,2147484011,412,363,412,
412,412,331,412,363,0,0,412,412,412,412,412,0,0,412,412,412,412,412,412,412,412,412,412,412,412,0,0,473,412,412,412,
412,412,412,412,363,0,0,412,412,412,412,412,0,0,0,0,0,0,0,0,0,0,0,0,0,0,0,0,0,0,0,0,
412,412,412,412,2147484121,0,0,412,412,412,412,412,0,0,0,0,0,0,0,0,0,0,0,0,0,0,0,0,0,0,0,0,
0,0,0,0,0,0,0,412,412,412,412,412,0,0,0,0,0,0,0,0,0,0,0,0,0,0,0,0,0,0,0,0,
0,0,0,0,0,0,0,412,412,412,412,412,0,0,0,0,0,0,0,0,0,0,0,0,0,0,0,0,0,0,0,0,
0,0,0,0,0,0,0,0,0,0,0,0,0,0,0,0,0,0,0,0,0,0,0,0,0,0,0,0,0,0,0,0,
0,0,0,0,0,0,0,0,0,0,0,0,0,0,0,0,0,0,0,0,0,0,0,0,0,0,0,0,0,0,0,0
</data>
 </layer>
 <layer id="2" name="Background_2" width="32" height="32">
  <data encoding="csv">
0,0,0,0,0,0,0,0,0,0,0,0,0,0,0,0,0,0,0,0,0,0,0,0,0,0,0,0,0,0,0,0,
0,0,0,0,0,0,0,0,0,0,0,0,0,0,0,0,0,0,0,0,0,0,0,0,0,0,0,0,0,0,0,0,
0,0,0,0,0,0,0,0,0,0,0,0,0,0,0,0,0,0,0,0,0,0,0,0,0,0,0,0,0,0,0,0,
0,0,0,0,0,0,0,0,0,0,0,0,0,0,0,0,0,0,0,0,0,0,0,0,0,0,0,0,0,0,0,0,
0,0,0,0,0,0,0,0,0,0,0,0,0,0,0,0,0,0,0,0,0,0,0,0,0,0,0,0,0,0,0,0,
0,0,0,0,0,0,0,0,0,0,0,0,0,0,0,0,0,0,0,0,0,0,0,0,0,0,0,0,0,0,0,0,
0,0,0,0,1073742225,1073742226,331,0,0,0,0,0,0,3221225947,331,0,0,0,0,0,0,0,0,0,0,0,0,0,0,0,0,0,
0,0,0,0,1073742202,1073742203,1073742204,0,0,0,0,0,0,3221225924,362,3221225922,0,0,0,0,0,0,0,0,0,0,0,0,0,1073742225,0,1073742227,
0,0,0,0,1073742179,2147484010,1073742181,0,0,0,0,0,0,0,362,0,0,0,0,0,0,2147484010,0,362,0,364,0,0,331,1073742202,1073742203,1073742204,
0,0,0,0,0,0,0,0,0,0,0,0,0,0,0,0,0,0,0,0,0,2147484010,0,0,0,0,0,0,0,1073742179,1073742180,1073742181,
0,0,0,0,0,0,0,0,0,0,0,0,0,0,0,0,0,0,0,0,0,2147484010,0,0,0,0,0,0,0,401,0,403,
0,0,0,0,0,0,0,0,0,0,0,0,0,0,0,0,0,0,0,0,0,2147484010,0,0,0,362,0,0,0,0,0,0,
0,0,0,0,0,0,0,0,0,0,0,0,0,0,0,0,0,0,0,0,362,363,364,362,0,364,0,3221225947,331,0,0,0,
0,0,0,0,0,0,0,0,0,1073742225,0,1073742227,0,0,1073742225,356,1073742227,0,0,0,0,0,0,0,0,0,0,3221225924,362,3221225922,0,0,
0,0,0,0,2147484010,0,0,362,0,364,1073742203,1073742204,0,0,1073742202,1073742203,362,0,364,362,0,364,0,0,0,0,0,0,362,0,0,0,
0,0,0,0,2147484010,0,0,0,0,1073742179,1073742180,1073742181,0,0,1073742179,402,1073742181,0,0,0,0,0,0,0,0,0,0,0,362,0,0,0,
0,0,0,0,2147484010,362,0,364,0,0,362,0,0,0,0,0,0,0,0,362,0,0,0,0,0,0,0,362,0,0,0,0,
0,0,0,0,2147484010,0,0,0,0,0,362,0,0,0,0,0,0,0,0,0,0,0,0,0,0,0,0,0,362,363,0,0,
0,0,0,0,2147484010,0,0,0,0,0,362,0,0,0,0,0,0,0,0,0,0,0,0,0,0,0,0,0,362,363,0,0,
0,0,0,0,2147484010,0,0,0,0,0,362,0,0,0,0,0,0,0,0,362,0,0,0,0,0,0,0,0,362,363,0,0,
0,0,0,362,363,0,0,0,2147484010,0,362,0,0,0,0,2147484010,0,0,0,0,0,0,0,3221225947,3221225946,0,0,0,362,363,0,0,
0,0,0,362,363,0,0,0,0,0,0,0,0,0,0,2147484010,0,0,0,0,0,0,331,3221225924,362,3221225922,0,0,362,363,0,0,
0,0,0,362,363,0,0,0,0,0,0,0,0,0,0,0,0,0,0,0,0,0,0,0,0,0,0,0,362,363,0,0,
0,0,0,362,363,0,0,0,0,0,0,0,0,0,0,0,0,0,0,0,0,0,0,0,0,0,0,0,0,2147484010,0,0,
0,0,0,362,363,0,0,0,0,0,0,0,0,0,0,0,0,0,0,0,0,0,0,0,0,0,0,0,450,2147484010,452,364,
0,0,0,362,0,0,0,0,0,0,0,0,0,0,0,0,0,0,0,0,0,0,0,0,0,0,0,0,0,474,475,0,
0,0,2147484100,362,2147484098,0,0,0,0,0,0,0,0,0,0,0,0,0,0,0,0,0,0,0,0,0,0,0,0,0,0,0,
0,0,2147484123,2147484122,0,0,0,0,0,0,0,0,0,0,0,0,0,0,0,0,0,0,0,0,0,0,0,0,0,0,0,0,
0,0,0,0,0,0,0,0,0,0,0,0,0,0,0,0,0,0,0,0,0,0,0,0,0,0,0,0,0,0,0,0,
0,0,0,0,0,0,0,0,0,0,0,0,0,0,0,0,0,0,0,0,0,0,0,0,0,0,0,0,0,0,0,0,
0,0,0,0,0,0,0,0,0,0,0,0,0,0,0,0,0,0,0,0,0,0,0,0,0,0,0,0,0,0,0,0,
0,0,0,0,0,0,0,0,0,0,0,0,0,0,0,0,0,0,0,0,0,0,0,0,0,0,0,0,0,0,0,0
</data>
 </layer>
 <layer id="3" name="Background_3" width="32" height="32">
  <data encoding="csv">
0,0,0,0,0,0,0,0,0,0,0,0,0,0,0,0,0,0,0,0,0,0,0,0,0,0,0,0,0,0,0,0,
0,0,0,0,0,0,0,0,0,0,0,0,0,0,0,0,0,0,0,0,0,0,0,0,0,0,0,0,0,0,0,0,
0,0,0,0,0,0,0,0,0,0,0,0,0,0,0,0,0,0,0,0,0,0,0,0,0,0,0,0,0,0,0,0,
0,0,0,0,0,0,0,0,0,0,0,0,0,0,0,0,0,0,0,0,0,0,0,0,0,0,0,0,0,0,0,0,
0,0,0,0,0,0,0,0,0,0,0,0,0,0,0,0,0,0,0,0,0,0,0,0,0,0,0,0,0,0,0,0,
0,0,0,0,0,0,0,0,0,0,0,0,0,0,0,0,0,0,0,0,0,0,0,0,0,0,0,0,0,0,0,0,
0,0,0,0,0,0,0,0,0,0,0,0,0,0,0,0,0,0,0,0,0,0,0,0,0,0,0,0,0,0,0,0,
0,0,0,0,0,0,0,0,0,0,0,0,0,0,3221225923,0,0,0,0,0,0,0,0,0,0,0,0,0,0,0,0,0,
0,0,0,0,0,1073742180,0,0,0,0,0,0,0,0,0,0,0,0,0,0,0,0,0,0,0,0,0,0,0,355,356,357,
0,0,0,0,0,0,0,0,0,0,0,0,0,0,0,0,0,0,0,0,0,0,0,0,0,0,0,0,0,378,379,380,
0,0,0,0,0,0,0,0,0,0,0,0,0,0,0,0,0,0,0,0,0,0,0,0,0,0,0,0,0,0,0,0,
0,0,0,0,0,0,0,0,0,0,0,0,0,0,0,0,0,0,0,0,0,0,0,0,0,0,0,0,0,0,0,0,
0,0,0,0,0,0,0,0,0,0,0,0,0,0,0,0,0,0,0,0,0,0,0,0,0,0,0,0,0,0,0,0,
0,0,0,0,0,0,0,0,0,0,0,0,0,0,355,0,357,0,0,0,0,0,0,0,0,0,0,0,3221225923,0,0,0,
0,0,0,0,0,0,0,0,0,1073742202,0,0,0,0,378,379,1073742204,0,0,0,0,0,0,0,0,0,0,0,0,0,0,0,
0,0,0,0,0,0,0,0,0,0,0,0,0,0,401,0,403,0,0,0,0,0,0,0,0,0,0,0,0,0,0,0,
0,0,0,0,0,0,0,0,0,0,0,0,0,0,0,0,0,0,0,0,0,0,0,0,0,0,0,0,0,0,0,0,
0,0,0,0,0,0,0,0,0,0,0,0,0,0,0,0,0,0,0,0,0,0,0,0,0,0,0,0,0,0,0,0,
0,0,0,0,0,0,0,0,0,0,0,0,0,0,0,0,0,0,0,0,0,0,0,0,0,0,0,0,0,0,0,0,
0,0,0,0,0,0,0,0,0,0,0,0,0,0,0,0,0,0,0,0,0,0,0,0,0,0,0,0,0,0,0,0,
0,0,0,0,0,0,0,0,0,0,0,0,0,0,0,0,0,0,0,0,0,0,0,0,0,0,0,0,0,0,0,0,
0,0,0,0,0,0,0,0,0,0,0,0,0,0,0,0,0,0,0,0,0,0,0,0,3221225923,0,0,0,0,0,0,0,
0,0,0,0,0,0,0,0,0,0,0,0,0,0,0,0,0,0,0,0,0,0,0,0,0,0,0,0,0,0,0,0,
0,0,0,0,0,0,0,0,0,0,0,0,0,0,0,0,0,0,0,0,0,0,0,0,0,0,0,0,0,0,0,0,
0,0,0,0,0,0,0,0,0,0,0,0,0,0,0,0,0,0,0,0,0,0,0,0,0,0,0,0,0,362,0,0,
0,0,0,0,0,0,0,0,0,0,0,0,0,0,0,0,0,0,0,0,0,0,0,0,0,0,0,0,0,0,0,0,
0,0,0,2147484099,0,0,0,0,0,0,0,0,0,0,0,0,0,0,0,0,0,0,0,0,0,0,0,0,0,0,0,0,
0,0,0,0,0,0,0,0,0,0,0,0,0,0,0,0,0,0,0,0,0,0,0,0,0,0,0,0,0,0,0,0,
0,0,0,0,0,0,0,0,0,0,0,0,0,0,0,0,0,0,0,0,0,0,0,0,0,0,0,0,0,0,0,0,
0,0,0,0,0,0,0,0,0,0,0,0,0,0,0,0,0,0,0,0,0,0,0,0,0,0,0,0,0,0,0,0,
0,0,0,0,0,0,0,0,0,0,0,0,0,0,0,0,0,0,0,0,0,0,0,0,0,0,0,0,0,0,0,0,
0,0,0,0,0,0,0,0,0,0,0,0,0,0,0,0,0,0,0,0,0,0,0,0,0,0,0,0,0,0,0,0
</data>
 </layer>
 <layer id="4" name="Background_4" width="32" height="32">
  <data encoding="csv">
0,0,0,0,0,0,0,0,0,0,0,0,0,0,0,0,0,0,0,0,0,0,0,0,0,0,0,0,0,0,0,0,
0,0,0,0,0,0,0,0,0,0,0,0,0,0,0,0,0,0,0,0,0,0,0,0,0,0,0,0,0,0,0,0,
0,0,0,0,0,0,0,0,0,0,0,0,0,0,0,0,0,0,0,0,0,0,0,0,0,0,0,0,0,0,0,0,
0,0,0,0,0,0,0,0,0,0,0,0,0,0,0,0,0,0,0,0,0,0,0,0,0,0,0,0,0,0,0,0,
0,0,0,0,0,0,0,0,0,0,0,0,0,0,0,0,0,0,0,0,0,0,0,0,0,0,0,0,0,0,0,0,
0,0,0,0,0,0,0,0,0,0,0,0,0,0,0,0,0,0,0,0,0,0,0,0,0,0,0,0,0,0,0,0,
0,0,0,0,0,0,0,0,0,0,0,0,0,0,0,0,0,0,0,0,0,0,0,0,0,0,0,0,0,0,0,0,
0,0,0,0,0,0,0,0,0,0,0,0,0,0,0,0,0,0,0,0,0,0,0,0,0,0,0,0,0,0,0,0,
0,0,0,0,0,0,0,0,0,0,0,0,0,0,0,0,0,0,0,0,0,0,0,0,0,0,0,0,0,0,0,0,
0,0,0,0,0,0,0,0,0,0,0,0,0,0,0,0,0,0,0,0,0,0,0,0,0,0,0,0,0,0,0,0,
0,0,0,0,0,0,0,0,0,0,0,0,0,0,0,0,0,0,0,0,0,0,0,0,0,0,0,0,0,0,0,0,
0,0,0,0,0,0,0,0,0,0,0,0,0,0,0,0,0,0,0,0,0,0,0,0,0,0,0,0,0,0,0,0,
0,0,0,0,0,0,0,0,0,0,0,0,0,0,0,0,0,0,0,0,0,0,0,0,0,0,0,0,0,0,0,0,
0,0,0,0,0,0,0,0,0,0,0,0,0,0,0,0,0,0,0,0,0,0,0,0,0,0,0,0,0,0,0,0,
0,0,0,0,0,0,0,0,0,0,0,0,0,0,0,0,380,0,0,0,0,0,0,0,0,0,0,0,0,0,0,0,
0,0,0,0,0,0,0,0,0,0,0,0,0,0,0,0,0,0,0,0,0,0,0,0,0,0,0,0,0,0,0,0,
0,0,0,0,0,0,0,0,0,0,0,0,0,0,0,0,0,0,0,0,0,0,0,0,0,0,0,0,0,0,0,0,
0,0,0,0,0,0,0,0,0,0,0,0,0,0,0,0,0,0,0,0,0,0,0,0,0,0,0,0,0,0,0,0,
0,0,0,0,0,0,0,0,0,0,0,0,0,0,0,0,0,0,0,0,0,0,0,0,0,0,0,0,0,0,0,0,
0,0,0,0,0,0,0,0,0,0,0,0,0,0,0,0,0,0,0,0,0,0,0,0,0,0,0,0,0,0,0,0,
0,0,0,0,0,0,0,0,0,0,0,0,0,0,0,0,0,0,0,0,0,0,0,0,0,0,0,0,0,0,0,0,
0,0,0,0,0,0,0,0,0,0,0,0,0,0,0,0,0,0,0,0,0,0,0,0,0,0,0,0,0,0,0,0,
0,0,0,0,0,0,0,0,0,0,0,0,0,0,0,0,0,0,0,0,0,0,0,0,0,0,0,0,0,0,0,0,
0,0,0,0,0,0,0,0,0,0,0,0,0,0,0,0,0,0,0,0,0,0,0,0,0,0,0,0,0,0,0,0,
0,0,0,0,0,0,0,0,0,0,0,0,0,0,0,0,0,0,0,0,0,0,0,0,0,0,0,0,0,451,0,0,
0,0,0,0,0,0,0,0,0,0,0,0,0,0,0,0,0,0,0,0,0,0,0,0,0,0,0,0,0,0,0,0,
0,0,0,0,0,0,0,0,0,0,0,0,0,0,0,0,0,0,0,0,0,0,0,0,0,0,0,0,0,0,0,0,
0,0,0,0,0,0,0,0,0,0,0,0,0,0,0,0,0,0,0,0,0,0,0,0,0,0,0,0,0,0,0,0,
0,0,0,0,0,0,0,0,0,0,0,0,0,0,0,0,0,0,0,0,0,0,0,0,0,0,0,0,0,0,0,0,
0,0,0,0,0,0,0,0,0,0,0,0,0,0,0,0,0,0,0,0,0,0,0,0,0,0,0,0,0,0,0,0,
0,0,0,0,0,0,0,0,0,0,0,0,0,0,0,0,0,0,0,0,0,0,0,0,0,0,0,0,0,0,0,0,
0,0,0,0,0,0,0,0,0,0,0,0,0,0,0,0,0,0,0,0,0,0,0,0,0,0,0,0,0,0,0,0
</data>
 </layer>
 <layer id="6" name="Collisions_1" width="32" height="32">
  <data encoding="csv">
145,49,145,49,143,49,49,49,49,49,49,49,145,49,49,49,145,49,49,49,145,49,143,49,49,49,49,49,49,49,145,49,
49,49,49,143,49,49,49,49,49,49,49,49,49,49,49,145,49,143,49,49,49,49,49,143,49,143,49,145,49,49,49,49,
49,49,143,49,143,49,49,49,49,49,49,49,49,49,145,49,49,49,49,49,49,49,49,49,145,49,143,49,49,49,49,49,
49,153,49,7,145,7,49,7,49,153,143,153,49,153,49,153,49,7,49,49,49,143,49,145,49,145,49,49,49,49,49,49,
7,143,36,49,153,143,7,49,153,49,153,49,36,49,7,49,153,49,7,49,36,49,7,49,153,49,36,49,153,49,153,145,
143,153,49,153,247,247,289,247,247,287,247,247,289,287,289,287,2147483801,7,49,153,143,36,145,153,49,7,49,153,143,153,49,36,
247,247,247,212,0,0,0,0,0,0,0,0,0,0,0,0,199,145,7,153,247,247,247,247,247,247,287,287,247,247,247,247,
164,163,165,163,0,0,0,0,0,0,0,0,0,0,0,0,199,7,145,2147483847,0,0,0,0,0,0,0,0,0,0,0,0,
155,155,155,2147484086,0,0,0,0,0,0,0,0,0,0,0,0,199,143,36,2147483847,0,0,0,0,0,0,0,0,0,0,0,0,
49,153,49,2147483847,251,251,251,251,251,251,251,251,251,251,251,251,199,7,143,2147483847,0,0,0,0,0,0,0,0,0,0,0,0,
153,49,153,2147483847,274,274,274,274,274,274,274,274,274,274,274,274,199,49,153,2147483847,0,0,0,0,0,0,0,163,163,165,165,164,
49,7,49,1073741977,155,155,155,155,155,155,155,155,155,155,155,155,3221225625,36,145,2147483847,0,0,0,0,0,0,0,2147483860,155,155,2147483801,155,
7,49,7,153,287,247,247,247,247,247,289,247,247,247,247,287,247,287,289,212,0,0,0,0,0,0,0,0,0,0,199,143,
49,153,153,212,0,0,0,0,0,0,0,0,0,0,0,0,0,0,0,0,0,0,0,0,0,0,0,0,0,0,199,153,
7,49,2147483847,0,0,0,0,0,0,0,0,0,0,0,0,0,0,0,0,0,0,0,0,0,0,0,0,0,0,0,199,49,
49,36,2147483847,0,0,0,0,0,0,0,0,0,165,163,163,163,165,165,163,165,0,163,165,165,164,165,165,163,0,164,199,36,
36,145,2147483847,0,0,0,0,0,0,0,0,0,438,3,3,3,3,155,155,2147484086,0,3,155,155,155,155,3,3,0,2147483860,2147483801,143,
49,7,2147483847,0,0,0,0,0,0,0,0,0,199,7,49,36,49,7,145,2147483847,0,199,145,153,49,153,49,2147483847,0,0,199,36,
7,49,2147483847,0,0,0,0,0,0,0,0,0,199,143,36,49,7,49,7,2147483847,0,199,36,49,7,145,36,2147483847,0,0,199,49,
145,36,2147483847,0,0,164,163,0,0,0,0,0,199,153,247,247,247,247,247,212,0,2147483860,287,247,247,247,2147483801,2147483847,0,0,199,36,
153,49,2147483847,0,0,438,2147484086,0,0,0,0,0,199,2147483847,0,0,0,0,0,0,0,0,0,0,0,0,199,2147483847,0,0,199,145,
49,36,2147483847,0,0,199,2147483847,251,251,251,251,251,199,2147483847,0,0,0,0,0,0,0,0,0,0,0,0,199,2147483847,0,0,199,7,
7,143,2147483847,0,0,199,2147483847,274,274,274,274,274,199,2147483847,251,251,251,251,251,251,251,251,251,251,251,251,199,2147483847,0,0,2147483860,247,
145,7,2147483847,0,0,199,2147483847,274,274,274,274,274,199,2147483847,274,274,274,274,274,274,274,274,274,274,274,274,199,2147483847,0,0,0,0,
247,247,212,0,0,199,2147483847,274,274,274,274,274,199,2147483847,274,274,274,274,274,274,274,274,274,274,274,274,199,2147483847,0,0,0,0,
0,0,0,0,0,199,2147483847,274,274,274,274,274,199,2147483847,274,274,274,274,274,274,274,274,274,274,274,274,199,2147483847,163,163,165,164,
0,0,0,0,0,199,2147483847,274,274,274,274,274,199,1073741977,155,155,155,155,155,155,155,155,155,155,155,155,3221225625,1073741977,3,3,3,3,
165,164,165,163,164,199,2147483847,274,274,274,274,274,199,36,49,7,49,153,143,153,49,7,49,153,49,153,143,153,145,153,145,7,
155,155,155,155,155,3221225625,2147483847,274,274,274,274,274,199,49,7,49,36,49,153,49,7,49,153,49,153,49,153,49,7,49,153,145,
49,7,145,153,145,153,2147483847,274,274,274,274,274,199,153,49,49,49,49,49,143,49,49,49,49,49,49,49,49,49,49,49,49,
7,145,7,49,7,49,1073741977,155,155,155,155,155,3221225625,49,7,49,145,49,143,49,145,49,49,49,49,49,143,49,49,49,49,49,
49,143,49,145,143,7,49,153,49,7,49,7,49,153,49,145,49,143,49,143,49,49,49,49,49,49,49,49,49,49,49,145
</data>
 </layer>
 <layer id="7" name="Collisions_2" width="32" height="32">
  <data encoding="csv">
0,0,0,0,0,0,0,0,0,0,0,0,0,0,0,0,0,0,0,0,0,0,0,0,0,0,0,0,0,0,0,0,
0,0,0,0,0,0,0,0,0,0,0,0,0,0,0,0,0,0,0,0,0,0,0,0,0,0,0,0,0,0,0,0,
0,0,0,0,0,0,0,0,0,0,0,0,0,0,0,0,0,0,0,0,0,0,0,0,0,0,0,0,0,0,0,0,
0,0,0,0,0,0,0,0,0,0,0,0,0,0,0,0,0,0,0,0,0,0,0,0,0,0,0,0,0,0,0,0,
0,0,0,0,0,0,0,0,0,0,0,0,0,0,0,0,0,0,0,0,0,0,0,0,0,0,0,0,0,0,0,0,
0,0,0,0,0,0,0,0,0,0,0,0,0,0,0,0,0,0,0,0,0,0,0,0,0,0,0,0,0,0,0,0,
0,0,0,0,0,0,0,0,0,0,0,0,0,0,0,0,0,0,0,0,0,0,0,0,0,0,0,0,0,0,0,0,
0,139,0,141,0,0,0,0,0,0,0,0,0,0,0,0,0,0,0,0,0,0,0,0,0,0,0,0,0,0,0,0,
0,0,0,0,0,0,0,0,0,0,0,0,0,0,0,0,0,0,0,0,0,0,0,0,0,0,0,0,0,0,0,0,
0,0,0,0,0,0,0,0,0,0,0,0,0,0,0,0,0,0,0,0,0,0,0,0,0,0,0,0,0,0,0,0,
0,0,0,0,0,0,0,0,0,0,0,0,0,0,0,0,0,0,0,0,0,0,0,0,0,0,0,0,0,0,141,141,
0,0,0,0,0,0,0,0,0,0,0,0,0,0,0,0,0,0,0,0,0,0,0,0,0,0,0,0,0,0,0,0,
0,0,0,0,0,0,0,0,0,0,0,0,0,0,0,0,0,0,0,0,0,0,0,0,0,0,0,0,0,0,0,0,
0,0,0,0,0,0,0,0,0,0,0,0,0,0,0,0,0,0,0,0,0,0,0,0,0,0,0,0,0,0,0,0,
0,0,0,0,0,0,0,0,0,0,0,0,0,0,0,0,0,0,0,0,0,0,0,0,0,0,0,0,0,0,0,0,
0,0,0,0,0,0,0,0,0,0,0,0,0,139,0,0,0,0,141,0,0,141,0,139,141,141,141,139,0,0,0,0,
0,0,0,0,0,0,0,0,0,0,0,0,0,0,0,0,0,0,0,0,0,0,0,0,0,0,0,0,0,0,0,0,
0,0,0,0,0,0,0,0,0,0,0,0,0,0,0,0,0,0,0,0,0,0,0,0,0,0,0,0,0,0,0,0,
0,0,0,0,0,0,0,0,0,0,0,0,0,0,0,0,0,0,0,0,0,0,0,0,0,0,0,0,0,0,0,0,
0,0,0,0,0,139,139,0,0,0,0,0,0,0,0,0,0,0,0,0,0,0,0,0,0,0,0,0,0,0,0,0,
0,0,0,0,0,0,0,0,0,0,0,0,0,0,0,0,0,0,0,0,0,0,0,0,0,0,0,0,0,0,0,0,
0,0,0,0,0,0,0,0,0,0,0,0,0,0,0,0,0,0,0,0,0,0,0,0,0,0,0,0,0,0,0,0,
0,0,0,0,0,0,0,0,0,0,0,0,0,0,0,0,0,0,0,0,0,0,0,0,0,0,0,0,0,0,0,0,
0,0,0,0,0,0,0,0,0,0,0,0,0,0,0,0,0,0,0,0,0,0,0,0,0,0,0,0,0,0,0,0,
0,0,0,0,0,0,0,0,0,0,0,0,0,0,0,0,0,0,0,0,0,0,0,0,0,0,0,0,0,0,0,0,
0,0,0,0,0,0,0,0,0,0,0,0,0,0,0,0,0,0,0,0,0,0,0,0,0,0,0,0,141,139,0,0,
0,0,0,0,0,0,0,0,0,0,0,0,0,0,0,0,0,0,0,0,0,0,0,0,0,0,0,0,0,0,0,0,
0,0,0,139,0,0,0,0,0,0,0,0,0,0,0,0,0,0,0,0,0,0,0,0,0,0,0,0,0,0,0,0,
0,0,0,0,0,0,0,0,0,0,0,0,0,0,0,0,0,0,0,0,0,0,0,0,0,0,0,0,0,0,0,0,
0,0,0,0,0,0,0,0,0,0,0,0,0,0,0,0,0,0,0,0,0,0,0,0,0,0,0,0,0,0,0,0,
0,0,0,0,0,0,0,0,0,0,0,0,0,0,0,0,0,0,0,0,0,0,0,0,0,0,0,0,0,0,0,0,
0,0,0,0,0,0,0,0,0,0,0,0,0,0,0,0,0,0,0,0,0,0,0,0,0,0,0,0,0,0,0,0
</data>
 </layer>
 <objectgroup id="8" name="Entities">
  <object id="1" name="Item" type="Item" x="268" y="392" width="24" height="24">
   <properties>
    <property name="__anchorX" type="int" value="280"/>
    <property name="__anchorY" type="int" value="416"/>
    <property name="__cx" type="int" value="17"/>
    <property name="__cy" type="int" value="25"/>
    <property name="count" type="int" value="1"/>
    <property name="price" type="int" value="0"/>
    <property name="type" value="Green_gem"/>
   </properties>
  </object>
  <object id="2" name="Item" type="Item" x="380" y="392" width="24" height="24">
   <properties>
    <property name="__anchorX" type="int" value="392"/>
    <property name="__anchorY" type="int" value="416"/>
    <property name="__cx" type="int" value="24"/>
    <property name="__cy" type="int" value="25"/>
    <property name="count" type="int" value="50"/>
    <property name="price" type="int" value="0"/>
    <property name="type" value="Gold"/>
   </properties>
  </object>
  <object id="3" name="Item" type="Item" x="92" y="296" width="24" height="24">
   <properties>
    <property name="__anchorX" type="int" value="104"/>
    <property name="__anchorY" type="int" value="320"/>
    <property name="__cx" type="int" value="6"/>
    <property name="__cy" type="int" value="19"/>
    <property name="count" type="int" value="1"/>
    <property name="price" type="int" value="0"/>
    <property name="type" value="Meat"/>
   </properties>
  </object>
  <object id="4" name="Item" type="Item" x="220" y="152" width="24" height="24">
   <properties>
    <property name="__anchorX" type="int" value="232"/>
    <property name="__anchorY" type="int" value="176"/>
    <property name="__cx" type="int" value="14"/>
    <property name="__cy" type="int" value="10"/>
    <property name="count" type="int" value="1"/>
    <property name="price" type="int" value="0"/>
    <property name="type" value="Armor"/>
   </properties>
  </object>
  <object id="5" name="SecretArea" type="SecretArea" x="48" y="80" width="16" height="16">
   <properties>
    <property name="__anchorX" type="int" value="48"/>
    <property name="__anchorY" type="int" value="80"/>
    <property name="__cx" type="int" value="3"/>
    <property name="__cy" type="int" value="5"/>
    <property name="playSecretJingle" type="bool" value="true"/>
   </properties>
  </object>
  <object id="6" name="Ladder" type="Ladder" x="320" y="256" width="16" height="16">
   <properties>
    <property name="__anchorX" type="int" value="320"/>
    <property name="__anchorY" type="int" value="256"/>
    <property name="__cx" type="int" value="20"/>
    <property name="__cy" type="int" value="16"/>
   </properties>
  </object>
  <object id="7" name="Ladder" type="Ladder" x="64" y="320" width="16" height="16">
   <properties>
    <property name="__anchorX" type="int" value="64"/>
    <property name="__anchorY" type="int" value="320"/>
    <property name="__cx" type="int" value="4"/>
    <property name="__cy" type="int" value="20"/>
   </properties>
  </object>
  <object id="8" name="Ladder" type="Ladder" x="448" y="256" width="16" height="16">
   <properties>
    <property name="__anchorX" type="int" value="448"/>
    <property name="__anchorY" type="int" value="256"/>
    <property name="__cx" type="int" value="28"/>
    <property name="__cy" type="int" value="16"/>
   </properties>
  </object>
  <object id="9" name="Item" type="Item" x="332" y="392" width="24" height="24">
   <properties>
    <property name="__anchorX" type="int" value="344"/>
    <property name="__anchorY" type="int" value="416"/>
    <property name="__cx" type="int" value="21"/>
    <property name="__cy" type="int" value="25"/>
    <property name="count" type="int" value="20"/>
    <property name="price" type="int" value="0"/>
    <property name="type" value="Gold"/>
   </properties>
  </object>
 </objectgroup>
</map>
