<?xml version="1.0" encoding="UTF-8"?>
<map version="1.10" tiledversion="1.11.2" orientation="orthogonal" renderorder="right-down" compressionlevel="0" width="32" height="32" tilewidth="16" tileheight="16" infinite="0" backgroundcolor="#37494e" nextlayerid="11" nextobjectid="9">
 <tileset firstgid="1" name="SunnyLand_by_Ansimuz" tilewidth="16" tileheight="16" tilecount="483" columns="23" objectalignment="topleft">
  <image source="atlas/SunnyLand_by_Ansimuz-extended.png" width="368" height="336"/>
 </tileset>
 <tileset firstgid="484" name="Collisions" tilewidth="16" tileheight="16" tilecount="2" columns="2" objectalignment="topleft">
  <image source="Collisions.intgrid.png" width="32" height="16"/>
 </tileset>
 <layer id="1" name="Background_1" width="32" height="32">
  <data encoding="csv">
0,0,0,0,0,0,0,0,0,0,0,0,0,0,0,0,0,0,0,0,0,0,0,0,0,0,2147484011,412,363,0,0,0,
0,0,0,0,0,0,0,0,0,0,0,0,0,0,0,0,0,0,0,0,0,0,0,0,0,0,2147484011,412,363,0,0,0,
0,0,0,0,0,0,0,0,0,0,0,0,0,0,0,0,0,0,0,0,0,0,0,0,0,0,2147484011,412,363,0,0,0,
0,0,0,0,0,0,0,0,0,0,0,0,0,0,0,0,0,0,0,0,0,0,0,0,0,0,2147484011,412,2147484121,0,0,0,
0,0,0,0,0,0,0,0,0,0,0,0,0,0,0,0,0,0,0,0,0,0,0,0,0,0,0,0,0,0,0,0,
0,0,0,0,0,0,0,0,0,0,0,0,0,0,0,0,0,0,0,0,0,0,0,0,0,0,2147484011,412,3221225945,0,0,0,
0,0,0,0,0,0,0,0,0,0,0,0,0,0,0,0,0,0,0,0,0,0,0,0,0,0,2147484011,412,363,0,0,0,
0,0,0,0,0,0,0,0,0,0,0,0,0,0,0,0,0,0,0,0,0,0,0,0,0,412,2147484011,412,363,0,0,0,
0,0,0,0,0,0,0,0,0,0,0,0,0,0,0,0,0,0,0,0,2147484011,412,412,412,412,412,412,412,363,0,0,0,
0,0,0,0,0,0,0,0,0,0,0,0,0,0,0,0,0,0,0,0,2147484011,412,412,412,412,412,412,412,363,0,0,0,
0,0,0,0,0,0,0,0,1073742297,412,1073742299,412,412,412,412,412,412,363,0,0,2147484011,412,412,412,412,402,412,412,2147484121,0,0,0,
0,0,0,0,0,0,0,0,2147484011,412,412,412,412,412,412,412,412,363,0,0,2147484011,412,363,3221225884,0,0,0,0,0,0,0,0,
0,0,0,0,0,0,0,0,0,0,0,0,0,0,1073742236,2147484011,412,363,0,0,2147484011,2147484010,363,2147484060,0,0,0,0,0,0,0,0,
0,0,0,0,0,0,0,0,2147484011,2147484010,0,0,0,0,0,473,412,475,0,0,2147484011,412,412,412,412,412,306,412,412,412,3221225945,0,
0,0,0,0,0,0,0,0,2147484011,2147484010,0,0,0,0,0,0,0,0,0,0,2147484011,412,412,363,412,412,412,412,412,412,363,0,
0,0,0,0,0,0,0,0,2147484011,2147484010,0,0,0,0,0,1073742297,362,363,0,0,2147484011,412,412,412,412,412,412,412,412,412,2147484121,0,
0,0,0,0,0,0,0,0,2147484011,2147484010,0,0,0,0,0,2147484011,412,363,0,0,2147484011,412,412,412,412,363,2147484060,0,0,0,0,0,
0,0,0,0,0,0,0,0,2147484011,2147484010,0,0,0,0,0,2147484011,412,363,2147484060,412,2147484011,412,412,412,412,412,362,363,0,0,0,0,
0,0,0,0,0,0,0,0,2147484011,2147484010,0,0,0,0,0,2147484011,412,412,412,412,412,412,412,412,412,412,412,363,0,0,0,0,
0,0,0,0,0,0,0,0,2147484011,2147484010,0,0,0,0,0,473,412,412,412,412,412,412,412,412,412,412,412,363,0,0,0,0,
0,0,0,0,0,0,0,0,2147484011,2147484010,0,0,0,0,0,0,0,0,0,0,0,0,1073742236,2147484011,412,363,3221225884,0,0,0,0,0,
0,0,0,0,0,0,0,0,2147484011,2147484010,0,0,0,0,0,0,0,0,0,0,0,0,0,2147484011,412,363,0,0,0,0,0,0,
0,0,0,0,0,0,0,0,2147484011,2147484010,0,0,0,0,0,0,0,0,0,0,0,0,0,2147484011,412,363,0,0,0,0,0,0,
0,0,0,1073742297,412,362,363,412,2147484011,2147484010,0,0,0,0,0,0,0,0,0,0,0,0,0,2147484011,412,363,0,0,0,0,0,0,
0,0,0,2147484011,412,412,412,412,412,363,0,0,0,0,0,0,0,0,0,0,0,0,0,2147484011,2147484010,363,0,0,0,0,0,0,
0,0,0,473,412,1073742180,412,412,412,363,0,0,0,0,0,0,0,0,0,0,0,0,0,2147484011,412,363,0,0,0,0,0,0,
0,0,0,0,0,0,0,0,0,0,0,0,0,0,0,0,0,0,0,0,0,0,0,2147484011,412,363,0,0,0,0,0,0,
0,0,0,0,362,363,0,0,0,0,0,0,0,0,0,0,0,0,0,0,0,0,0,2147484011,412,363,0,0,0,0,0,0,
0,0,0,0,2147484011,2147484010,0,0,0,0,0,0,0,0,0,0,0,0,0,0,0,0,0,2147484011,2147484010,363,0,0,0,0,0,0,
0,0,0,0,2147484011,2147484010,0,0,0,0,0,0,0,0,0,0,0,0,0,0,0,0,0,2147484011,412,363,0,0,0,0,0,0,
0,0,0,0,2147484011,2147484010,0,0,0,0,0,0,0,0,0,0,0,0,0,0,0,0,0,2147484011,412,363,0,0,0,0,0,0,
0,0,0,0,2147484011,2147484010,0,0,0,0,0,0,0,0,0,0,0,0,0,0,0,0,0,2147484011,412,363,0,0,0,0,0,0
</data>
 </layer>
 <layer id="2" name="Background_2" width="32" height="32">
  <data encoding="csv">
0,0,0,0,0,0,0,0,0,0,0,0,0,0,0,0,0,0,0,0,0,0,0,0,0,0,0,2147484010,0,0,0,0,
0,0,0,0,0,0,0,0,0,0,0,0,0,0,0,0,0,0,0,0,0,0,0,0,0,0,0,2147484010,0,0,0,0,
0,0,0,0,0,0,0,0,0,0,0,0,0,0,0,0,0,0,0,0,0,0,0,0,0,0,2147484100,2147484010,2147484098,0,0,0,
0,0,0,0,0,0,0,0,0,0,0,0,0,0,0,0,0,0,0,0,0,0,0,0,0,0,2147484123,2147484010,0,0,0,0,
0,0,0,0,0,0,0,0,0,0,0,0,0,0,0,0,0,0,0,0,0,0,0,0,0,0,0,0,0,0,0,0,
0,0,0,0,0,0,0,0,0,0,0,0,0,0,0,0,0,0,0,0,0,0,0,0,0,0,3221225947,2147484010,0,0,0,0,
0,0,0,0,0,0,0,0,0,0,0,0,0,0,0,0,0,0,0,0,0,0,0,0,0,0,3221225924,2147484010,3221225922,0,0,0,
0,0,0,0,0,0,0,0,0,0,0,0,0,0,0,0,0,0,0,0,0,0,0,0,0,0,0,2147484010,0,0,0,0,
0,0,0,0,0,0,0,0,0,0,0,0,0,0,0,0,0,0,0,0,0,2147484010,0,0,355,356,357,362,0,0,0,0,
0,0,0,0,0,0,0,0,0,0,0,0,0,0,0,0,0,0,0,0,0,2147484010,0,0,378,379,380,362,2147484098,0,0,0,
0,0,0,0,0,0,0,0,0,1073742298,331,0,0,0,0,0,362,0,0,0,0,2147484010,0,0,401,0,403,2147484122,0,0,0,0,
0,0,0,0,0,0,0,0,1073742274,2147484010,1073742276,0,0,0,0,0,362,0,0,0,0,2147484010,0,0,0,0,0,0,0,0,0,0,
0,0,0,0,0,0,0,0,0,0,0,0,0,0,0,450,2147484010,452,0,0,362,362,364,0,0,0,0,0,0,0,0,0,
0,0,0,0,0,0,0,0,362,363,0,0,0,0,0,2147484123,474,2147484121,0,0,0,2147484010,0,0,0,0,0,0,3221225947,3221225946,0,0,
0,0,0,0,0,0,0,0,362,363,0,0,0,0,0,0,0,0,0,0,0,2147484010,362,0,364,0,0,0,3221225924,362,3221225922,0,
0,0,0,0,0,0,0,0,362,363,0,0,0,0,0,0,1073742298,1073742299,0,0,0,2147484010,0,0,0,0,0,0,2147484123,2147484122,0,0,
0,0,0,0,0,0,0,0,362,363,0,0,0,0,0,1073742274,2147484010,1073742276,0,0,0,2147484010,0,0,362,0,0,0,0,0,0,0,
0,0,0,0,0,0,0,0,362,363,0,0,0,0,0,0,2147484010,0,0,0,0,2147484010,0,0,0,0,331,0,0,0,0,0,
0,0,0,0,0,0,0,0,362,363,0,0,0,0,0,450,2147484010,452,0,0,0,0,0,0,0,0,362,0,0,0,0,0,
0,0,0,0,0,0,0,0,362,363,0,0,0,0,0,0,474,475,0,0,0,0,0,0,0,0,362,0,0,0,0,0,
0,0,0,0,0,0,0,0,362,363,0,0,0,0,0,0,0,0,0,0,0,0,0,0,2147484010,0,0,0,0,0,0,0,
0,0,0,0,0,0,0,0,362,363,0,0,0,0,0,0,0,0,0,0,0,0,0,0,2147484010,0,0,0,0,0,0,0,
0,0,0,0,0,0,0,0,362,363,0,0,0,0,0,0,0,0,0,0,0,0,0,0,2147484010,0,0,0,0,0,0,0,
0,0,0,0,1073742225,1073742226,1073742227,0,362,363,0,0,0,0,0,0,0,0,0,0,0,0,0,0,2147484010,0,0,0,0,0,0,0,
0,0,0,1073742274,2147484010,1073742203,1073742204,0,362,0,0,0,0,0,0,0,0,0,0,0,0,0,0,362,362,364,0,0,0,0,0,0,
0,0,0,0,1073742179,402,1073742181,0,362,0,0,0,0,0,0,0,0,0,0,0,0,0,0,0,2147484010,0,0,0,0,0,0,0,
0,0,0,0,0,0,0,0,0,0,0,0,0,0,0,0,0,0,0,0,0,0,0,0,2147484010,0,0,0,0,0,0,0,
0,0,0,0,306,0,0,0,0,0,0,0,0,0,0,0,0,0,0,0,0,0,0,0,2147484010,0,0,0,0,0,0,0,
0,0,0,0,362,363,0,0,0,0,0,0,0,0,0,0,0,0,0,0,0,0,0,362,362,364,0,0,0,0,0,0,
0,0,0,0,362,363,0,0,0,0,0,0,0,0,0,0,0,0,0,0,0,0,0,0,2147484010,0,0,0,0,0,0,0,
0,0,0,0,362,363,0,0,0,0,0,0,0,0,0,0,0,0,0,0,0,0,0,0,2147484010,0,0,0,0,0,0,0,
0,0,0,0,362,363,0,0,0,0,0,0,0,0,0,0,0,0,0,0,0,0,0,0,2147484010,0,0,0,0,0,0,0
</data>
 </layer>
 <layer id="3" name="Background_3" width="32" height="32">
  <data encoding="csv">
0,0,0,0,0,0,0,0,0,0,0,0,0,0,0,0,0,0,0,0,0,0,0,0,0,0,0,362,0,0,0,0,
0,0,0,0,0,0,0,0,0,0,0,0,0,0,0,0,0,0,0,0,0,0,0,0,0,0,0,362,0,0,0,0,
0,0,0,0,0,0,0,0,0,0,0,0,0,0,0,0,0,0,0,0,0,0,0,0,0,0,0,362,0,0,0,0,
0,0,0,0,0,0,0,0,0,0,0,0,0,0,0,0,0,0,0,0,0,0,0,0,0,0,0,2147484122,0,0,0,0,
0,0,0,0,0,0,0,0,0,0,0,0,0,0,0,0,0,0,0,0,0,0,0,0,0,0,0,0,0,0,0,0,
0,0,0,0,0,0,0,0,0,0,0,0,0,0,0,0,0,0,0,0,0,0,0,0,0,0,0,3221225946,0,0,0,0,
0,0,0,0,0,0,0,0,0,0,0,0,0,0,0,0,0,0,0,0,0,0,0,0,0,0,0,362,0,0,0,0,
0,0,0,0,0,0,0,0,0,0,0,0,0,0,0,0,0,0,0,0,0,0,0,0,0,0,0,362,0,0,0,0,
0,0,0,0,0,0,0,0,0,0,0,0,0,0,0,0,0,0,0,0,0,0,0,0,0,0,0,0,0,0,0,0,
0,0,0,0,0,0,0,0,0,0,0,0,0,0,0,0,0,0,0,0,0,0,0,0,0,0,2147484100,2147484099,0,0,0,0,
0,0,0,0,0,0,0,0,0,0,0,0,0,0,0,0,0,0,0,0,0,0,0,0,0,0,2147484123,0,0,0,0,0,
0,0,0,0,0,0,0,0,0,1073742275,0,0,0,0,0,0,0,0,0,0,0,362,0,0,0,0,0,0,0,0,0,0,
0,0,0,0,0,0,0,0,0,0,0,0,0,0,0,2147484100,362,2147484098,0,0,0,363,0,0,0,0,0,0,0,0,0,0,
0,0,0,0,0,0,0,0,0,0,0,0,0,0,0,0,2147484122,0,0,0,0,0,0,0,0,0,0,0,0,0,0,0,
0,0,0,0,0,0,0,0,0,0,0,0,0,0,0,0,0,0,0,0,0,0,0,0,0,0,0,0,2147484100,3221225923,2147484098,0,
0,0,0,0,0,0,0,0,0,0,0,0,0,0,0,0,308,0,0,0,0,0,0,0,0,0,0,0,0,0,0,0,
0,0,0,0,0,0,0,0,0,0,0,0,0,0,0,0,362,0,0,0,0,0,0,0,0,0,0,0,0,0,0,0,
0,0,0,0,0,0,0,0,0,0,0,0,0,0,0,0,362,0,0,0,0,0,0,0,0,0,0,0,0,0,0,0,
0,0,0,0,0,0,0,0,0,0,0,0,0,0,0,0,451,0,0,0,0,0,0,0,0,0,0,0,0,0,0,0,
0,0,0,0,0,0,0,0,0,0,0,0,0,0,0,0,0,0,0,0,0,0,0,0,0,0,0,0,0,0,0,0,
0,0,0,0,0,0,0,0,0,0,0,0,0,0,0,0,0,0,0,0,0,0,0,0,362,0,0,0,0,0,0,0,
0,0,0,0,0,0,0,0,0,0,0,0,0,0,0,0,0,0,0,0,0,0,0,0,362,0,0,0,0,0,0,0,
0,0,0,0,0,0,0,0,0,0,0,0,0,0,0,0,0,0,0,0,0,0,0,0,362,0,0,0,0,0,0,0,
0,0,0,0,355,356,357,0,0,0,0,0,0,0,0,0,0,0,0,0,0,0,0,0,362,0,0,0,0,0,0,0,
0,0,0,450,1073742202,379,380,0,0,0,0,0,0,0,0,0,0,0,0,0,0,0,0,0,363,0,0,0,0,0,0,0,
0,0,0,0,401,475,403,0,0,0,0,0,0,0,0,0,0,0,0,0,0,0,0,0,362,0,0,0,0,0,0,0,
0,0,0,0,0,0,0,0,0,0,0,0,0,0,0,0,0,0,0,0,0,0,0,0,362,0,0,0,0,0,0,0,
0,0,0,0,0,0,0,0,0,0,0,0,0,0,0,0,0,0,0,0,0,0,0,0,362,0,0,0,0,0,0,0,
0,0,0,0,0,0,0,0,0,0,0,0,0,0,0,0,0,0,0,0,0,0,0,0,363,0,0,0,0,0,0,0,
0,0,0,0,0,0,0,0,0,0,0,0,0,0,0,0,0,0,0,0,0,0,0,0,362,0,0,0,0,0,0,0,
0,0,0,0,0,0,0,0,0,0,0,0,0,0,0,0,0,0,0,0,0,0,0,0,362,0,0,0,0,0,0,0,
0,0,0,0,0,0,0,0,0,0,0,0,0,0,0,0,0,0,0,0,0,0,0,0,362,0,0,0,0,0,0,0
</data>
 </layer>
 <layer id="4" name="Background_4" width="32" height="32">
  <data encoding="csv">
0,0,0,0,0,0,0,0,0,0,0,0,0,0,0,0,0,0,0,0,0,0,0,0,0,0,0,0,0,0,0,0,
0,0,0,0,0,0,0,0,0,0,0,0,0,0,0,0,0,0,0,0,0,0,0,0,0,0,0,0,0,0,0,0,
0,0,0,0,0,0,0,0,0,0,0,0,0,0,0,0,0,0,0,0,0,0,0,0,0,0,0,2147484099,0,0,0,0,
0,0,0,0,0,0,0,0,0,0,0,0,0,0,0,0,0,0,0,0,0,0,0,0,0,0,0,0,0,0,0,0,
0,0,0,0,0,0,0,0,0,0,0,0,0,0,0,0,0,0,0,0,0,0,0,0,0,0,0,0,0,0,0,0,
0,0,0,0,0,0,0,0,0,0,0,0,0,0,0,0,0,0,0,0,0,0,0,0,0,0,0,0,0,0,0,0,
0,0,0,0,0,0,0,0,0,0,0,0,0,0,0,0,0,0,0,0,0,0,0,0,0,0,0,3221225923,0,0,0,0,
0,0,0,0,0,0,0,0,0,0,0,0,0,0,0,0,0,0,0,0,0,0,0,0,0,0,0,0,0,0,0,0,
0,0,0,0,0,0,0,0,0,0,0,0,0,0,0,0,0,0,0,0,0,0,0,0,0,0,0,0,0,0,0,0,
0,0,0,0,0,0,0,0,0,0,0,0,0,0,0,0,0,0,0,0,0,0,0,0,0,0,0,0,0,0,0,0,
0,0,0,0,0,0,0,0,0,0,0,0,0,0,0,0,0,0,0,0,0,0,0,0,0,0,0,0,0,0,0,0,
0,0,0,0,0,0,0,0,0,0,0,0,0,0,0,0,0,0,0,0,0,0,0,0,0,0,0,0,0,0,0,0,
0,0,0,0,0,0,0,0,0,0,0,0,0,0,0,0,451,0,0,0,0,0,0,0,0,0,0,0,0,0,0,0,
0,0,0,0,0,0,0,0,0,0,0,0,0,0,0,0,0,0,0,0,0,0,0,0,0,0,0,0,0,0,0,0,
0,0,0,0,0,0,0,0,0,0,0,0,0,0,0,0,0,0,0,0,0,0,0,0,0,0,0,0,0,2147484099,0,0,
0,0,0,0,0,0,0,0,0,0,0,0,0,0,0,0,0,0,0,0,0,0,0,0,0,0,0,0,0,0,0,0,
0,0,0,0,0,0,0,0,0,0,0,0,0,0,0,0,1073742275,0,0,0,0,0,0,0,0,0,0,0,0,0,0,0,
0,0,0,0,0,0,0,0,0,0,0,0,0,0,0,0,0,0,0,0,0,0,0,0,0,0,0,0,0,0,0,0,
0,0,0,0,0,0,0,0,0,0,0,0,0,0,0,0,0,0,0,0,0,0,0,0,0,0,0,0,0,0,0,0,
0,0,0,0,0,0,0,0,0,0,0,0,0,0,0,0,0,0,0,0,0,0,0,0,0,0,0,0,0,0,0,0,
0,0,0,0,0,0,0,0,0,0,0,0,0,0,0,0,0,0,0,0,0,0,0,0,0,0,0,0,0,0,0,0,
0,0,0,0,0,0,0,0,0,0,0,0,0,0,0,0,0,0,0,0,0,0,0,0,0,0,0,0,0,0,0,0,
0,0,0,0,0,0,0,0,0,0,0,0,0,0,0,0,0,0,0,0,0,0,0,0,0,0,0,0,0,0,0,0,
0,0,0,0,1073742298,1073742299,0,0,0,0,0,0,0,0,0,0,0,0,0,0,0,0,0,0,0,0,0,0,0,0,0,0,
0,0,0,0,378,1073742276,0,0,0,0,0,0,0,0,0,0,0,0,0,0,0,0,0,0,0,0,0,0,0,0,0,0,
0,0,0,0,474,0,0,0,0,0,0,0,0,0,0,0,0,0,0,0,0,0,0,0,0,0,0,0,0,0,0,0,
0,0,0,0,0,0,0,0,0,0,0,0,0,0,0,0,0,0,0,0,0,0,0,0,0,0,0,0,0,0,0,0,
0,0,0,0,0,0,0,0,0,0,0,0,0,0,0,0,0,0,0,0,0,0,0,0,0,0,0,0,0,0,0,0,
0,0,0,0,0,0,0,0,0,0,0,0,0,0,0,0,0,0,0,0,0,0,0,0,0,0,0,0,0,0,0,0,
0,0,0,0,0,0,0,0,0,0,0,0,0,0,0,0,0,0,0,0,0,0,0,0,0,0,0,0,0,0,0,0,
0,0,0,0,0,0,0,0,0,0,0,0,0,0,0,0,0,0,0,0,0,0,0,0,0,0,0,0,0,0,0,0,
0,0,0,0,0,0,0,0,0,0,0,0,0,0,0,0,0,0,0,0,0,0,0,0,0,0,0,0,0,0,0,0
</data>
 </layer>
 <layer id="5" name="Background_5" width="32" height="32">
  <data encoding="csv">
0,0,0,0,0,0,0,0,0,0,0,0,0,0,0,0,0,0,0,0,0,0,0,0,0,0,0,0,0,0,0,0,
0,0,0,0,0,0,0,0,0,0,0,0,0,0,0,0,0,0,0,0,0,0,0,0,0,0,0,0,0,0,0,0,
0,0,0,0,0,0,0,0,0,0,0,0,0,0,0,0,0,0,0,0,0,0,0,0,0,0,0,0,0,0,0,0,
0,0,0,0,0,0,0,0,0,0,0,0,0,0,0,0,0,0,0,0,0,0,0,0,0,0,0,0,0,0,0,0,
0,0,0,0,0,0,0,0,0,0,0,0,0,0,0,0,0,0,0,0,0,0,0,0,0,0,0,0,0,0,0,0,
0,0,0,0,0,0,0,0,0,0,0,0,0,0,0,0,0,0,0,0,0,0,0,0,0,0,0,0,0,0,0,0,
0,0,0,0,0,0,0,0,0,0,0,0,0,0,0,0,0,0,0,0,0,0,0,0,0,0,0,0,0,0,0,0,
0,0,0,0,0,0,0,0,0,0,0,0,0,0,0,0,0,0,0,0,0,0,0,0,0,0,0,0,0,0,0,0,
0,0,0,0,0,0,0,0,0,0,0,0,0,0,0,0,0,0,0,0,0,0,0,0,0,0,0,0,0,0,0,0,
0,0,0,0,0,0,0,0,0,0,0,0,0,0,0,0,0,0,0,0,0,0,0,0,0,0,0,0,0,0,0,0,
0,0,0,0,0,0,0,0,0,0,0,0,0,0,0,0,0,0,0,0,0,0,0,0,0,0,0,0,0,0,0,0,
0,0,0,0,0,0,0,0,0,0,0,0,0,0,0,0,0,0,0,0,0,0,0,0,0,0,0,0,0,0,0,0,
0,0,0,0,0,0,0,0,0,0,0,0,0,0,0,0,2147484099,0,0,0,0,0,0,0,0,0,0,0,0,0,0,0,
0,0,0,0,0,0,0,0,0,0,0,0,0,0,0,0,0,0,0,0,0,0,0,0,0,0,0,0,0,0,0,0,
0,0,0,0,0,0,0,0,0,0,0,0,0,0,0,0,0,0,0,0,0,0,0,0,0,0,0,0,0,0,0,0,
0,0,0,0,0,0,0,0,0,0,0,0,0,0,0,0,0,0,0,0,0,0,0,0,0,0,0,0,0,0,0,0,
0,0,0,0,0,0,0,0,0,0,0,0,0,0,0,0,331,0,0,0,0,0,0,0,0,0,0,0,0,0,0,0,
0,0,0,0,0,0,0,0,0,0,0,0,0,0,0,0,0,0,0,0,0,0,0,0,0,0,0,0,0,0,0,0,
0,0,0,0,0,0,0,0,0,0,0,0,0,0,0,0,0,0,0,0,0,0,0,0,0,0,0,0,0,0,0,0,
0,0,0,0,0,0,0,0,0,0,0,0,0,0,0,0,0,0,0,0,0,0,0,0,0,0,0,0,0,0,0,0,
0,0,0,0,0,0,0,0,0,0,0,0,0,0,0,0,0,0,0,0,0,0,0,0,0,0,0,0,0,0,0,0,
0,0,0,0,0,0,0,0,0,0,0,0,0,0,0,0,0,0,0,0,0,0,0,0,0,0,0,0,0,0,0,0,
0,0,0,0,0,0,0,0,0,0,0,0,0,0,0,0,0,0,0,0,0,0,0,0,0,0,0,0,0,0,0,0,
0,0,0,0,0,0,0,0,0,0,0,0,0,0,0,0,0,0,0,0,0,0,0,0,0,0,0,0,0,0,0,0,
0,0,0,0,1073742275,452,0,0,0,0,0,0,0,0,0,0,0,0,0,0,0,0,0,0,0,0,0,0,0,0,0,0,
0,0,0,0,0,0,0,0,0,0,0,0,0,0,0,0,0,0,0,0,0,0,0,0,0,0,0,0,0,0,0,0,
0,0,0,0,0,0,0,0,0,0,0,0,0,0,0,0,0,0,0,0,0,0,0,0,0,0,0,0,0,0,0,0,
0,0,0,0,0,0,0,0,0,0,0,0,0,0,0,0,0,0,0,0,0,0,0,0,0,0,0,0,0,0,0,0,
0,0,0,0,0,0,0,0,0,0,0,0,0,0,0,0,0,0,0,0,0,0,0,0,0,0,0,0,0,0,0,0,
0,0,0,0,0,0,0,0,0,0,0,0,0,0,0,0,0,0,0,0,0,0,0,0,0,0,0,0,0,0,0,0,
0,0,0,0,0,0,0,0,0,0,0,0,0,0,0,0,0,0,0,0,0,0,0,0,0,0,0,0,0,0,0,0,
0,0,0,0,0,0,0,0,0,0,0,0,0,0,0,0,0,0,0,0,0,0,0,0,0,0,0,0,0,0,0,0
</data>
 </layer>
 <layer id="6" name="Background_6" width="32" height="32">
  <data encoding="csv">
0,0,0,0,0,0,0,0,0,0,0,0,0,0,0,0,0,0,0,0,0,0,0,0,0,0,0,0,0,0,0,0,
0,0,0,0,0,0,0,0,0,0,0,0,0,0,0,0,0,0,0,0,0,0,0,0,0,0,0,0,0,0,0,0,
0,0,0,0,0,0,0,0,0,0,0,0,0,0,0,0,0,0,0,0,0,0,0,0,0,0,0,0,0,0,0,0,
0,0,0,0,0,0,0,0,0,0,0,0,0,0,0,0,0,0,0,0,0,0,0,0,0,0,0,0,0,0,0,0,
0,0,0,0,0,0,0,0,0,0,0,0,0,0,0,0,0,0,0,0,0,0,0,0,0,0,0,0,0,0,0,0,
0,0,0,0,0,0,0,0,0,0,0,0,0,0,0,0,0,0,0,0,0,0,0,0,0,0,0,0,0,0,0,0,
0,0,0,0,0,0,0,0,0,0,0,0,0,0,0,0,0,0,0,0,0,0,0,0,0,0,0,0,0,0,0,0,
0,0,0,0,0,0,0,0,0,0,0,0,0,0,0,0,0,0,0,0,0,0,0,0,0,0,0,0,0,0,0,0,
0,0,0,0,0,0,0,0,0,0,0,0,0,0,0,0,0,0,0,0,0,0,0,0,0,0,0,0,0,0,0,0,
0,0,0,0,0,0,0,0,0,0,0,0,0,0,0,0,0,0,0,0,0,0,0,0,0,0,0,0,0,0,0,0,
0,0,0,0,0,0,0,0,0,0,0,0,0,0,0,0,0,0,0,0,0,0,0,0,0,0,0,0,0,0,0,0,
0,0,0,0,0,0,0,0,0,0,0,0,0,0,0,0,0,0,0,0,0,0,0,0,0,0,0,0,0,0,0,0,
0,0,0,0,0,0,0,0,0,0,0,0,0,0,0,0,0,0,0,0,0,0,0,0,0,0,0,0,0,0,0,0,
0,0,0,0,0,0,0,0,0,0,0,0,0,0,0,0,0,0,0,0,0,0,0,0,0,0,0,0,0,0,0,0,
0,0,0,0,0,0,0,0,0,0,0,0,0,0,0,0,0,0,0,0,0,0,0,0,0,0,0,0,0,0,0,0,
0,0,0,0,0,0,0,0,0,0,0,0,0,0,0,0,0,0,0,0,0,0,0,0,0,0,0,0,0,0,0,0,
0,0,0,0,0,0,0,0,0,0,0,0,0,0,0,0,0,0,0,0,0,0,0,0,0,0,0,0,0,0,0,0,
0,0,0,0,0,0,0,0,0,0,0,0,0,0,0,0,0,0,0,0,0,0,0,0,0,0,0,0,0,0,0,0,
0,0,0,0,0,0,0,0,0,0,0,0,0,0,0,0,0,0,0,0,0,0,0,0,0,0,0,0,0,0,0,0,
0,0,0,0,0,0,0,0,0,0,0,0,0,0,0,0,0,0,0,0,0,0,0,0,0,0,0,0,0,0,0,0,
0,0,0,0,0,0,0,0,0,0,0,0,0,0,0,0,0,0,0,0,0,0,0,0,0,0,0,0,0,0,0,0,
0,0,0,0,0,0,0,0,0,0,0,0,0,0,0,0,0,0,0,0,0,0,0,0,0,0,0,0,0,0,0,0,
0,0,0,0,0,0,0,0,0,0,0,0,0,0,0,0,0,0,0,0,0,0,0,0,0,0,0,0,0,0,0,0,
0,0,0,0,0,0,0,0,0,0,0,0,0,0,0,0,0,0,0,0,0,0,0,0,0,0,0,0,0,0,0,0,
0,0,0,0,451,0,0,0,0,0,0,0,0,0,0,0,0,0,0,0,0,0,0,0,0,0,0,0,0,0,0,0,
0,0,0,0,0,0,0,0,0,0,0,0,0,0,0,0,0,0,0,0,0,0,0,0,0,0,0,0,0,0,0,0,
0,0,0,0,0,0,0,0,0,0,0,0,0,0,0,0,0,0,0,0,0,0,0,0,0,0,0,0,0,0,0,0,
0,0,0,0,0,0,0,0,0,0,0,0,0,0,0,0,0,0,0,0,0,0,0,0,0,0,0,0,0,0,0,0,
0,0,0,0,0,0,0,0,0,0,0,0,0,0,0,0,0,0,0,0,0,0,0,0,0,0,0,0,0,0,0,0,
0,0,0,0,0,0,0,0,0,0,0,0,0,0,0,0,0,0,0,0,0,0,0,0,0,0,0,0,0,0,0,0,
0,0,0,0,0,0,0,0,0,0,0,0,0,0,0,0,0,0,0,0,0,0,0,0,0,0,0,0,0,0,0,0,
0,0,0,0,0,0,0,0,0,0,0,0,0,0,0,0,0,0,0,0,0,0,0,0,0,0,0,0,0,0,0,0
</data>
 </layer>
 <layer id="8" name="Collisions_1" width="32" height="32">
  <data encoding="csv">
145,49,145,49,143,49,49,49,49,49,49,49,145,49,49,49,145,49,49,49,145,49,143,49,153,2147483847,0,0,0,199,153,145,
49,49,49,143,49,49,49,49,49,49,49,49,49,49,49,145,49,143,49,49,49,49,49,36,49,2147483847,0,0,0,199,143,153,
49,49,143,49,143,49,49,49,49,49,49,49,49,49,145,49,49,49,49,49,49,49,49,49,153,2147483847,0,0,0,199,7,143,
49,49,49,143,49,49,49,49,49,143,49,49,49,143,49,145,49,49,49,49,49,143,49,153,49,2147483847,165,165,164,199,49,153,
143,49,49,49,49,49,49,49,49,49,49,49,145,49,143,49,49,49,49,49,145,49,143,49,153,153,155,155,155,2147483801,153,145,
49,145,49,145,49,49,49,49,49,49,49,145,49,49,49,145,49,7,49,153,143,36,145,153,49,2147483847,0,0,0,199,49,36,
49,49,145,49,145,49,143,49,49,49,49,49,145,49,49,49,49,145,7,143,7,49,153,145,7,2147483847,0,0,0,199,7,49,
49,143,49,49,49,153,145,7,145,36,49,153,49,36,49,153,145,7,145,153,287,247,247,287,289,212,0,0,0,199,145,153,
143,49,49,49,145,143,7,145,36,49,153,49,153,49,36,49,153,143,36,2147483847,0,0,0,0,0,0,0,0,0,199,36,49,
49,143,49,49,49,36,143,153,247,247,287,247,289,289,247,287,289,247,2147483801,2147483847,0,0,0,0,0,0,0,0,0,199,49,36,
49,49,49,49,49,49,36,2147483847,0,0,0,0,0,0,0,0,0,0,199,2147483847,0,0,0,164,163,164,163,163,163,199,153,143,
49,49,49,49,49,153,49,2147483847,164,165,164,165,164,165,163,0,0,0,199,2147483847,0,0,0,438,3,3,3,3,3,3221225625,143,7,
49,49,49,49,49,49,7,153,155,155,2147483801,155,155,155,2147484086,0,0,0,199,2147483847,0,0,0,2147483860,287,247,247,247,289,247,247,2147483801,
49,49,49,49,49,7,49,2147483847,0,0,199,36,49,36,2147483847,165,163,165,199,2147483847,0,0,0,0,0,0,0,0,0,0,0,199,
143,49,49,49,49,49,36,2147483847,0,0,199,49,36,143,153,155,155,155,2147483801,2147483847,0,0,0,0,0,0,0,0,0,0,0,199,
49,143,49,49,49,7,145,2147483847,0,0,199,7,145,153,2147483847,0,0,0,199,2147483847,0,0,0,0,0,0,165,163,165,164,163,199,
49,49,49,49,49,49,153,2147483847,0,0,199,145,7,49,2147483847,0,0,0,199,2147483847,0,0,0,0,0,0,2147483860,155,3,3,3,3221225625,
49,49,49,49,49,36,145,2147483847,0,0,199,7,49,7,2147483847,0,0,0,2147483860,212,0,0,0,0,0,0,0,0,199,7,143,36,
145,49,49,49,143,145,153,2147483847,0,0,199,143,153,143,2147483847,0,0,0,0,0,0,0,0,0,0,0,0,0,199,145,153,49,
49,49,49,49,49,36,145,2147483847,0,0,199,36,49,36,2147483847,164,165,163,163,164,163,163,163,0,0,0,163,165,199,153,49,49,
153,49,36,49,7,143,7,2147483847,0,0,199,49,153,49,1073741977,3,3,155,155,155,155,155,3,0,0,0,438,155,3221225625,49,7,49,
49,36,49,153,49,36,145,2147483847,0,0,199,7,49,36,145,7,49,7,145,36,49,36,2147483847,0,0,0,199,36,49,36,49,49,
7,143,153,247,287,247,287,2147483801,0,0,199,49,7,49,7,145,153,145,36,143,36,49,2147483847,0,0,0,199,145,7,49,36,49,
145,7,2147483847,0,0,0,0,212,0,0,199,153,143,49,49,49,49,49,49,49,49,153,2147483847,0,0,0,199,7,49,145,49,49,
7,49,2147483847,0,0,0,0,0,0,0,199,49,7,49,145,49,49,49,49,49,7,49,2147483847,0,0,0,199,145,36,49,145,49,
143,36,2147483847,165,164,163,163,164,164,163,199,36,49,143,49,49,49,49,49,143,49,7,2147483847,0,0,0,199,153,145,49,49,145,
153,143,1073741977,153,155,155,3,3,155,155,3221225625,49,7,49,143,49,49,49,145,49,36,49,2147483847,0,0,0,199,145,36,49,49,49,
49,153,145,2147483847,0,0,199,153,49,36,49,7,49,145,49,49,49,145,49,143,49,7,2147483847,0,0,0,199,153,145,49,49,49,
153,49,36,2147483847,0,0,199,145,153,143,153,49,36,49,49,49,49,49,143,49,7,49,2147483847,0,0,0,199,49,7,49,49,49,
49,7,145,2147483847,0,0,199,36,49,49,49,143,49,145,49,49,49,49,49,143,49,153,2147483847,0,0,0,199,7,49,49,49,49,
143,145,7,2147483847,0,0,199,49,7,49,143,49,145,49,49,49,145,49,143,49,36,145,2147483847,0,0,0,199,49,36,49,49,49,
49,7,143,2147483847,0,0,199,153,49,49,49,49,49,49,49,145,49,143,49,143,49,36,2147483847,0,0,0,199,36,49,49,49,145
</data>
 </layer>
 <layer id="9" name="Collisions_2" width="32" height="32">
  <data encoding="csv">
0,0,0,0,0,0,0,0,0,0,0,0,0,0,0,0,0,0,0,0,0,0,0,0,0,0,0,0,0,0,0,0,
0,0,0,0,0,0,0,0,0,0,0,0,0,0,0,0,0,0,0,0,0,0,0,0,0,0,0,0,0,0,0,0,
0,0,0,0,0,0,0,0,0,0,0,0,0,0,0,0,0,0,0,0,0,0,0,0,0,0,0,0,0,0,0,0,
0,0,0,0,0,0,0,0,0,0,0,0,0,0,0,0,0,0,0,0,0,0,0,0,0,0,0,0,0,0,0,0,
0,0,0,0,0,0,0,0,0,0,0,0,0,0,0,0,0,0,0,0,0,0,0,0,0,0,0,0,0,0,0,0,
0,0,0,0,0,0,0,0,0,0,0,0,0,0,0,0,0,0,0,0,0,0,0,0,0,0,0,0,0,0,0,0,
0,0,0,0,0,0,0,0,0,0,0,0,0,0,0,0,0,0,0,0,0,0,0,0,0,0,0,0,0,0,0,0,
0,0,0,0,0,0,0,0,0,0,0,0,0,0,0,0,0,0,0,0,0,0,0,0,0,0,0,0,0,0,0,0,
0,0,0,0,0,0,0,0,0,0,0,0,0,0,0,0,0,0,0,0,0,0,0,0,0,0,0,0,0,0,0,0,
0,0,0,0,0,0,0,0,0,0,0,0,0,0,0,0,0,0,0,0,0,0,0,0,0,0,0,0,0,0,0,0,
0,0,0,0,0,0,0,0,0,0,0,0,0,0,0,0,0,0,0,0,0,0,0,0,139,0,0,0,139,0,0,0,
0,0,0,0,0,0,0,0,0,0,141,141,141,139,139,0,0,0,0,0,0,0,0,0,0,0,0,0,0,0,0,0,
0,0,0,0,0,0,0,0,0,0,0,0,0,0,0,0,0,0,0,0,0,0,0,0,0,0,0,0,0,0,0,0,
0,0,0,0,0,0,0,0,0,0,0,0,0,0,0,0,0,0,0,0,0,0,0,0,0,0,0,0,0,0,0,0,
0,0,0,0,0,0,0,0,0,0,0,0,0,0,0,0,0,0,0,0,0,0,0,0,0,0,0,0,0,0,0,0,
0,0,0,0,0,0,0,0,0,0,0,0,0,0,0,0,0,0,0,0,0,0,0,0,0,0,0,0,139,0,141,0,
0,0,0,0,0,0,0,0,0,0,0,0,0,0,0,0,0,0,0,0,0,0,0,0,0,0,0,0,0,0,0,0,
0,0,0,0,0,0,0,0,0,0,0,0,0,0,0,0,0,0,0,0,0,0,0,0,0,0,0,0,0,0,0,0,
0,0,0,0,0,0,0,0,0,0,0,0,0,0,0,0,0,0,0,0,0,0,0,0,0,0,0,0,0,0,0,0,
0,0,0,0,0,0,0,0,0,0,0,0,0,0,0,141,141,141,0,139,141,141,0,0,0,0,141,139,0,0,0,0,
0,0,0,0,0,0,0,0,0,0,0,0,0,0,0,0,0,0,0,0,0,0,0,0,0,0,0,0,0,0,0,0,
0,0,0,0,0,0,0,0,0,0,0,0,0,0,0,0,0,0,0,0,0,0,0,0,0,0,0,0,0,0,0,0,
0,0,0,0,0,0,0,0,0,0,0,0,0,0,0,0,0,0,0,0,0,0,0,0,0,0,0,0,0,0,0,0,
0,0,0,0,0,0,0,0,0,0,0,0,0,0,0,0,0,0,0,0,0,0,0,0,0,0,0,0,0,0,0,0,
0,0,0,0,0,0,0,0,0,0,0,0,0,0,0,0,0,0,0,0,0,0,0,0,0,0,0,0,0,0,0,0,
0,0,0,139,0,0,139,139,0,0,0,0,0,0,0,0,0,0,0,0,0,0,0,0,0,0,0,0,0,0,0,0,
0,0,0,0,0,0,0,0,0,0,0,0,0,0,0,0,0,0,0,0,0,0,0,0,0,0,0,0,0,0,0,0,
0,0,0,0,0,0,0,0,0,0,0,0,0,0,0,0,0,0,0,0,0,0,0,0,0,0,0,0,0,0,0,0,
0,0,0,0,0,0,0,0,0,0,0,0,0,0,0,0,0,0,0,0,0,0,0,0,0,0,0,0,0,0,0,0,
0,0,0,0,0,0,0,0,0,0,0,0,0,0,0,0,0,0,0,0,0,0,0,0,0,0,0,0,0,0,0,0,
0,0,0,0,0,0,0,0,0,0,0,0,0,0,0,0,0,0,0,0,0,0,0,0,0,0,0,0,0,0,0,0,
0,0,0,0,0,0,0,0,0,0,0,0,0,0,0,0,0,0,0,0,0,0,0,0,0,0,0,0,0,0,0,0
</data>
 </layer>
 <objectgroup id="10" name="Entities">
  <object id="1" name="Item" type="Item" x="332" y="296" width="24" height="24">
   <properties>
    <property name="__anchorX" type="int" value="344"/>
    <property name="__anchorY" type="int" value="320"/>
    <property name="__cx" type="int" value="21"/>
    <property name="__cy" type="int" value="19"/>
    <property name="count" type="int" value="10"/>
    <property name="price" type="int" value="0"/>
    <property name="type" value="Ammo"/>
   </properties>
  </object>
  <object id="2" name="Teleport" type="Teleport" x="460" y="232" width="24" height="24">
   <properties>
    <property name="__anchorX" type="int" value="472"/>
    <property name="__anchorY" type="int" value="256"/>
    <property name="__cx" type="int" value="29"/>
    <property name="__cy" type="int" value="15"/>
    <property name="destination" value="abd6a7b0-66b0-11ec-a595-ffcc1299ef8f"/>
   </properties>
  </object>
  <object id="3" name="Ladder" type="Ladder" x="432" y="256" width="16" height="16">
   <properties>
    <property name="__anchorX" type="int" value="432"/>
    <property name="__anchorY" type="int" value="256"/>
    <property name="__cx" type="int" value="27"/>
    <property name="__cy" type="int" value="16"/>
   </properties>
  </object>
  <object id="4" name="Ladder" type="Ladder" x="144" y="192" width="16" height="16">
   <properties>
    <property name="__anchorX" type="int" value="144"/>
    <property name="__anchorY" type="int" value="192"/>
    <property name="__cx" type="int" value="9"/>
    <property name="__cy" type="int" value="12"/>
   </properties>
  </object>
  <object id="5" name="Ladder" type="Ladder" x="80" y="416" width="16" height="16">
   <properties>
    <property name="__anchorX" type="int" value="80"/>
    <property name="__anchorY" type="int" value="416"/>
    <property name="__cx" type="int" value="5"/>
    <property name="__cy" type="int" value="26"/>
   </properties>
  </object>
  <object id="6" name="Ladder" type="Ladder" x="448" y="0" width="16" height="16">
   <properties>
    <property name="__anchorX" type="int" value="448"/>
    <property name="__anchorY" type="int" value="0"/>
    <property name="__cx" type="int" value="28"/>
    <property name="__cy" type="int" value="0"/>
   </properties>
  </object>
  <object id="7" name="Ladder" type="Ladder" x="416" y="64" width="16" height="16">
   <properties>
    <property name="__anchorX" type="int" value="416"/>
    <property name="__anchorY" type="int" value="64"/>
    <property name="__cx" type="int" value="26"/>
    <property name="__cy" type="int" value="4"/>
   </properties>
  </object>
  <object id="8" name="Ladder" type="Ladder" x="256" y="224" width="16" height="16">
   <properties>
    <property name="__anchorX" type="int" value="256"/>
    <property name="__anchorY" type="int" value="224"/>
    <property name="__cx" type="int" value="16"/>
    <property name="__cy" type="int" value="14"/>
   </properties>
  </object>
 </objectgroup>
</map>
