<?xml version="1.0" encoding="UTF-8"?>
<map version="1.10" tiledversion="1.11.2" orientation="orthogonal" renderorder="right-down" compressionlevel="0" width="16" height="32" tilewidth="16" tileheight="16" infinite="0" backgroundcolor="#37494e" nextlayerid="9" nextobjectid="11">
 <tileset firstgid="1" name="SunnyLand_by_Ansimuz" tilewidth="16" tileheight="16" tilecount="483" columns="23" objectalignment="topleft">
  <image source="atlas/SunnyLand_by_Ansimuz-extended.png" width="368" height="336"/>
 </tileset>
 <tileset firstgid="484" name="Collisions" tilewidth="16" tileheight="16" tilecount="2" columns="2" objectalignment="topleft">
  <image source="Collisions.intgrid.png" width="32" height="16"/>
 </tileset>
 <layer id="1" name="Background_1" width="16" height="32">
  <data encoding="csv">
0,0,0,0,0,0,0,0,0,0,0,0,0,0,0,0,
0,0,0,0,0,0,0,0,0,0,0,0,0,0,0,0,
0,0,0,0,0,0,0,0,0,0,0,0,0,0,0,0,
0,0,0,0,0,0,0,0,1073742297,412,412,412,363,0,0,0,
0,0,0,0,0,0,0,0,2147484011,412,412,412,363,0,0,0,
0,0,0,0,0,0,0,0,2147484011,412,412,412,363,0,0,0,
0,0,0,0,0,0,0,412,2147484011,412,412,412,363,0,0,0,
412,412,412,412,1073742225,1073742226,1073742227,412,412,412,412,412,363,0,0,0,
412,412,412,412,412,412,363,412,412,412,412,412,363,0,0,0,
412,412,412,412,412,412,412,412,412,412,402,412,363,0,0,0,
0,0,0,0,0,0,0,0,0,0,0,0,0,0,0,0,
0,0,331,412,412,1073742226,1073742227,412,412,412,1073742226,412,363,0,0,0,
0,0,2147484011,412,412,412,363,412,412,412,412,412,363,0,0,0,
0,0,473,412,412,1073742180,412,412,412,412,412,412,363,2147484060,0,0,
0,0,0,0,0,0,0,412,2147484011,412,412,412,412,412,363,0,
0,0,1073742297,412,412,412,412,412,412,412,412,412,412,412,363,0,
0,0,2147484011,412,412,412,412,412,412,412,412,412,412,412,363,0,
0,0,0,0,0,0,0,0,0,0,0,0,0,0,0,0,
0,0,0,0,0,0,0,0,0,0,0,0,0,0,0,0,
0,0,0,0,0,0,0,0,0,0,0,0,0,0,0,0,
0,0,0,1073742297,412,1073742226,412,363,2147484060,0,0,412,2147484011,412,3221225945,0,
0,0,0,2147484011,412,412,412,412,412,412,412,412,412,412,363,0,
0,0,0,2147484011,412,412,412,412,412,412,412,412,412,412,2147484121,0,
0,0,0,2147484011,412,412,412,363,3221225884,0,0,0,0,0,0,0,
0,0,0,2147484011,412,412,412,363,2147484060,0,0,0,0,0,0,0,
0,0,0,0,1073742236,2147484011,412,412,412,412,1073742226,412,308,412,363,0,
0,0,0,0,412,2147484011,412,412,363,412,412,412,412,412,363,0,
0,0,1073742297,412,412,412,412,412,412,412,412,412,412,412,363,0,
0,0,2147484011,2147484010,412,412,363,412,412,412,412,412,412,412,363,0,
0,0,2147484011,412,412,412,412,412,412,412,402,412,412,412,363,0,
0,0,0,0,0,0,0,0,0,0,0,0,0,0,0,0,
0,0,0,0,0,0,0,0,0,0,2147484011,412,363,0,0,0
</data>
 </layer>
 <layer id="2" name="Background_2" width="16" height="32">
  <data encoding="csv">
0,0,0,0,0,0,0,0,0,0,0,0,0,0,0,0,
0,0,0,0,0,0,0,0,0,0,0,0,0,0,0,0,
0,0,0,0,0,0,0,0,0,0,0,0,0,0,0,0,
0,0,0,0,0,0,0,0,0,1073742298,1073742299,362,0,0,0,0,
0,0,0,0,0,0,0,0,1073742274,2147484010,1073742276,362,0,0,0,0,
0,0,0,0,0,0,0,0,0,2147484010,0,362,0,0,0,0,
0,0,0,0,0,0,0,0,0,2147484010,0,362,0,0,0,0,
0,0,0,0,306,0,306,0,0,355,356,362,0,0,0,0,
0,0,0,0,1073742202,362,1073742204,364,0,378,379,362,0,0,0,0,
0,0,0,0,1073742179,1073742180,1073742181,0,0,401,0,362,0,0,0,0,
0,0,0,0,0,0,0,0,0,0,0,0,0,0,0,0,
0,0,0,0,1073742225,356,357,0,0,1073742225,0,362,0,0,0,0,
0,0,450,2147484010,1073742202,362,1073742204,364,0,1073742202,1073742203,362,0,0,0,0,
0,0,0,474,1073742179,402,1073742181,0,0,1073742179,1073742180,362,0,0,0,0,
0,0,0,0,0,0,0,0,0,2147484010,0,0,0,362,0,0,
0,0,0,1073742298,1073742299,0,0,0,0,0,0,0,0,362,0,0,
0,0,1073742274,2147484010,1073742276,0,0,0,0,0,0,0,0,362,0,0,
0,0,0,0,0,0,0,0,0,0,0,0,0,0,0,0,
0,0,0,0,0,0,0,0,0,0,0,0,0,0,0,0,
0,0,0,0,0,0,0,0,0,0,0,0,0,0,0,0,
0,0,0,0,1073742225,1073742299,362,0,0,0,0,0,3221225947,2147484010,0,0,
0,0,0,1073742274,2147484010,1073742203,1073742204,0,0,0,0,0,3221225924,362,3221225922,0,
0,0,0,0,2147484010,1073742180,1073742181,0,0,0,0,0,2147484123,2147484122,0,0,
0,0,0,0,2147484010,0,362,0,0,0,0,0,0,0,0,0,
0,0,0,0,2147484010,0,362,0,0,0,0,0,0,0,0,0,
0,0,0,0,0,0,2147484010,0,0,1073742225,0,1073742227,0,362,0,0,
0,0,0,0,0,0,2147484010,362,0,364,1073742203,1073742204,331,362,0,0,
0,0,0,1073742298,1073742299,0,0,0,0,1073742179,1073742180,1073742181,0,362,0,0,
0,0,362,363,364,362,0,364,0,378,379,380,0,362,0,0,
0,0,0,2147484010,0,0,0,0,0,401,0,403,0,362,0,0,
0,0,0,0,0,0,0,0,0,0,0,0,0,0,0,0,
0,0,0,0,0,0,0,0,0,0,0,2147484010,0,0,0,0
</data>
 </layer>
 <layer id="3" name="Background_3" width="16" height="32">
  <data encoding="csv">
0,0,0,0,0,0,0,0,0,0,0,0,0,0,0,0,
0,0,0,0,0,0,0,0,0,0,0,0,0,0,0,0,
0,0,0,0,0,0,0,0,0,0,0,0,0,0,0,0,
0,0,0,0,0,0,0,0,0,0,0,0,0,0,0,0,
0,0,0,0,0,0,0,0,0,1073742275,0,0,0,0,0,0,
0,0,0,0,0,0,0,0,0,0,0,0,0,0,0,0,
0,0,0,0,0,0,0,0,0,0,0,0,0,0,0,0,
0,0,0,0,0,0,0,0,0,0,0,357,0,0,0,0,
0,0,0,0,0,1073742203,0,0,0,0,0,380,0,0,0,0,
0,0,0,0,0,0,0,0,0,0,0,403,0,0,0,0,
0,0,0,0,0,0,0,0,0,0,0,0,0,0,0,0,
0,0,0,0,355,0,308,0,0,0,0,1073742227,0,0,0,0,
0,0,0,451,378,1073742203,380,0,0,0,0,1073742204,0,0,0,0,
0,0,0,0,401,0,403,0,0,0,0,1073742181,0,0,0,0,
0,0,0,0,0,0,0,0,0,0,0,0,0,0,0,0,
0,0,0,0,0,0,0,0,0,0,0,0,0,0,0,0,
0,0,0,1073742275,0,0,0,0,0,0,0,0,0,0,0,0,
0,0,0,0,0,0,0,0,0,0,0,0,0,0,0,0,
0,0,0,0,0,0,0,0,0,0,0,0,0,0,0,0,
0,0,0,0,0,0,0,0,0,0,0,0,0,0,0,0,
0,0,0,0,1073742298,0,1073742227,0,0,0,0,0,0,3221225946,0,0,
0,0,0,0,1073742202,1073742276,0,0,0,0,0,0,2147484100,3221225923,2147484098,0,
0,0,0,0,1073742179,0,0,0,0,0,0,0,0,0,0,0,
0,0,0,0,0,0,0,0,0,0,0,0,0,0,0,0,
0,0,0,0,0,0,0,0,0,0,0,0,0,0,0,0,
0,0,0,0,0,0,0,0,0,0,0,0,0,0,0,0,
0,0,0,0,0,0,0,0,0,1073742202,0,0,0,0,0,0,
0,0,0,0,0,0,0,0,0,355,356,357,0,0,0,0,
0,0,1073742274,1073742275,1073742276,0,0,0,0,0,0,0,0,0,0,0,
0,0,0,0,0,0,0,0,0,0,0,0,0,0,0,0,
0,0,0,0,0,0,0,0,0,0,0,0,0,0,0,0,
0,0,0,0,0,0,0,0,0,0,0,362,0,0,0,0
</data>
 </layer>
 <layer id="4" name="Background_4" width="16" height="32">
  <data encoding="csv">
0,0,0,0,0,0,0,0,0,0,0,0,0,0,0,0,
0,0,0,0,0,0,0,0,0,0,0,0,0,0,0,0,
0,0,0,0,0,0,0,0,0,0,0,0,0,0,0,0,
0,0,0,0,0,0,0,0,0,0,0,0,0,0,0,0,
0,0,0,0,0,0,0,0,0,0,0,0,0,0,0,0,
0,0,0,0,0,0,0,0,0,0,0,0,0,0,0,0,
0,0,0,0,0,0,0,0,0,0,0,0,0,0,0,0,
0,0,0,0,0,0,0,0,0,0,0,0,0,0,0,0,
0,0,0,0,0,0,0,0,0,0,0,0,0,0,0,0,
0,0,0,0,0,0,0,0,0,0,0,0,0,0,0,0,
0,0,0,0,0,0,0,0,0,0,0,0,0,0,0,0,
0,0,0,0,0,0,0,0,0,0,0,0,0,0,0,0,
0,0,0,0,452,379,331,0,0,0,0,0,0,0,0,0,
0,0,0,0,475,0,0,0,0,0,0,0,0,0,0,0,
0,0,0,0,0,0,0,0,0,0,0,0,0,0,0,0,
0,0,0,0,0,0,0,0,0,0,0,0,0,0,0,0,
0,0,0,0,0,0,0,0,0,0,0,0,0,0,0,0,
0,0,0,0,0,0,0,0,0,0,0,0,0,0,0,0,
0,0,0,0,0,0,0,0,0,0,0,0,0,0,0,0,
0,0,0,0,0,0,0,0,0,0,0,0,0,0,0,0,
0,0,0,0,0,0,0,0,0,0,0,0,0,0,0,0,
0,0,0,0,1073742275,0,0,0,0,0,0,0,0,2147484099,0,0,
0,0,0,0,0,0,0,0,0,0,0,0,0,0,0,0,
0,0,0,0,0,0,0,0,0,0,0,0,0,0,0,0,
0,0,0,0,0,0,0,0,0,0,0,0,0,0,0,0,
0,0,0,0,0,0,0,0,0,0,0,0,0,0,0,0,
0,0,0,0,0,0,0,0,0,0,0,0,0,0,0,0,
0,0,0,0,0,0,0,0,0,0,0,0,0,0,0,0,
0,0,0,0,0,0,0,0,0,0,0,0,0,0,0,0,
0,0,0,0,0,0,0,0,0,0,0,0,0,0,0,0,
0,0,0,0,0,0,0,0,0,0,0,0,0,0,0,0,
0,0,0,0,0,0,0,0,0,0,0,0,0,0,0,0
</data>
 </layer>
 <layer id="6" name="Collisions_1" width="16" height="32">
  <data encoding="csv">
145,49,49,49,49,49,153,145,153,145,36,49,36,49,7,145,
49,143,49,49,49,36,143,36,49,153,49,153,49,7,49,36,
145,49,49,49,143,143,153,153,247,247,247,247,287,2147483801,153,49,
49,145,49,143,49,153,145,2147483847,0,0,0,0,0,199,49,153,
7,145,153,145,153,49,36,2147483847,0,0,0,0,0,199,36,145,
143,153,143,153,49,36,49,2147483847,0,0,0,0,0,199,143,7,
247,247,287,289,247,247,247,212,0,0,0,0,0,199,36,145,
0,0,0,0,0,0,0,0,0,0,0,0,0,199,145,153,
0,0,0,0,0,0,0,0,0,0,0,0,0,199,7,143,
164,164,165,165,165,163,164,165,164,163,163,165,164,199,145,153,
155,3,155,155,155,155,155,155,155,155,155,155,155,2147483801,7,49,
49,2147483847,0,0,0,0,0,0,0,0,0,0,0,199,49,7,
7,2147483847,0,0,0,0,0,0,0,0,0,0,0,199,153,49,
49,2147483847,163,164,165,165,165,164,0,0,0,0,0,2147483860,289,2147483801,
36,153,155,155,155,155,155,212,0,0,0,0,0,0,0,199,
143,2147483847,0,0,0,0,0,0,0,0,0,0,0,0,0,199,
36,2147483847,165,163,165,163,165,163,165,165,163,165,165,163,164,199,
49,1073741977,155,3,155,155,155,3,155,155,3,3,3,155,155,3221225625,
7,49,153,49,153,143,153,145,7,145,36,49,153,145,153,145,
49,7,153,287,247,289,287,247,2147483801,7,145,153,247,247,287,2147483801,
7,49,2147483847,0,0,0,0,0,2147483860,247,287,212,0,0,0,199,
143,36,2147483847,0,0,0,0,0,0,0,0,0,0,0,0,199,
7,143,2147483847,0,0,0,0,0,164,163,163,163,164,164,164,199,
143,153,2147483847,0,0,0,0,0,3,3,3,3,3,3,155,3221225625,
153,49,2147483847,164,164,0,0,0,2147483860,289,247,289,247,247,289,2147483801,
143,7,1073741977,155,2147484086,0,0,0,0,0,0,0,0,0,0,199,
7,153,247,289,212,0,0,0,0,0,0,0,0,0,0,199,
49,2147483847,0,0,0,0,0,0,0,0,0,0,0,0,0,199,
7,2147483847,0,0,0,0,0,0,0,0,0,0,0,0,0,199,
49,2147483847,165,164,165,165,163,164,163,165,163,164,163,163,164,199,
7,1073741977,3,155,155,155,155,155,155,3,155,155,155,2147483801,155,3221225625,
143,153,49,36,49,36,143,7,49,2147483847,0,0,0,199,143,36
</data>
 </layer>
 <layer id="7" name="Collisions_2" width="16" height="32">
  <data encoding="csv">
0,0,0,0,0,0,0,0,0,0,0,0,0,0,0,0,
0,0,0,0,0,0,0,0,0,0,0,0,0,0,0,0,
0,0,0,0,0,0,0,0,0,0,0,0,0,0,0,0,
0,0,0,0,0,0,0,0,0,0,0,0,0,0,0,0,
0,0,0,0,0,0,0,0,0,0,0,0,0,0,0,0,
0,0,0,0,0,0,0,0,0,0,0,0,0,0,0,0,
0,0,0,0,0,0,0,0,0,0,0,0,0,0,0,0,
0,0,0,0,0,0,0,0,0,0,0,0,0,0,0,0,
0,0,0,0,0,0,0,0,0,0,0,0,0,0,0,0,
139,0,0,0,0,0,0,0,0,0,0,0,0,0,0,0,
0,0,0,0,0,0,0,0,0,0,0,0,0,0,0,0,
0,0,0,0,0,0,0,0,0,0,0,0,0,0,0,0,
0,0,0,0,0,0,0,0,0,0,0,0,0,0,0,0,
0,0,0,0,0,0,0,0,0,0,0,0,0,0,0,0,
0,0,0,0,0,0,0,0,0,0,0,0,0,0,0,0,
0,0,0,0,0,0,0,0,0,0,0,0,0,0,0,0,
0,0,0,141,139,0,139,0,0,141,0,139,0,0,141,0,
0,0,0,0,0,0,0,0,0,0,0,0,0,0,0,0,
0,0,0,0,0,0,0,0,0,0,0,0,0,0,0,0,
0,0,0,0,0,0,0,0,0,0,0,0,0,0,0,0,
0,0,0,0,0,0,0,0,0,0,0,0,0,0,0,0,
0,0,0,0,0,0,0,0,0,0,0,0,0,0,0,0,
0,0,0,0,0,0,0,0,141,0,0,139,139,139,141,0,
0,0,0,0,0,0,0,0,0,0,0,0,0,0,0,0,
0,0,0,0,0,0,0,0,0,0,0,0,0,0,0,0,
0,0,0,0,0,0,0,0,0,0,0,0,0,0,0,0,
0,0,0,0,0,0,0,0,0,0,0,0,0,0,0,0,
0,0,0,0,0,0,0,0,0,0,0,0,0,0,0,0,
0,0,0,0,0,0,0,0,0,0,0,0,0,0,0,0,
0,0,0,0,0,0,141,141,0,0,0,0,0,141,139,0,
0,0,0,0,0,0,0,0,0,0,0,0,0,0,0,0,
0,0,0,0,0,0,0,0,0,0,0,0,0,0,0,0
</data>
 </layer>
 <objectgroup id="8" name="Entities">
  <object id="1" name="Ladder" type="Ladder" x="192" y="480" width="16" height="16">
   <properties>
    <property name="__anchorX" type="int" value="192"/>
    <property name="__anchorY" type="int" value="480"/>
    <property name="__cx" type="int" value="12"/>
    <property name="__cy" type="int" value="30"/>
   </properties>
  </object>
  <object id="2" name="Item" type="Item" x="44" y="200" width="24" height="24">
   <properties>
    <property name="__anchorX" type="int" value="56"/>
    <property name="__anchorY" type="int" value="224"/>
    <property name="__cx" type="int" value="3"/>
    <property name="__cy" type="int" value="13"/>
    <property name="count" type="int" value="1"/>
    <property name="price" type="int" value="0"/>
    <property name="type" value="Gold"/>
   </properties>
  </object>
  <object id="3" name="Item" type="Item" x="44" y="456" width="24" height="24">
   <properties>
    <property name="__anchorX" type="int" value="56"/>
    <property name="__anchorY" type="int" value="480"/>
    <property name="__cx" type="int" value="3"/>
    <property name="__cy" type="int" value="29"/>
    <property name="count" type="int" value="1"/>
    <property name="price" type="int" value="0"/>
    <property name="type" value="Armor"/>
   </properties>
  </object>
  <object id="4" name="Ladder" type="Ladder" x="160" y="160" width="16" height="16">
   <properties>
    <property name="__anchorX" type="int" value="160"/>
    <property name="__anchorY" type="int" value="160"/>
    <property name="__cx" type="int" value="10"/>
    <property name="__cy" type="int" value="10"/>
   </properties>
  </object>
  <object id="5" name="Item" type="Item" x="92" y="136" width="24" height="24">
   <properties>
    <property name="__anchorX" type="int" value="104"/>
    <property name="__anchorY" type="int" value="160"/>
    <property name="__cx" type="int" value="6"/>
    <property name="__cy" type="int" value="9"/>
    <property name="count" type="int" value="1"/>
    <property name="price" type="int" value="0"/>
    <property name="type" value="Gem"/>
   </properties>
  </object>
  <object id="6" name="Item" type="Item" x="60" y="136" width="24" height="24">
   <properties>
    <property name="__anchorX" type="int" value="72"/>
    <property name="__anchorY" type="int" value="160"/>
    <property name="__cx" type="int" value="4"/>
    <property name="__cy" type="int" value="9"/>
    <property name="count" type="int" value="1"/>
    <property name="price" type="int" value="0"/>
    <property name="type" value="Gem"/>
   </properties>
  </object>
  <object id="7" name="Item" type="Item" x="124" y="136" width="24" height="24">
   <properties>
    <property name="__anchorX" type="int" value="136"/>
    <property name="__anchorY" type="int" value="160"/>
    <property name="__cx" type="int" value="8"/>
    <property name="__cy" type="int" value="9"/>
    <property name="count" type="int" value="1"/>
    <property name="price" type="int" value="0"/>
    <property name="type" value="Gem"/>
   </properties>
  </object>
  <object id="8" name="Item" type="Item" x="76" y="200" width="24" height="24">
   <properties>
    <property name="__anchorX" type="int" value="88"/>
    <property name="__anchorY" type="int" value="224"/>
    <property name="__cx" type="int" value="5"/>
    <property name="__cy" type="int" value="13"/>
    <property name="count" type="int" value="1"/>
    <property name="price" type="int" value="0"/>
    <property name="type" value="GoldNuggets"/>
   </properties>
  </object>
  <object id="9" name="Ladder" type="Ladder" x="48" y="272" width="16" height="16">
   <properties>
    <property name="__anchorX" type="int" value="48"/>
    <property name="__anchorY" type="int" value="272"/>
    <property name="__cx" type="int" value="3"/>
    <property name="__cy" type="int" value="17"/>
   </properties>
  </object>
  <object id="10" name="Teleport" type="Teleport" x="204" y="344" width="24" height="24">
   <properties>
    <property name="__anchorX" type="int" value="216"/>
    <property name="__anchorY" type="int" value="368"/>
    <property name="__cx" type="int" value="13"/>
    <property name="__cy" type="int" value="22"/>
    <property name="destination" value="efa1c030-66b0-11ec-8923-1f96484ed71d"/>
   </properties>
  </object>
 </objectgroup>
</map>
