<?xml version="1.0" encoding="UTF-8"?>
<map version="1.10" tiledversion="1.11.2" orientation="orthogonal" renderorder="right-down" compressionlevel="0" width="48" height="16" tilewidth="16" tileheight="16" infinite="0" backgroundcolor="#37494e" nextlayerid="9" nextobjectid="3">
 <tileset firstgid="1" name="SunnyLand_by_Ansimuz" tilewidth="16" tileheight="16" tilecount="483" columns="23" objectalignment="topleft">
  <image source="atlas/SunnyLand_by_Ansimuz-extended.png" width="368" height="336"/>
 </tileset>
 <tileset firstgid="484" name="Collisions" tilewidth="16" tileheight="16" tilecount="2" columns="2" objectalignment="topleft">
  <image source="Collisions.intgrid.png" width="32" height="16"/>
 </tileset>
 <layer id="1" name="Background_1" width="48" height="16">
  <data encoding="csv">
0,0,0,0,0,0,2147484011,412,412,363,0,0,0,0,0,0,0,0,0,0,0,0,0,0,0,0,0,0,0,0,0,0,0,0,0,0,0,0,0,0,0,0,0,0,0,0,0,0,
0,0,0,0,0,0,2147484011,412,412,363,2147484060,0,412,2147484011,2147484010,3221225945,0,0,0,0,0,0,0,0,0,0,0,0,0,0,0,0,0,0,0,0,0,0,0,0,0,0,0,0,0,0,0,0,
0,0,0,0,0,0,2147484011,412,412,412,331,412,412,412,412,363,0,0,0,0,0,0,0,0,0,0,0,0,0,1073742297,1073742298,412,412,412,412,412,308,412,412,412,306,412,412,412,3221225945,0,0,0,
0,0,0,0,0,412,2147484011,412,412,412,412,412,412,412,412,2147484121,0,0,0,0,0,0,0,0,0,0,0,0,0,2147484011,412,412,412,412,412,412,412,412,412,412,412,412,412,412,363,0,0,0,
0,0,1073742297,412,412,412,412,412,412,363,2147484060,0,0,0,0,0,0,0,0,0,0,0,0,0,0,0,0,0,412,2147484011,412,412,412,412,412,412,412,412,412,412,412,412,412,412,363,2147484060,0,0,
0,0,2147484011,412,412,412,412,412,412,412,412,412,412,412,412,1073742226,1073742227,412,412,412,306,412,331,412,412,412,412,412,412,412,412,412,412,412,412,412,412,412,412,412,412,412,412,412,412,412,412,412,
0,0,2147484011,412,412,363,412,412,363,412,412,412,412,412,363,412,412,363,412,412,363,412,412,363,412,412,363,412,412,412,412,412,363,412,412,363,412,412,412,412,412,412,412,412,363,412,412,412,
0,0,473,412,412,402,412,412,412,412,412,412,412,412,412,412,412,412,412,412,412,412,412,412,412,412,412,412,412,412,412,412,412,412,412,412,412,412,412,412,412,412,412,412,412,412,412,412,
0,0,0,0,0,0,0,0,0,0,1073742236,2147484011,412,412,412,412,412,412,363,412,412,363,412,412,363,412,412,412,412,412,412,412,412,363,412,412,412,412,412,412,412,412,412,412,363,3221225884,0,0,
0,0,0,0,0,0,0,0,0,0,412,2147484011,412,412,412,412,412,412,412,412,412,412,412,412,412,402,412,412,412,412,412,412,412,412,412,412,412,412,412,412,412,412,412,412,363,0,0,0,
0,0,2147484011,412,412,412,412,412,412,412,412,412,412,412,412,412,412,412,412,412,412,412,363,3221225884,0,0,0,0,0,0,0,0,0,0,0,1073742236,2147484011,412,412,412,412,412,412,412,363,0,0,0,
0,0,412,412,412,412,412,412,412,412,412,412,412,412,412,412,412,412,412,412,412,412,412,0,0,0,0,0,0,0,0,0,0,0,0,0,412,412,412,412,412,412,412,412,412,0,0,0,
0,0,412,412,412,412,412,412,412,412,412,412,412,412,412,412,412,412,412,412,412,412,412,0,0,0,0,0,0,0,0,0,0,0,0,0,0,1073742236,412,412,412,3221225884,0,0,0,0,0,0,
0,0,0,0,0,0,0,0,0,0,0,0,0,0,0,0,0,0,0,0,0,0,0,0,0,0,0,0,0,0,0,0,0,0,0,0,0,0,412,412,412,0,0,0,0,0,0,0,
0,0,0,0,0,0,0,0,0,0,0,0,0,0,0,0,0,0,0,0,0,0,0,0,0,0,0,0,0,0,0,0,0,0,0,0,0,0,412,412,412,0,0,0,0,0,0,0,
0,0,0,0,0,0,0,0,0,0,0,0,0,0,0,0,0,0,0,0,0,0,0,0,0,0,0,0,0,0,0,0,0,0,0,0,0,0,412,412,412,0,0,0,0,0,0,0
</data>
 </layer>
 <layer id="2" name="Background_2" width="48" height="16">
  <data encoding="csv">
0,0,0,0,0,0,0,2147484010,362,0,0,0,0,0,0,0,0,0,0,0,0,0,0,0,0,0,0,0,0,0,0,0,0,0,0,0,0,0,0,0,0,0,0,0,0,0,0,0,
0,0,0,0,0,0,0,2147484010,362,0,0,0,0,3221225947,3221225946,0,0,0,0,0,0,0,0,0,0,0,0,0,0,0,0,0,0,0,0,0,0,0,0,0,0,0,0,0,0,0,0,0,
0,0,0,0,0,0,0,2147484010,0,0,0,0,0,3221225924,362,3221225922,0,0,0,0,0,0,0,0,0,0,0,0,0,0,308,1073742299,0,0,0,0,0,0,0,0,0,0,3221225947,3221225946,0,0,0,0,
0,0,0,0,0,0,0,2147484010,0,0,0,0,0,2147484123,2147484122,0,0,0,0,0,0,0,0,0,0,0,0,0,0,1073742274,2147484010,1073742276,0,0,0,0,331,0,0,0,0,0,3221225924,362,3221225922,0,0,0,
0,0,0,1073742298,1073742299,0,0,0,362,0,0,0,0,0,0,0,0,0,0,0,0,0,0,0,0,0,0,0,0,0,2147484010,0,0,0,0,0,0,0,0,0,0,0,0,362,0,0,0,0,
0,0,1073742274,2147484010,355,356,357,0,0,0,0,0,0,0,1073742225,0,306,0,0,0,0,0,0,0,0,0,0,0,0,0,0,0,0,0,0,0,0,0,0,0,0,0,0,0,0,0,0,0,
0,0,450,2147484010,362,379,364,362,0,364,0,0,0,362,1073742202,364,362,0,364,362,0,364,362,0,364,362,0,364,0,0,0,362,0,364,362,0,364,0,0,0,0,0,0,362,0,364,0,0,
0,0,0,474,401,0,403,0,0,0,0,0,0,0,1073742179,1073742180,1073742181,0,0,0,0,0,0,0,355,356,357,0,0,0,0,0,0,0,0,0,0,0,0,0,0,0,0,0,0,0,0,0,
0,0,0,0,0,0,0,0,0,0,0,0,2147484010,0,0,0,0,362,0,364,362,0,364,362,378,364,380,0,0,0,0,0,362,0,364,0,0,0,0,0,0,0,0,362,0,0,0,0,
0,0,0,0,0,0,0,0,0,0,0,0,2147484010,0,0,0,0,0,0,0,0,0,0,0,401,0,403,0,0,0,0,0,0,0,0,0,0,0,0,0,0,0,0,362,0,0,0,0,
0,0,0,2147484010,0,0,0,0,0,0,0,0,0,0,0,0,0,0,0,0,0,362,0,0,0,0,0,0,0,0,0,0,0,0,0,0,0,2147484010,0,0,0,0,0,362,0,0,0,0,
0,0,0,0,0,0,0,0,0,0,0,0,0,0,0,0,0,0,0,0,0,0,0,0,0,0,0,0,0,0,0,0,0,0,0,0,0,0,0,0,0,0,0,0,0,0,0,0,
0,0,0,0,0,0,0,0,0,0,0,0,0,0,0,0,0,0,0,0,0,0,0,0,0,0,0,0,0,0,0,0,0,0,0,0,0,0,0,0,0,0,0,0,0,0,0,0,
0,0,0,0,0,0,0,0,0,0,0,0,0,0,0,0,0,0,0,0,0,0,0,0,0,0,0,0,0,0,0,0,0,0,0,0,0,0,0,0,0,0,0,0,0,0,0,0,
0,0,0,0,0,0,0,0,0,0,0,0,0,0,0,0,0,0,0,0,0,0,0,0,0,0,0,0,0,0,0,0,0,0,0,0,0,0,0,0,0,0,0,0,0,0,0,0,
0,0,0,0,0,0,0,0,0,0,0,0,0,0,0,0,0,0,0,0,0,0,0,0,0,0,0,0,0,0,0,0,0,0,0,0,0,0,0,0,0,0,0,0,0,0,0,0
</data>
 </layer>
 <layer id="3" name="Background_3" width="48" height="16">
  <data encoding="csv">
0,0,0,0,0,0,0,0,0,0,0,0,0,0,0,0,0,0,0,0,0,0,0,0,0,0,0,0,0,0,0,0,0,0,0,0,0,0,0,0,0,0,0,0,0,0,0,0,
0,0,0,0,0,0,0,0,0,0,0,0,0,0,331,0,0,0,0,0,0,0,0,0,0,0,0,0,0,0,0,0,0,0,0,0,0,0,0,0,0,0,0,0,0,0,0,0,
0,0,0,0,0,0,0,0,0,0,0,0,0,2147484100,3221225923,2147484098,0,0,0,0,0,0,0,0,0,0,0,0,0,0,0,0,0,0,0,0,0,0,0,0,0,0,0,0,0,0,0,0,
0,0,0,0,0,0,0,0,0,0,0,0,0,0,0,0,0,0,0,0,0,0,0,0,0,0,0,0,0,0,1073742275,0,0,0,0,0,0,0,0,0,0,0,0,3221225923,0,0,0,0,
0,0,0,0,0,0,0,0,0,0,0,0,0,0,0,0,0,0,0,0,0,0,0,0,0,0,0,0,0,0,0,0,0,0,0,0,0,0,0,0,0,0,0,0,0,0,0,0,
0,0,0,1073742275,1073742276,0,0,0,0,0,0,0,0,0,0,0,0,0,0,0,0,0,0,0,0,0,0,0,0,0,0,0,0,0,0,0,0,0,0,0,0,0,0,0,0,0,0,0,
0,0,0,451,378,0,380,0,0,0,0,0,0,0,0,1073742203,1073742204,0,0,0,0,0,0,0,0,0,0,0,0,0,0,0,0,0,0,0,0,0,0,0,0,0,0,0,0,0,0,0,
0,0,0,0,475,0,0,0,0,0,0,0,0,0,0,0,0,0,0,0,0,0,0,0,0,0,0,0,0,0,0,0,0,0,0,0,0,0,0,0,0,0,0,0,0,0,0,0,
0,0,0,0,0,0,0,0,0,0,0,0,0,0,0,0,0,0,0,0,0,0,0,0,0,379,0,0,0,0,0,0,0,0,0,0,0,0,0,0,0,0,0,0,0,0,0,0,
0,0,0,0,0,0,0,0,0,0,0,0,0,0,0,0,0,0,0,0,0,0,0,0,0,0,0,0,0,0,0,0,0,0,0,0,0,0,0,0,0,0,0,0,0,0,0,0,
0,0,0,0,0,0,0,0,0,0,0,0,0,0,0,0,0,0,0,0,0,0,0,0,0,0,0,0,0,0,0,0,0,0,0,0,0,0,0,0,0,0,0,0,0,0,0,0,
0,0,0,0,0,0,0,0,0,0,0,0,0,0,0,0,0,0,0,0,0,0,0,0,0,0,0,0,0,0,0,0,0,0,0,0,0,0,0,0,0,0,0,0,0,0,0,0,
0,0,0,0,0,0,0,0,0,0,0,0,0,0,0,0,0,0,0,0,0,0,0,0,0,0,0,0,0,0,0,0,0,0,0,0,0,0,0,0,0,0,0,0,0,0,0,0,
0,0,0,0,0,0,0,0,0,0,0,0,0,0,0,0,0,0,0,0,0,0,0,0,0,0,0,0,0,0,0,0,0,0,0,0,0,0,0,0,0,0,0,0,0,0,0,0,
0,0,0,0,0,0,0,0,0,0,0,0,0,0,0,0,0,0,0,0,0,0,0,0,0,0,0,0,0,0,0,0,0,0,0,0,0,0,0,0,0,0,0,0,0,0,0,0,
0,0,0,0,0,0,0,0,0,0,0,0,0,0,0,0,0,0,0,0,0,0,0,0,0,0,0,0,0,0,0,0,0,0,0,0,0,0,0,0,0,0,0,0,0,0,0,0
</data>
 </layer>
 <layer id="4" name="Background_4" width="48" height="16">
  <data encoding="csv">
0,0,0,0,0,0,0,0,0,0,0,0,0,0,0,0,0,0,0,0,0,0,0,0,0,0,0,0,0,0,0,0,0,0,0,0,0,0,0,0,0,0,0,0,0,0,0,0,
0,0,0,0,0,0,0,0,0,0,0,0,0,0,0,0,0,0,0,0,0,0,0,0,0,0,0,0,0,0,0,0,0,0,0,0,0,0,0,0,0,0,0,0,0,0,0,0,
0,0,0,0,0,0,0,0,0,0,0,0,0,0,2147484099,0,0,0,0,0,0,0,0,0,0,0,0,0,0,0,0,0,0,0,0,0,0,0,0,0,0,0,0,0,0,0,0,0,
0,0,0,0,0,0,0,0,0,0,0,0,0,0,0,0,0,0,0,0,0,0,0,0,0,0,0,0,0,0,331,0,0,0,0,0,0,0,0,0,0,0,0,0,0,0,0,0,
0,0,0,0,0,0,0,0,0,0,0,0,0,0,0,0,0,0,0,0,0,0,0,0,0,0,0,0,0,0,0,0,0,0,0,0,0,0,0,0,0,0,0,0,0,0,0,0,
0,0,0,0,0,0,0,0,0,0,0,0,0,0,0,0,0,0,0,0,0,0,0,0,0,0,0,0,0,0,0,0,0,0,0,0,0,0,0,0,0,0,0,0,0,0,0,0,
0,0,0,0,452,0,0,0,0,0,0,0,0,0,0,0,0,0,0,0,0,0,0,0,0,0,0,0,0,0,0,0,0,0,0,0,0,0,0,0,0,0,0,0,0,0,0,0,
0,0,0,0,0,0,0,0,0,0,0,0,0,0,0,0,0,0,0,0,0,0,0,0,0,0,0,0,0,0,0,0,0,0,0,0,0,0,0,0,0,0,0,0,0,0,0,0,
0,0,0,0,0,0,0,0,0,0,0,0,0,0,0,0,0,0,0,0,0,0,0,0,0,0,0,0,0,0,0,0,0,0,0,0,0,0,0,0,0,0,0,0,0,0,0,0,
0,0,0,0,0,0,0,0,0,0,0,0,0,0,0,0,0,0,0,0,0,0,0,0,0,0,0,0,0,0,0,0,0,0,0,0,0,0,0,0,0,0,0,0,0,0,0,0,
0,0,0,0,0,0,0,0,0,0,0,0,0,0,0,0,0,0,0,0,0,0,0,0,0,0,0,0,0,0,0,0,0,0,0,0,0,0,0,0,0,0,0,0,0,0,0,0,
0,0,0,0,0,0,0,0,0,0,0,0,0,0,0,0,0,0,0,0,0,0,0,0,0,0,0,0,0,0,0,0,0,0,0,0,0,0,0,0,0,0,0,0,0,0,0,0,
0,0,0,0,0,0,0,0,0,0,0,0,0,0,0,0,0,0,0,0,0,0,0,0,0,0,0,0,0,0,0,0,0,0,0,0,0,0,0,0,0,0,0,0,0,0,0,0,
0,0,0,0,0,0,0,0,0,0,0,0,0,0,0,0,0,0,0,0,0,0,0,0,0,0,0,0,0,0,0,0,0,0,0,0,0,0,0,0,0,0,0,0,0,0,0,0,
0,0,0,0,0,0,0,0,0,0,0,0,0,0,0,0,0,0,0,0,0,0,0,0,0,0,0,0,0,0,0,0,0,0,0,0,0,0,0,0,0,0,0,0,0,0,0,0,
0,0,0,0,0,0,0,0,0,0,0,0,0,0,0,0,0,0,0,0,0,0,0,0,0,0,0,0,0,0,0,0,0,0,0,0,0,0,0,0,0,0,0,0,0,0,0,0
</data>
 </layer>
 <layer id="6" name="Collisions_1" width="48" height="16">
  <data encoding="csv">
145,49,49,49,7,2147483847,0,0,0,0,199,49,153,247,247,247,2147483801,49,36,49,143,49,145,49,143,49,7,49,36,143,153,49,153,143,7,49,36,49,153,145,153,49,153,49,7,145,153,49,
143,7,145,36,49,2147483847,0,0,0,0,2147483860,247,212,0,0,0,199,7,49,49,49,49,49,145,49,143,49,36,153,287,287,287,247,247,247,247,247,247,287,247,247,247,247,247,247,2147483801,49,153,
153,143,7,49,36,2147483847,0,0,0,0,0,0,0,0,0,0,199,49,153,49,36,49,36,143,153,49,7,49,2147483847,0,0,0,0,0,0,0,0,0,0,0,0,0,0,0,0,199,36,49,
49,153,247,247,247,212,0,0,0,0,164,164,164,163,164,163,199,7,49,153,49,153,49,153,49,153,49,153,2147483847,0,0,0,0,0,0,0,0,0,0,0,0,0,0,0,0,199,49,153,
36,2147483847,0,0,0,0,0,0,0,0,2147483860,155,155,155,155,155,3221225625,247,247,247,247,247,247,247,289,289,289,289,212,0,0,0,0,0,0,0,0,0,0,0,0,0,0,0,0,2147483860,247,247,
145,2147483847,0,0,0,0,0,0,0,0,0,0,0,0,0,0,0,0,0,0,0,0,0,0,0,0,0,0,0,0,0,0,0,0,0,0,0,0,0,0,0,0,0,0,0,0,0,0,
7,2147483847,0,0,0,0,0,0,0,0,0,0,0,0,0,0,0,0,0,0,0,0,0,0,0,0,0,0,0,0,0,0,0,0,0,0,0,0,0,0,0,0,0,0,0,0,0,0,
49,2147483847,163,164,163,164,165,165,163,163,163,0,0,0,0,0,0,0,0,0,0,0,0,0,0,0,0,0,0,0,0,0,0,0,0,0,0,0,0,0,0,0,0,0,0,165,164,163,
7,1073741977,3,3,3,155,3,3,3,155,2147484086,0,0,0,0,0,0,0,0,0,0,0,0,0,0,0,0,0,0,0,0,0,0,0,0,0,0,0,0,0,0,0,0,0,0,3,155,155,
145,153,287,247,289,247,247,247,289,289,212,0,0,0,0,0,0,0,0,0,0,0,0,163,164,164,164,163,165,164,165,164,165,164,164,164,0,0,0,0,0,0,0,0,0,199,49,153,
36,2147483847,0,0,0,0,0,0,0,0,0,0,0,0,0,0,0,0,0,0,0,0,0,438,155,155,3,155,155,155,155,155,3,3,3,2147484086,0,0,0,0,0,0,0,0,0,199,36,143,
49,2147483847,251,251,251,251,251,251,251,251,251,251,251,251,251,251,251,251,251,251,251,251,251,199,49,36,145,36,143,153,49,153,49,153,49,2147483847,251,251,251,251,251,251,251,251,251,199,49,36,
7,2147483847,274,274,274,274,274,274,274,274,274,274,274,274,274,274,274,274,274,274,274,274,274,199,36,49,153,143,153,49,153,143,153,49,153,1073741977,155,2147484086,274,274,274,438,155,155,155,3221225625,153,143,
49,1073741977,155,155,155,155,155,155,155,155,155,155,155,155,155,155,155,155,155,155,155,155,155,3221225625,49,36,49,145,49,49,49,49,49,36,49,153,49,2147483847,274,274,274,199,49,36,49,36,143,153,
7,145,7,145,153,49,36,49,7,49,7,49,7,49,7,143,36,145,36,49,36,143,36,49,36,49,143,49,143,49,143,49,49,49,7,49,7,2147483847,274,274,274,199,153,49,7,145,153,145,
49,153,143,7,143,153,49,7,49,7,145,36,49,36,143,7,49,36,49,7,49,7,145,153,49,153,49,145,49,145,49,49,49,145,49,36,145,2147483847,274,274,274,199,49,153,49,143,49,49
</data>
 </layer>
 <layer id="7" name="Collisions_2" width="48" height="16">
  <data encoding="csv">
0,0,0,0,0,0,0,0,0,0,0,0,0,0,0,0,0,0,0,0,0,0,0,0,0,0,0,0,0,0,0,0,0,0,0,0,0,0,0,0,0,0,0,0,0,0,0,0,
0,0,0,0,0,0,0,0,0,0,0,0,0,0,0,0,0,0,0,0,0,0,0,0,0,0,0,0,0,0,0,0,0,0,0,0,0,0,0,0,0,0,0,0,0,0,0,0,
0,0,0,0,0,0,0,0,0,0,0,0,0,0,0,0,0,0,0,0,0,0,0,0,0,0,0,0,0,0,0,0,0,0,0,0,0,0,0,0,0,0,0,0,0,0,0,0,
0,0,0,0,0,0,0,0,0,0,0,0,0,0,0,0,0,0,0,0,0,0,0,0,0,0,0,0,0,0,0,0,0,0,0,0,0,0,0,0,0,0,0,0,0,0,0,0,
0,0,0,0,0,0,0,0,0,0,0,0,0,0,0,0,0,0,0,0,0,0,0,0,0,0,0,0,0,0,0,0,0,0,0,0,0,0,0,0,0,0,0,0,0,0,0,0,
0,0,0,0,0,0,0,0,0,0,0,0,0,0,0,0,0,0,0,0,0,0,0,0,0,0,0,0,0,0,0,0,0,0,0,0,0,0,0,0,0,0,0,0,0,0,0,0,
0,0,0,0,0,0,0,0,0,0,0,0,0,0,0,0,0,0,0,0,0,0,0,0,0,0,0,0,0,0,0,0,0,0,0,0,0,0,0,0,0,0,0,0,0,0,0,0,
0,0,141,139,0,0,0,141,141,141,0,0,0,0,0,0,0,0,0,0,0,0,0,0,0,0,0,0,0,0,0,0,0,0,0,0,0,0,0,0,0,0,0,0,0,141,0,141,
0,0,0,0,0,0,0,0,0,0,0,0,0,0,0,0,0,0,0,0,0,0,0,0,0,0,0,0,0,0,0,0,0,0,0,0,0,0,0,0,0,0,0,0,0,0,0,0,
0,0,0,0,0,0,0,0,0,0,0,0,0,0,0,0,0,0,0,0,0,0,0,0,0,139,0,141,139,141,141,0,0,141,139,0,0,0,0,0,0,0,0,0,0,0,0,0,
0,0,0,0,0,0,0,0,0,0,0,0,0,0,0,0,0,0,0,0,0,0,0,0,0,0,0,0,0,0,0,0,0,0,0,0,0,0,0,0,0,0,0,0,0,0,0,0,
0,0,0,0,0,0,0,0,0,0,0,0,0,0,0,0,0,0,0,0,0,0,0,0,0,0,0,0,0,0,0,0,0,0,0,0,0,0,0,0,0,0,0,0,0,0,0,0,
0,0,0,0,0,0,0,0,0,0,0,0,0,0,0,0,0,0,0,0,0,0,0,0,0,0,0,0,0,0,0,0,0,0,0,0,0,0,0,0,0,0,0,0,0,0,0,0,
0,0,0,0,0,0,0,0,0,0,0,0,0,0,0,0,0,0,0,0,0,0,0,0,0,0,0,0,0,0,0,0,0,0,0,0,0,0,0,0,0,0,0,0,0,0,0,0,
0,0,0,0,0,0,0,0,0,0,0,0,0,0,0,0,0,0,0,0,0,0,0,0,0,0,0,0,0,0,0,0,0,0,0,0,0,0,0,0,0,0,0,0,0,0,0,0,
0,0,0,0,0,0,0,0,0,0,0,0,0,0,0,0,0,0,0,0,0,0,0,0,0,0,0,0,0,0,0,0,0,0,0,0,0,0,0,0,0,0,0,0,0,0,0,0
</data>
 </layer>
 <objectgroup id="8" name="Entities">
  <object id="1" name="Teleport" type="Teleport" x="220" y="40" width="24" height="24">
   <properties>
    <property name="__anchorX" type="int" value="232"/>
    <property name="__anchorY" type="int" value="64"/>
    <property name="__cx" type="int" value="14"/>
    <property name="__cy" type="int" value="3"/>
    <property name="destination" value="b70d98a0-66b0-11ec-a595-b125edb525fa"/>
   </properties>
  </object>
  <object id="2" name="Teleport" type="Teleport" x="60" y="104" width="24" height="24">
   <properties>
    <property name="__anchorX" type="int" value="72"/>
    <property name="__anchorY" type="int" value="128"/>
    <property name="__cx" type="int" value="4"/>
    <property name="__cy" type="int" value="7"/>
    <property name="destination" value="eec0d610-66b0-11ec-8923-93cc88ee368d"/>
   </properties>
  </object>
 </objectgroup>
</map>
