<?xml version="1.0" encoding="UTF-8"?>
<map version="1.10" tiledversion="1.11.2" orientation="orthogonal" renderorder="right-down" compressionlevel="0" width="16" height="48" tilewidth="16" tileheight="16" infinite="0" backgroundcolor="#37494e" nextlayerid="8" nextobjectid="3">
 <tileset firstgid="1" name="SunnyLand_by_Ansimuz" tilewidth="16" tileheight="16" tilecount="483" columns="23" objectalignment="topleft">
  <image source="atlas/SunnyLand_by_Ansimuz-extended.png" width="368" height="336"/>
 </tileset>
 <tileset firstgid="484" name="Collisions" tilewidth="16" tileheight="16" tilecount="2" columns="2" objectalignment="topleft">
  <image source="Collisions.intgrid.png" width="32" height="16"/>
 </tileset>
 <layer id="1" name="Background_1" width="16" height="48">
  <data encoding="csv">
0,0,0,0,0,0,0,0,0,0,0,0,0,0,0,0,
0,0,0,0,0,0,0,0,0,0,0,0,0,0,0,0,
0,0,0,0,0,0,0,0,0,0,0,0,0,0,0,0,
412,412,412,412,412,412,412,412,412,412,412,412,412,3221225945,0,0,
412,412,412,412,412,412,412,412,412,412,412,412,412,363,0,0,
0,0,0,0,0,0,0,0,0,0,1073742236,363,3221225884,0,0,0,
0,0,0,0,0,0,0,0,0,0,412,363,2147484060,0,0,0,
0,0,0,1073742297,412,412,308,412,412,412,306,412,362,363,0,0,
0,0,0,2147484011,412,412,363,412,412,412,412,412,412,363,0,0,
0,0,0,2147484011,412,412,412,412,412,412,412,412,412,363,0,0,
0,0,0,2147484011,412,363,412,412,363,412,412,412,412,363,0,0,
0,0,0,2147484011,412,412,412,412,412,412,412,412,412,363,0,0,
0,0,0,2147484011,2147484010,3221225884,0,0,0,0,0,0,0,0,0,0,
0,0,0,2147484011,2147484010,2147484060,0,0,0,0,0,0,0,0,0,0,
0,0,0,2147484011,412,412,412,412,412,412,1073742226,412,363,0,0,0,
0,0,0,2147484011,412,412,412,412,412,412,412,412,363,0,0,0,
0,0,0,2147484011,412,412,412,412,412,412,412,412,363,0,0,0,
0,0,0,0,0,0,0,0,1073742236,2147484011,412,412,363,0,0,0,
0,0,0,0,0,0,0,0,412,2147484011,412,362,363,0,0,0,
0,0,0,0,0,0,0,2147484011,412,412,412,412,363,0,0,0,
0,0,0,0,0,0,0,2147484011,412,363,412,412,363,0,0,0,
0,0,0,0,0,0,0,2147484011,412,412,412,412,363,0,0,0,
0,0,0,0,0,0,0,2147484011,412,412,363,3221225884,0,0,0,0,
0,0,0,0,0,0,0,2147484011,412,412,363,2147484060,0,0,0,0,
0,0,0,0,0,0,0,2147484011,412,363,412,412,412,3221225945,0,0,
0,0,0,0,0,0,0,2147484011,412,412,412,412,412,363,0,0,
0,0,0,0,0,0,0,473,412,412,412,363,412,363,0,0,
0,0,0,0,0,0,0,0,0,412,2147484011,412,412,363,0,0,
0,0,0,0,1073742297,412,1073742299,412,331,412,412,412,412,363,0,0,
0,0,0,0,2147484011,412,412,412,412,412,412,412,412,363,0,0,
0,0,0,0,2147484011,2147484010,412,412,363,412,412,363,412,363,0,0,
0,0,0,0,2147484011,412,412,412,412,412,412,412,412,363,0,0,
0,0,0,0,2147484011,412,363,2147484060,0,0,0,0,0,0,0,0,
0,0,0,0,2147484011,412,412,412,363,0,0,0,0,0,0,0,
0,0,0,0,2147484011,412,412,412,363,0,0,0,0,0,0,0,
0,0,0,0,2147484011,412,412,412,363,0,0,0,0,0,0,0,
0,0,0,0,2147484011,412,363,412,363,0,0,0,0,0,0,0,
0,0,0,0,0,412,2147484011,412,363,0,0,0,0,0,0,0,
0,0,1073742297,412,412,412,412,412,363,0,0,0,0,0,0,0,
0,0,2147484011,412,412,412,412,412,363,0,0,0,0,0,0,0,
0,0,2147484011,412,363,2147484060,0,0,0,0,412,2147484011,412,3221225945,0,0,
0,0,2147484011,412,412,412,412,412,308,412,412,412,412,363,0,0,
0,0,2147484011,412,412,412,412,412,363,412,412,412,412,363,0,0,
0,0,2147484011,412,412,412,412,412,412,412,363,3221225884,0,0,0,0,
0,0,412,412,412,412,412,412,412,412,412,0,0,0,0,0,
0,0,0,0,1073742236,412,3221225884,0,0,0,0,0,0,0,0,0,
0,0,0,0,0,412,0,0,0,0,0,0,0,0,0,0,
0,0,0,0,0,412,0,0,0,0,0,0,0,0,0,0
</data>
 </layer>
 <layer id="2" name="Background_2" width="16" height="48">
  <data encoding="csv">
0,0,0,0,0,0,0,0,0,0,0,0,0,0,0,0,
0,0,0,0,0,0,0,0,0,0,0,0,0,0,0,0,
0,0,0,0,0,0,0,0,0,0,0,0,0,0,0,0,
0,0,0,0,0,0,0,0,0,0,0,3221225947,3221225946,0,0,0,
0,0,0,0,0,0,0,0,0,0,0,3221225924,362,3221225922,0,0,
0,0,0,0,0,0,0,0,0,0,362,0,0,0,0,0,
0,0,0,0,0,0,0,0,0,0,362,0,0,0,0,0,
0,0,0,0,1073742298,1073742299,0,0,0,0,0,0,306,0,0,0,
0,0,0,1073742274,2147484010,362,331,364,0,0,0,0,362,0,0,0,
0,0,0,0,2147484010,0,0,0,0,0,0,0,362,0,0,0,
0,0,0,0,2147484010,0,364,362,0,364,0,0,362,0,0,0,
0,0,0,0,2147484010,0,0,0,0,0,0,0,362,0,0,0,
0,0,0,362,363,0,0,0,0,0,0,0,0,0,0,0,
0,0,0,362,363,0,0,0,0,0,0,0,0,0,0,0,
0,0,0,0,2147484010,0,0,0,0,1073742225,0,362,0,0,0,0,
0,0,0,0,2147484010,0,0,0,0,1073742202,1073742203,362,0,0,0,0,
0,0,0,0,2147484010,0,0,0,0,1073742179,1073742180,362,0,0,0,0,
0,0,0,0,0,0,0,0,0,0,2147484010,362,0,0,0,0,
0,0,0,0,0,0,0,0,0,0,2147484010,363,364,0,0,0,
0,0,0,0,0,0,0,0,2147484010,0,0,362,0,0,0,0,
0,0,0,0,0,0,0,0,2147484010,0,364,362,0,0,0,0,
0,0,0,0,0,0,0,0,2147484010,0,0,362,0,0,0,0,
0,0,0,0,0,0,0,0,2147484010,362,0,0,0,0,0,0,
0,0,0,0,0,0,0,0,2147484010,362,0,0,0,0,0,0,
0,0,0,0,0,0,0,0,2147484010,0,364,3221225947,3221225946,0,0,0,
0,0,0,0,0,0,0,450,2147484010,452,0,3221225924,362,3221225922,0,0,
0,0,0,0,0,0,0,0,474,475,362,0,362,0,0,0,
0,0,0,0,0,0,0,0,0,0,0,2147484010,362,0,0,0,
0,0,0,0,0,1073742298,306,0,0,0,0,0,362,0,0,0,
0,0,0,0,1073742274,2147484010,1073742276,0,0,0,0,0,362,0,0,0,
0,0,0,0,362,363,364,362,0,364,362,0,362,0,0,0,
0,0,0,0,0,2147484010,0,0,0,0,0,0,362,0,0,0,
0,0,0,0,0,2147484010,0,0,0,0,0,0,0,0,0,0,
0,0,0,0,0,2147484010,0,362,0,0,0,0,0,0,0,0,
0,0,0,0,0,2147484010,0,362,0,0,0,0,0,0,0,0,
0,0,0,0,0,2147484010,0,362,0,0,0,0,0,0,0,0,
0,0,0,0,0,2147484010,0,362,0,0,0,0,0,0,0,0,
0,0,0,0,0,0,0,2147484010,0,0,0,0,0,0,0,0,
0,0,0,1073742298,1073742299,0,0,362,0,0,0,0,0,0,0,0,
0,0,1073742274,2147484010,1073742276,0,0,362,0,0,0,0,0,0,0,0,
0,0,0,2147484010,0,0,0,0,0,0,0,3221225947,2147484010,0,0,0,
0,0,0,2147484010,0,0,0,0,0,0,0,3221225924,362,3221225922,0,0,
0,0,0,2147484010,0,0,0,362,331,364,0,0,362,0,0,0,
0,0,0,2147484010,0,0,0,0,0,362,0,0,0,0,0,0,
0,0,0,0,0,0,0,0,0,0,0,0,0,0,0,0,
0,0,0,0,0,0,0,0,0,0,0,0,0,0,0,0,
0,0,0,0,0,0,0,0,0,0,0,0,0,0,0,0,
0,0,0,0,0,0,0,0,0,0,0,0,0,0,0,0
</data>
 </layer>
 <layer id="3" name="Background_3" width="16" height="48">
  <data encoding="csv">
0,0,0,0,0,0,0,0,0,0,0,0,0,0,0,0,
0,0,0,0,0,0,0,0,0,0,0,0,0,0,0,0,
0,0,0,0,0,0,0,0,0,0,0,0,0,0,0,0,
0,0,0,0,0,0,0,0,0,0,0,0,0,0,0,0,
0,0,0,0,0,0,0,0,0,0,0,0,3221225923,0,0,0,
0,0,0,0,0,0,0,0,0,0,0,0,0,0,0,0,
0,0,0,0,0,0,0,0,0,0,0,0,0,0,0,0,
0,0,0,0,0,0,0,0,0,0,0,0,0,0,0,0,
0,0,0,0,1073742275,1073742276,0,0,0,0,0,0,0,0,0,0,
0,0,0,0,0,0,0,0,0,0,0,0,0,0,0,0,
0,0,0,0,362,0,0,0,0,0,0,0,0,0,0,0,
0,0,0,0,0,0,0,0,0,0,0,0,0,0,0,0,
0,0,0,0,0,0,0,0,0,0,0,0,0,0,0,0,
0,0,0,0,0,0,0,0,0,0,0,0,0,0,0,0,
0,0,0,0,0,0,0,0,0,0,0,1073742227,0,0,0,0,
0,0,0,0,0,0,0,0,0,0,0,1073742204,0,0,0,0,
0,0,0,0,0,0,0,0,0,0,0,1073742181,0,0,0,0,
0,0,0,0,0,0,0,0,0,0,0,0,0,0,0,0,
0,0,0,0,0,0,0,0,0,0,362,0,0,0,0,0,
0,0,0,0,0,0,0,0,0,0,0,0,0,0,0,0,
0,0,0,0,0,0,0,0,362,0,0,0,0,0,0,0,
0,0,0,0,0,0,0,0,0,0,0,0,0,0,0,0,
0,0,0,0,0,0,0,0,0,0,0,0,0,0,0,0,
0,0,0,0,0,0,0,0,0,0,0,0,0,0,0,0,
0,0,0,0,0,0,0,0,362,0,0,0,0,0,0,0,
0,0,0,0,0,0,0,0,451,0,0,0,3221225923,0,0,0,
0,0,0,0,0,0,0,0,0,0,0,0,364,0,0,0,
0,0,0,0,0,0,0,0,0,0,0,0,0,0,0,0,
0,0,0,0,0,0,0,0,0,0,0,0,0,0,0,0,
0,0,0,0,0,1073742275,0,0,0,0,0,0,0,0,0,0,
0,0,0,0,0,0,0,0,0,0,0,0,364,0,0,0,
0,0,0,0,0,0,0,0,0,0,0,0,0,0,0,0,
0,0,0,0,0,362,0,0,0,0,0,0,0,0,0,0,
0,0,0,0,0,0,0,0,0,0,0,0,0,0,0,0,
0,0,0,0,0,0,0,0,0,0,0,0,0,0,0,0,
0,0,0,0,0,0,0,0,0,0,0,0,0,0,0,0,
0,0,0,0,0,362,0,364,0,0,0,0,0,0,0,0,
0,0,0,0,0,0,0,362,0,0,0,0,0,0,0,0,
0,0,0,0,0,0,0,0,0,0,0,0,0,0,0,0,
0,0,0,1073742275,0,0,0,0,0,0,0,0,0,0,0,0,
0,0,0,362,0,0,0,0,0,0,0,0,3221225946,0,0,0,
0,0,0,0,0,0,0,0,0,0,0,0,3221225923,0,0,0,
0,0,0,0,0,0,0,0,0,0,0,0,0,0,0,0,
0,0,0,0,0,0,0,0,0,0,0,0,0,0,0,0,
0,0,0,0,0,0,0,0,0,0,0,0,0,0,0,0,
0,0,0,0,0,0,0,0,0,0,0,0,0,0,0,0,
0,0,0,0,0,0,0,0,0,0,0,0,0,0,0,0,
0,0,0,0,0,0,0,0,0,0,0,0,0,0,0,0
</data>
 </layer>
 <layer id="5" name="Collisions_1" width="16" height="48">
  <data encoding="csv">
7,49,36,143,153,145,36,143,7,49,7,49,153,49,36,145,
49,7,143,36,143,7,143,153,143,36,49,36,49,36,143,153,
247,247,247,247,247,247,247,247,247,247,247,247,247,247,2147483801,143,
0,0,0,0,0,0,0,0,0,0,0,0,0,0,199,36,
165,165,165,164,163,165,165,165,163,164,165,0,164,165,199,145,
3,3,3,3,155,155,155,155,155,155,2147484086,0,3,3,3221225625,7,
153,145,153,247,247,247,247,247,247,289,212,0,2147483860,247,2147483801,49,
49,7,2147483847,0,0,0,0,0,0,0,0,0,0,0,199,153,
36,49,2147483847,0,0,0,0,0,0,0,0,0,0,0,199,49,
49,153,2147483847,0,0,0,0,0,0,0,0,0,0,0,199,7,
7,49,2147483847,0,0,0,0,0,0,0,0,0,0,0,199,143,
143,36,2147483847,0,0,165,165,163,163,163,164,163,163,165,199,153,
153,143,2147483847,0,0,3,3,3,3,155,155,155,155,3,3221225625,49,
49,7,2147483847,0,0,2147483860,247,289,247,287,247,287,289,2147483801,143,153,
7,49,2147483847,0,0,0,0,0,0,0,0,0,0,199,36,49,
143,7,2147483847,0,0,0,0,0,0,0,0,0,0,199,145,153,
36,145,2147483847,164,163,164,164,164,163,0,0,0,0,199,36,49,
145,153,1073741977,3,3,155,155,155,2147484086,0,0,0,0,199,49,153,
36,49,153,143,36,145,153,289,212,0,0,0,0,199,153,49,
143,36,145,36,145,7,2147483847,0,0,0,0,0,0,199,49,7,
145,49,49,49,153,145,2147483847,0,0,0,0,0,0,199,7,145,
49,49,49,143,49,7,2147483847,0,0,0,0,164,163,199,49,153,
49,49,49,49,36,49,2147483847,0,0,0,0,438,155,3221225625,7,49,
49,49,49,49,145,36,2147483847,0,0,0,0,2147483860,247,247,2147483801,153,
143,49,145,49,153,143,2147483847,0,0,0,0,0,0,0,199,49,
49,7,145,36,143,36,2147483847,0,0,0,0,0,0,0,199,7,
49,143,153,143,7,49,2147483847,164,164,164,0,0,0,0,199,145,
49,36,143,153,287,287,1073741977,155,155,212,0,0,0,0,199,7,
49,49,36,2147483847,0,0,0,0,0,0,0,0,0,0,199,49,
49,153,49,2147483847,0,0,0,0,0,0,0,0,0,0,199,7,
145,49,36,2147483847,0,0,0,0,0,0,0,0,0,0,199,145,
49,7,145,2147483847,0,0,0,163,165,163,164,164,163,163,199,36,
49,143,7,2147483847,0,0,0,2147483860,155,3,3,155,155,155,3221225625,49,
49,36,143,2147483847,0,0,0,0,0,199,49,7,49,7,49,7,
49,49,153,2147483847,0,0,0,0,0,199,36,49,36,49,153,145,
145,153,49,2147483847,0,0,0,0,0,199,49,36,49,49,49,143,
36,49,7,2147483847,163,165,0,0,0,199,7,49,49,49,49,49,
49,153,247,289,155,212,0,0,0,199,143,153,49,153,49,7,
7,2147483847,0,0,0,0,0,0,0,199,36,49,153,49,36,49,
49,2147483847,0,0,0,163,165,164,164,199,153,247,289,247,2147483801,153,
7,2147483847,0,0,0,2147483860,155,155,155,3221225625,212,0,0,0,199,143,
49,2147483847,0,0,0,0,0,0,0,0,0,0,0,0,199,36,
36,2147483847,0,0,0,0,0,0,0,0,0,165,165,165,199,145,
49,2147483847,0,0,0,0,0,0,0,0,0,438,155,155,3221225625,153,
36,2147483847,251,251,251,251,251,251,251,251,251,199,36,145,153,49,
49,1073741977,155,155,2147484086,274,438,155,155,155,155,3221225625,145,36,49,36,
36,49,153,49,2147483847,274,199,49,36,143,36,143,7,49,49,49,
143,36,49,36,2147483847,274,199,7,49,153,49,7,143,7,49,143
</data>
 </layer>
 <layer id="6" name="Collisions_2" width="16" height="48">
  <data encoding="csv">
0,0,0,0,0,0,0,0,0,0,0,0,0,0,0,0,
0,0,0,0,0,0,0,0,0,0,0,0,0,0,0,0,
0,0,0,0,0,0,0,0,0,0,0,0,0,0,0,0,
0,0,0,0,0,0,0,0,0,0,0,0,0,0,0,0,
0,141,141,0,0,139,0,139,139,0,0,0,139,0,0,0,
0,0,0,0,0,0,0,0,0,0,0,0,0,0,0,0,
0,0,0,0,0,0,0,0,0,0,0,0,0,0,0,0,
0,0,0,0,0,0,0,0,0,0,0,0,0,0,0,0,
0,0,0,0,0,0,0,0,0,0,0,0,0,0,0,0,
0,0,0,0,0,0,0,0,0,0,0,0,0,0,0,0,
0,0,0,0,0,0,0,0,0,0,0,0,0,0,0,0,
0,0,0,0,0,139,0,139,139,139,141,139,0,141,0,0,
0,0,0,0,0,0,0,0,0,0,0,0,0,0,0,0,
0,0,0,0,0,0,0,0,0,0,0,0,0,0,0,0,
0,0,0,0,0,0,0,0,0,0,0,0,0,0,0,0,
0,0,0,0,0,0,0,0,0,0,0,0,0,0,0,0,
0,0,0,141,141,0,0,0,0,0,0,0,0,0,0,0,
0,0,0,0,0,0,0,0,0,0,0,0,0,0,0,0,
0,0,0,0,0,0,0,0,0,0,0,0,0,0,0,0,
0,0,0,0,0,0,0,0,0,0,0,0,0,0,0,0,
0,0,0,0,0,0,0,0,0,0,0,0,0,0,0,0,
0,0,0,0,0,0,0,0,0,0,0,0,139,0,0,0,
0,0,0,0,0,0,0,0,0,0,0,0,0,0,0,0,
0,0,0,0,0,0,0,0,0,0,0,0,0,0,0,0,
0,0,0,0,0,0,0,0,0,0,0,0,0,0,0,0,
0,0,0,0,0,0,0,0,0,0,0,0,0,0,0,0,
0,0,0,0,0,0,0,0,0,0,0,0,0,0,0,0,
0,0,0,0,0,0,0,0,0,0,0,0,0,0,0,0,
0,0,0,0,0,0,0,0,0,0,0,0,0,0,0,0,
0,0,0,0,0,0,0,0,0,0,0,0,0,0,0,0,
0,0,0,0,0,0,0,0,0,0,0,0,0,0,0,0,
0,0,0,0,0,0,0,0,0,141,141,139,0,139,0,0,
0,0,0,0,0,0,0,0,0,0,0,0,0,0,0,0,
0,0,0,0,0,0,0,0,0,0,0,0,0,0,0,0,
0,0,0,0,0,0,0,0,0,0,0,0,0,0,0,0,
0,0,0,0,0,0,0,0,0,0,0,0,0,0,0,0,
0,0,0,0,0,0,0,0,0,0,0,0,0,0,0,0,
0,0,0,0,0,0,0,0,0,0,0,0,0,0,0,0,
0,0,0,0,0,0,0,0,0,0,0,0,0,0,0,0,
0,0,0,0,0,0,0,0,0,0,0,0,0,0,0,0,
0,0,0,0,0,0,0,0,0,0,0,0,0,0,0,0,
0,0,0,0,0,0,0,0,0,0,0,0,0,0,0,0,
0,0,0,0,0,0,0,0,0,0,0,0,0,141,0,0,
0,0,0,0,0,0,0,0,0,0,0,0,0,0,0,0,
0,0,0,0,0,0,0,0,0,0,0,0,0,0,0,0,
0,0,0,0,0,0,0,0,0,0,0,0,0,0,0,0,
0,0,0,0,0,0,0,0,0,0,0,0,0,0,0,0,
0,0,0,0,0,0,0,0,0,0,0,0,0,0,0,0
</data>
 </layer>
 <objectgroup id="7" name="Entities">
  <object id="1" name="Teleport" type="Teleport" x="188" y="664" width="24" height="24">
   <properties>
    <property name="__anchorX" type="int" value="200"/>
    <property name="__anchorY" type="int" value="688"/>
    <property name="__cx" type="int" value="12"/>
    <property name="__cy" type="int" value="42"/>
    <property name="destination" value="d0d166d0-66b0-11ec-b893-fbba01a4c0d1"/>
   </properties>
  </object>
  <object id="2" name="Ladder" type="Ladder" x="176" y="80" width="16" height="16">
   <properties>
    <property name="__anchorX" type="int" value="176"/>
    <property name="__anchorY" type="int" value="80"/>
    <property name="__cx" type="int" value="11"/>
    <property name="__cy" type="int" value="5"/>
   </properties>
  </object>
 </objectgroup>
</map>
