<?xml version="1.0" encoding="UTF-8"?>
<map version="1.10" tiledversion="1.11.2" orientation="orthogonal" renderorder="right-down" compressionlevel="0" width="32" height="32" tilewidth="16" tileheight="16" infinite="0" backgroundcolor="#37494e" nextlayerid="10" nextobjectid="6">
 <tileset firstgid="1" name="SunnyLand_by_Ansimuz" tilewidth="16" tileheight="16" tilecount="483" columns="23" objectalignment="topleft">
  <image source="atlas/SunnyLand_by_Ansimuz-extended.png" width="368" height="336"/>
 </tileset>
 <tileset firstgid="484" name="Collisions" tilewidth="16" tileheight="16" tilecount="2" columns="2" objectalignment="topleft">
  <image source="Collisions.intgrid.png" width="32" height="16"/>
 </tileset>
 <layer id="1" name="Background_1" width="32" height="32">
  <data encoding="csv">
0,0,0,0,0,0,0,0,0,0,0,0,0,0,0,0,0,0,0,0,0,0,0,0,0,0,0,0,0,0,0,0,
0,0,0,0,0,0,0,0,0,0,0,0,0,0,0,0,0,0,0,0,0,0,0,0,0,0,0,0,0,0,0,0,
0,0,0,0,0,0,0,0,0,0,0,0,0,0,0,0,0,0,0,0,0,0,0,0,0,0,0,0,0,0,0,0,
0,0,0,0,0,0,0,0,0,0,0,0,0,0,0,0,0,0,0,0,0,0,0,0,0,0,0,0,0,0,0,0,
0,0,1073742297,412,1073742299,412,412,412,306,412,412,412,412,412,412,1073742226,412,412,412,412,412,412,412,412,1073742225,1073742226,412,412,412,363,0,0,
0,0,2147484011,412,412,412,412,412,412,412,412,412,412,412,412,412,412,412,412,412,412,412,412,412,412,412,412,412,412,363,0,0,
0,0,2147484011,412,412,363,412,412,412,412,412,363,412,412,363,412,412,412,412,412,412,412,412,412,412,412,363,412,412,363,0,0,
0,0,2147484011,412,412,412,412,412,412,412,412,412,412,412,412,412,412,412,412,412,412,412,412,412,412,412,412,412,412,363,0,0,
0,0,2147484011,2147484010,412,412,412,412,412,412,412,412,412,412,412,412,412,412,363,412,412,412,412,412,412,412,412,363,412,363,0,0,
0,0,2147484011,412,412,412,412,412,412,412,412,412,412,412,412,412,412,412,412,412,412,412,412,412,412,412,412,412,412,363,0,0,
0,0,2147484011,412,412,363,412,412,412,412,412,363,412,412,412,412,412,363,412,412,412,412,412,412,412,412,412,412,412,363,0,0,
0,0,2147484011,412,412,412,412,412,412,412,412,412,412,412,412,412,412,412,412,412,412,412,412,412,412,412,412,412,412,363,0,0,
0,0,2147484011,2147484010,412,412,412,412,412,412,412,412,363,412,412,412,412,412,412,412,412,412,412,412,412,412,412,363,412,363,0,0,
0,0,2147484011,412,412,412,412,412,412,412,412,412,412,412,412,412,412,412,412,412,412,412,412,412,412,412,412,412,412,363,0,0,
0,0,2147484011,412,412,412,412,412,412,412,412,412,412,412,363,412,412,412,412,412,412,412,412,412,412,412,412,412,412,363,0,0,
0,0,473,412,412,412,412,412,412,412,412,412,412,412,412,402,412,412,412,412,412,412,412,412,412,412,412,412,412,363,0,0,
0,0,0,0,0,0,0,0,1073742236,2147484011,412,363,3221225884,0,0,0,0,0,0,0,0,0,0,0,1073742236,2147484011,412,363,3221225884,0,0,0,
0,0,0,0,0,0,0,0,0,2147484011,412,363,0,0,0,0,0,0,0,0,0,0,0,0,412,2147484011,412,363,2147484060,0,0,0,
0,0,0,0,0,0,0,0,412,2147484011,412,363,0,0,0,0,0,0,0,1073742225,1073742226,412,306,412,412,412,412,412,412,412,412,412,
0,0,0,0,306,412,308,412,412,412,412,363,0,0,0,0,0,0,0,2147484011,412,412,412,412,412,412,412,412,412,412,412,412,
0,0,0,0,2147484011,412,363,412,412,363,412,363,0,0,0,0,0,0,0,2147484011,412,363,412,412,412,363,3221225884,0,0,0,0,0,
0,0,0,0,2147484011,412,412,412,412,412,402,403,0,0,0,0,0,0,0,2147484011,412,412,412,412,412,363,0,0,0,0,0,0,
0,0,0,412,2147484011,412,412,412,363,2147484060,0,0,0,0,0,0,0,0,0,2147484011,412,412,412,363,412,363,0,0,0,0,0,0,
412,412,412,412,412,412,412,412,412,412,412,3221225945,0,0,0,0,0,0,0,2147484011,412,412,412,412,412,363,0,0,0,0,0,0,
412,412,412,363,412,412,412,412,412,412,412,363,0,0,0,0,0,0,0,2147484011,412,363,412,412,362,363,0,0,0,0,0,0,
412,412,412,412,412,412,412,412,412,412,412,363,2147484060,0,0,0,0,0,412,2147484011,412,412,412,412,412,363,0,0,0,0,0,0,
412,412,412,412,412,412,412,412,412,412,412,412,412,412,308,412,308,412,412,412,412,412,412,363,412,363,0,0,0,0,0,0,
0,0,0,1073742236,2147484011,412,412,412,412,412,412,412,412,412,412,412,412,412,412,412,412,412,412,412,412,363,0,0,0,0,0,0,
0,0,0,0,412,412,412,412,412,412,412,412,412,412,412,412,412,412,412,412,412,412,412,412,412,412,0,0,0,0,0,0,
0,0,0,0,0,0,0,0,0,0,0,0,0,0,0,0,0,0,0,0,0,0,0,0,0,0,0,0,0,0,0,0,
0,0,0,0,0,0,0,0,0,0,0,0,0,0,0,0,0,0,0,0,0,0,0,0,0,0,0,0,0,0,0,0,
0,0,0,0,0,0,0,0,0,0,0,0,0,0,0,0,0,0,0,0,0,0,0,0,0,0,0,0,0,0,0,0
</data>
 </layer>
 <layer id="2" name="Background_2" width="32" height="32">
  <data encoding="csv">
0,0,0,0,0,0,0,0,0,0,0,0,0,0,0,0,0,0,0,0,0,0,0,0,0,0,0,0,0,0,0,0,
0,0,0,0,0,0,0,0,0,0,0,0,0,0,0,0,0,0,0,0,0,0,0,0,0,0,0,0,0,0,0,0,
0,0,0,0,0,0,0,0,0,0,0,0,0,0,0,0,0,0,0,0,0,0,0,0,0,0,0,0,0,0,0,0,
0,0,0,0,0,0,0,0,0,0,0,0,0,0,0,0,0,0,0,0,0,0,0,0,0,0,0,0,0,0,0,0,
0,0,0,1073742298,306,0,0,0,0,0,0,0,0,0,1073742225,0,1073742227,0,0,0,0,0,0,0,331,0,1073742227,0,362,0,0,0,
0,0,1073742274,2147484010,1073742276,0,0,0,0,0,0,0,0,0,1073742202,1073742203,1073742204,0,0,0,0,0,0,0,1073742202,1073742203,1073742204,0,362,0,0,0,
0,0,0,2147484010,362,0,364,0,0,0,362,0,364,362,1073742179,364,1073742181,0,0,0,0,0,0,0,1073742179,362,1073742181,364,362,0,0,0,
0,0,0,2147484010,0,0,0,0,0,0,0,0,0,0,0,0,0,0,0,0,0,0,0,0,0,0,0,0,362,0,0,0,
0,0,362,363,364,0,0,0,0,0,0,0,0,0,0,0,0,362,0,364,0,0,0,0,0,0,362,0,362,0,0,0,
0,0,0,2147484010,0,0,0,0,0,0,0,0,0,0,0,0,0,0,0,0,0,0,0,0,0,0,0,0,362,0,0,0,
0,0,0,2147484010,362,0,364,0,0,0,362,0,364,0,0,0,362,0,364,0,0,0,0,0,0,0,0,0,362,0,0,0,
0,0,0,2147484010,0,0,0,0,0,0,0,0,0,0,0,0,0,0,0,0,0,0,0,0,0,0,0,0,362,0,0,0,
0,0,362,363,364,0,0,0,0,0,0,362,0,364,0,0,0,0,0,0,0,0,0,0,0,0,362,0,362,0,0,0,
0,0,0,2147484010,0,0,0,0,0,0,0,0,0,0,355,356,357,0,0,0,0,0,0,0,0,0,0,0,362,0,0,0,
0,0,450,2147484010,452,0,0,0,0,0,0,0,0,362,378,364,380,0,0,0,0,0,0,0,0,0,0,0,362,0,0,0,
0,0,0,474,475,0,0,0,0,0,0,0,0,0,401,0,403,0,0,0,0,0,0,0,0,0,0,0,362,0,0,0,
0,0,0,0,0,0,0,0,0,0,2147484010,0,0,0,0,0,0,0,0,0,0,0,0,0,0,0,2147484010,0,0,0,0,0,
0,0,0,0,0,0,0,0,0,0,2147484010,0,0,0,0,0,0,0,0,0,0,0,0,0,0,0,2147484010,0,0,0,0,0,
0,0,0,0,0,0,0,0,0,0,2147484010,0,0,0,0,0,0,0,0,1073742297,1073742298,1073742227,0,0,0,0,0,0,0,0,0,0,
0,0,0,0,0,0,0,0,0,355,362,357,0,0,0,0,0,0,0,1073742202,2147484010,1073742204,0,0,0,0,0,0,0,0,0,0,
0,0,0,0,0,2147484010,331,364,362,378,362,380,0,0,0,0,0,0,0,1073742179,2147484010,1073742181,364,0,362,0,0,0,0,0,0,0,
0,0,0,0,0,2147484010,0,0,0,401,2147484122,2147484121,0,0,0,0,0,0,0,0,2147484010,0,0,0,362,0,0,0,0,0,0,0,
0,0,0,0,0,2147484010,0,362,0,0,0,0,0,0,0,0,0,0,0,0,2147484010,0,362,0,362,0,0,0,0,0,0,0,
0,0,0,0,0,0,0,0,0,3221225947,3221225946,0,0,0,0,0,0,0,0,0,2147484010,0,0,0,362,0,0,0,0,0,0,0,
0,0,362,0,364,0,0,0,0,3221225924,362,3221225922,0,0,0,0,0,0,0,0,2147484010,0,364,362,363,364,0,0,0,0,0,0,
0,0,0,0,0,0,0,0,0,0,362,0,0,0,0,0,0,0,0,0,2147484010,0,0,0,362,0,0,0,0,0,0,0,
0,0,0,0,0,0,0,0,0,0,0,0,0,0,0,0,0,0,0,0,0,0,362,0,362,0,0,0,0,0,0,0,
0,0,0,0,0,2147484010,0,0,0,0,0,0,0,0,331,0,331,0,0,0,0,0,0,0,362,0,0,0,0,0,0,0,
0,0,0,0,0,0,0,0,0,0,0,0,0,0,0,0,0,0,0,0,0,0,0,0,0,0,0,0,0,0,0,0,
0,0,0,0,0,0,0,0,0,0,0,0,0,0,0,0,0,0,0,0,0,0,0,0,0,0,0,0,0,0,0,0,
0,0,0,0,0,0,0,0,0,0,0,0,0,0,0,0,0,0,0,0,0,0,0,0,0,0,0,0,0,0,0,0,
0,0,0,0,0,0,0,0,0,0,0,0,0,0,0,0,0,0,0,0,0,0,0,0,0,0,0,0,0,0,0,0
</data>
 </layer>
 <layer id="3" name="Background_3" width="32" height="32">
  <data encoding="csv">
0,0,0,0,0,0,0,0,0,0,0,0,0,0,0,0,0,0,0,0,0,0,0,0,0,0,0,0,0,0,0,0,
0,0,0,0,0,0,0,0,0,0,0,0,0,0,0,0,0,0,0,0,0,0,0,0,0,0,0,0,0,0,0,0,
0,0,0,0,0,0,0,0,0,0,0,0,0,0,0,0,0,0,0,0,0,0,0,0,0,0,0,0,0,0,0,0,
0,0,0,0,0,0,0,0,0,0,0,0,0,0,0,0,0,0,0,0,0,0,0,0,0,0,0,0,0,0,0,0,
0,0,0,0,0,0,0,0,0,0,0,0,0,0,0,0,0,0,0,0,0,0,0,0,0,0,0,0,0,0,0,0,
0,0,0,1073742275,0,0,0,0,0,0,0,0,0,0,0,0,0,0,0,0,0,0,0,0,0,0,0,0,0,0,0,0,
0,0,0,0,0,0,0,0,0,0,0,0,0,0,0,1073742180,0,0,0,0,0,0,0,0,0,1073742180,0,0,0,0,0,0,
0,0,0,0,0,0,0,0,0,0,0,0,0,0,0,0,0,0,0,0,0,0,0,0,0,0,0,0,0,0,0,0,
0,0,0,0,0,0,0,0,0,0,0,0,0,0,0,0,0,0,0,0,0,0,0,0,0,0,0,0,364,0,0,0,
0,0,0,0,0,0,0,0,0,0,0,0,0,0,0,0,0,0,0,0,0,0,0,0,0,0,0,0,0,0,0,0,
0,0,0,0,0,0,0,0,0,0,0,0,0,0,0,0,0,0,0,0,0,0,0,0,0,0,0,0,0,0,0,0,
0,0,0,0,0,0,0,0,0,0,0,0,0,0,0,0,0,0,0,0,0,0,0,0,0,0,0,0,0,0,0,0,
0,0,0,0,0,0,0,0,0,0,0,0,0,0,0,0,0,0,0,0,0,0,0,0,0,0,0,0,364,0,0,0,
0,0,0,0,0,0,0,0,0,0,0,0,0,0,0,0,0,0,0,0,0,0,0,0,0,0,0,0,0,0,0,0,
0,0,0,451,0,0,0,0,0,0,0,0,0,0,0,379,0,0,0,0,0,0,0,0,0,0,0,0,0,0,0,0,
0,0,0,0,0,0,0,0,0,0,0,0,0,0,0,0,0,0,0,0,0,0,0,0,0,0,0,0,0,0,0,0,
0,0,0,0,0,0,0,0,0,0,362,0,0,0,0,0,0,0,0,0,0,0,0,0,0,0,362,0,0,0,0,0,
0,0,0,0,0,0,0,0,0,0,362,0,0,0,0,0,0,0,0,0,0,0,0,0,0,0,362,0,0,0,0,0,
0,0,0,0,0,0,0,0,0,0,362,0,0,0,0,0,0,0,0,0,0,1073742299,0,0,0,0,0,0,0,0,0,0,
0,0,0,0,0,0,0,0,0,0,356,0,0,0,0,0,0,0,0,1073742274,1073742203,1073742276,0,0,0,0,0,0,0,0,0,0,
0,0,0,0,0,362,0,0,0,2147484100,364,2147484098,0,0,0,0,0,0,0,0,362,0,0,0,0,0,0,0,0,0,0,0,
0,0,0,0,0,0,0,0,0,2147484123,0,0,0,0,0,0,0,0,0,0,0,0,0,0,0,0,0,0,0,0,0,0,
0,0,0,0,0,0,0,0,0,0,0,0,0,0,0,0,0,0,0,0,0,0,0,0,364,0,0,0,0,0,0,0,
0,0,0,0,0,0,0,0,0,0,0,0,0,0,0,0,0,0,0,0,0,0,0,0,0,0,0,0,0,0,0,0,
0,0,0,0,0,0,0,0,0,0,3221225923,0,0,0,0,0,0,0,0,0,362,0,0,0,0,0,0,0,0,0,0,0,
0,0,0,0,0,0,0,0,0,0,0,0,0,0,0,0,0,0,0,0,0,0,0,0,0,0,0,0,0,0,0,0,
0,0,0,0,0,0,0,0,0,0,0,0,0,0,0,0,0,0,0,0,0,0,0,0,364,0,0,0,0,0,0,0,
0,0,0,0,0,0,0,0,0,0,0,0,0,0,0,0,0,0,0,0,0,0,0,0,0,0,0,0,0,0,0,0,
0,0,0,0,0,0,0,0,0,0,0,0,0,0,0,0,0,0,0,0,0,0,0,0,0,0,0,0,0,0,0,0,
0,0,0,0,0,0,0,0,0,0,0,0,0,0,0,0,0,0,0,0,0,0,0,0,0,0,0,0,0,0,0,0,
0,0,0,0,0,0,0,0,0,0,0,0,0,0,0,0,0,0,0,0,0,0,0,0,0,0,0,0,0,0,0,0,
0,0,0,0,0,0,0,0,0,0,0,0,0,0,0,0,0,0,0,0,0,0,0,0,0,0,0,0,0,0,0,0
</data>
 </layer>
 <layer id="4" name="Background_4" width="32" height="32">
  <data encoding="csv">
0,0,0,0,0,0,0,0,0,0,0,0,0,0,0,0,0,0,0,0,0,0,0,0,0,0,0,0,0,0,0,0,
0,0,0,0,0,0,0,0,0,0,0,0,0,0,0,0,0,0,0,0,0,0,0,0,0,0,0,0,0,0,0,0,
0,0,0,0,0,0,0,0,0,0,0,0,0,0,0,0,0,0,0,0,0,0,0,0,0,0,0,0,0,0,0,0,
0,0,0,0,0,0,0,0,0,0,0,0,0,0,0,0,0,0,0,0,0,0,0,0,0,0,0,0,0,0,0,0,
0,0,0,0,0,0,0,0,0,0,0,0,0,0,0,0,0,0,0,0,0,0,0,0,0,0,0,0,0,0,0,0,
0,0,0,0,0,0,0,0,0,0,0,0,0,0,0,0,0,0,0,0,0,0,0,0,0,0,0,0,0,0,0,0,
0,0,0,0,0,0,0,0,0,0,0,0,0,0,0,0,0,0,0,0,0,0,0,0,0,0,0,0,0,0,0,0,
0,0,0,0,0,0,0,0,0,0,0,0,0,0,0,0,0,0,0,0,0,0,0,0,0,0,0,0,0,0,0,0,
0,0,0,0,0,0,0,0,0,0,0,0,0,0,0,0,0,0,0,0,0,0,0,0,0,0,0,0,0,0,0,0,
0,0,0,0,0,0,0,0,0,0,0,0,0,0,0,0,0,0,0,0,0,0,0,0,0,0,0,0,0,0,0,0,
0,0,0,0,0,0,0,0,0,0,0,0,0,0,0,0,0,0,0,0,0,0,0,0,0,0,0,0,0,0,0,0,
0,0,0,0,0,0,0,0,0,0,0,0,0,0,0,0,0,0,0,0,0,0,0,0,0,0,0,0,0,0,0,0,
0,0,0,0,0,0,0,0,0,0,0,0,0,0,0,0,0,0,0,0,0,0,0,0,0,0,0,0,0,0,0,0,
0,0,0,0,0,0,0,0,0,0,0,0,0,0,0,0,0,0,0,0,0,0,0,0,0,0,0,0,0,0,0,0,
0,0,0,0,0,0,0,0,0,0,0,0,0,0,0,0,0,0,0,0,0,0,0,0,0,0,0,0,0,0,0,0,
0,0,0,0,0,0,0,0,0,0,0,0,0,0,0,0,0,0,0,0,0,0,0,0,0,0,0,0,0,0,0,0,
0,0,0,0,0,0,0,0,0,0,0,0,0,0,0,0,0,0,0,0,0,0,0,0,0,0,0,0,0,0,0,0,
0,0,0,0,0,0,0,0,0,0,0,0,0,0,0,0,0,0,0,0,0,0,0,0,0,0,0,0,0,0,0,0,
0,0,0,0,0,0,0,0,0,0,0,0,0,0,0,0,0,0,0,0,0,0,0,0,0,0,0,0,0,0,0,0,
0,0,0,0,0,0,0,0,0,0,0,0,0,0,0,0,0,0,0,0,1073742275,0,0,0,0,0,0,0,0,0,0,0,
0,0,0,0,0,0,0,0,0,0,379,0,0,0,0,0,0,0,0,0,1073742180,0,0,0,0,0,0,0,0,0,0,0,
0,0,0,0,0,0,0,0,0,0,0,0,0,0,0,0,0,0,0,0,0,0,0,0,0,0,0,0,0,0,0,0,
0,0,0,0,0,0,0,0,0,0,0,0,0,0,0,0,0,0,0,0,0,0,0,0,0,0,0,0,0,0,0,0,
0,0,0,0,0,0,0,0,0,0,0,0,0,0,0,0,0,0,0,0,0,0,0,0,0,0,0,0,0,0,0,0,
0,0,0,0,0,0,0,0,0,0,0,0,0,0,0,0,0,0,0,0,0,0,0,0,0,0,0,0,0,0,0,0,
0,0,0,0,0,0,0,0,0,0,0,0,0,0,0,0,0,0,0,0,0,0,0,0,0,0,0,0,0,0,0,0,
0,0,0,0,0,0,0,0,0,0,0,0,0,0,0,0,0,0,0,0,0,0,0,0,0,0,0,0,0,0,0,0,
0,0,0,0,0,0,0,0,0,0,0,0,0,0,0,0,0,0,0,0,0,0,0,0,0,0,0,0,0,0,0,0,
0,0,0,0,0,0,0,0,0,0,0,0,0,0,0,0,0,0,0,0,0,0,0,0,0,0,0,0,0,0,0,0,
0,0,0,0,0,0,0,0,0,0,0,0,0,0,0,0,0,0,0,0,0,0,0,0,0,0,0,0,0,0,0,0,
0,0,0,0,0,0,0,0,0,0,0,0,0,0,0,0,0,0,0,0,0,0,0,0,0,0,0,0,0,0,0,0,
0,0,0,0,0,0,0,0,0,0,0,0,0,0,0,0,0,0,0,0,0,0,0,0,0,0,0,0,0,0,0,0
</data>
 </layer>
 <layer id="5" name="Background_5" width="32" height="32">
  <data encoding="csv">
0,0,0,0,0,0,0,0,0,0,0,0,0,0,0,0,0,0,0,0,0,0,0,0,0,0,0,0,0,0,0,0,
0,0,0,0,0,0,0,0,0,0,0,0,0,0,0,0,0,0,0,0,0,0,0,0,0,0,0,0,0,0,0,0,
0,0,0,0,0,0,0,0,0,0,0,0,0,0,0,0,0,0,0,0,0,0,0,0,0,0,0,0,0,0,0,0,
0,0,0,0,0,0,0,0,0,0,0,0,0,0,0,0,0,0,0,0,0,0,0,0,0,0,0,0,0,0,0,0,
0,0,0,0,0,0,0,0,0,0,0,0,0,0,0,0,0,0,0,0,0,0,0,0,0,0,0,0,0,0,0,0,
0,0,0,0,0,0,0,0,0,0,0,0,0,0,0,0,0,0,0,0,0,0,0,0,0,0,0,0,0,0,0,0,
0,0,0,0,0,0,0,0,0,0,0,0,0,0,0,0,0,0,0,0,0,0,0,0,0,0,0,0,0,0,0,0,
0,0,0,0,0,0,0,0,0,0,0,0,0,0,0,0,0,0,0,0,0,0,0,0,0,0,0,0,0,0,0,0,
0,0,0,0,0,0,0,0,0,0,0,0,0,0,0,0,0,0,0,0,0,0,0,0,0,0,0,0,0,0,0,0,
0,0,0,0,0,0,0,0,0,0,0,0,0,0,0,0,0,0,0,0,0,0,0,0,0,0,0,0,0,0,0,0,
0,0,0,0,0,0,0,0,0,0,0,0,0,0,0,0,0,0,0,0,0,0,0,0,0,0,0,0,0,0,0,0,
0,0,0,0,0,0,0,0,0,0,0,0,0,0,0,0,0,0,0,0,0,0,0,0,0,0,0,0,0,0,0,0,
0,0,0,0,0,0,0,0,0,0,0,0,0,0,0,0,0,0,0,0,0,0,0,0,0,0,0,0,0,0,0,0,
0,0,0,0,0,0,0,0,0,0,0,0,0,0,0,0,0,0,0,0,0,0,0,0,0,0,0,0,0,0,0,0,
0,0,0,0,0,0,0,0,0,0,0,0,0,0,0,0,0,0,0,0,0,0,0,0,0,0,0,0,0,0,0,0,
0,0,0,0,0,0,0,0,0,0,0,0,0,0,0,0,0,0,0,0,0,0,0,0,0,0,0,0,0,0,0,0,
0,0,0,0,0,0,0,0,0,0,0,0,0,0,0,0,0,0,0,0,0,0,0,0,0,0,0,0,0,0,0,0,
0,0,0,0,0,0,0,0,0,0,0,0,0,0,0,0,0,0,0,0,0,0,0,0,0,0,0,0,0,0,0,0,
0,0,0,0,0,0,0,0,0,0,0,0,0,0,0,0,0,0,0,0,0,0,0,0,0,0,0,0,0,0,0,0,
0,0,0,0,0,0,0,0,0,0,0,0,0,0,0,0,0,0,0,0,0,0,0,0,0,0,0,0,0,0,0,0,
0,0,0,0,0,0,0,0,0,0,2147484099,0,0,0,0,0,0,0,0,0,0,0,0,0,0,0,0,0,0,0,0,0,
0,0,0,0,0,0,0,0,0,0,0,0,0,0,0,0,0,0,0,0,0,0,0,0,0,0,0,0,0,0,0,0,
0,0,0,0,0,0,0,0,0,0,0,0,0,0,0,0,0,0,0,0,0,0,0,0,0,0,0,0,0,0,0,0,
0,0,0,0,0,0,0,0,0,0,0,0,0,0,0,0,0,0,0,0,0,0,0,0,0,0,0,0,0,0,0,0,
0,0,0,0,0,0,0,0,0,0,0,0,0,0,0,0,0,0,0,0,0,0,0,0,0,0,0,0,0,0,0,0,
0,0,0,0,0,0,0,0,0,0,0,0,0,0,0,0,0,0,0,0,0,0,0,0,0,0,0,0,0,0,0,0,
0,0,0,0,0,0,0,0,0,0,0,0,0,0,0,0,0,0,0,0,0,0,0,0,0,0,0,0,0,0,0,0,
0,0,0,0,0,0,0,0,0,0,0,0,0,0,0,0,0,0,0,0,0,0,0,0,0,0,0,0,0,0,0,0,
0,0,0,0,0,0,0,0,0,0,0,0,0,0,0,0,0,0,0,0,0,0,0,0,0,0,0,0,0,0,0,0,
0,0,0,0,0,0,0,0,0,0,0,0,0,0,0,0,0,0,0,0,0,0,0,0,0,0,0,0,0,0,0,0,
0,0,0,0,0,0,0,0,0,0,0,0,0,0,0,0,0,0,0,0,0,0,0,0,0,0,0,0,0,0,0,0,
0,0,0,0,0,0,0,0,0,0,0,0,0,0,0,0,0,0,0,0,0,0,0,0,0,0,0,0,0,0,0,0
</data>
 </layer>
 <layer id="7" name="Collisions_1" width="32" height="32">
  <data encoding="csv">
49,49,49,49,49,49,143,49,49,49,145,49,49,49,49,49,49,49,143,49,145,49,49,49,49,49,145,49,49,49,143,49,
49,153,49,36,145,7,49,36,49,153,49,36,49,36,49,153,145,36,145,36,49,36,145,153,145,153,49,7,49,7,145,36,
36,49,36,143,7,49,36,49,36,49,153,49,153,49,36,49,7,143,7,49,153,49,36,49,7,49,36,49,36,49,36,49,
49,153,247,247,287,247,247,247,247,287,287,287,289,289,289,247,247,289,247,287,287,247,247,247,289,247,247,247,247,247,2147483801,153,
7,2147483847,0,0,0,0,0,0,0,0,0,0,0,0,0,0,0,0,0,0,0,0,0,0,0,0,0,0,0,0,199,49,
143,2147483847,0,0,0,0,0,0,0,0,0,0,0,0,0,0,0,0,0,0,0,0,0,0,0,0,0,0,0,0,199,7,
153,2147483847,0,0,0,0,0,0,0,0,0,0,0,0,0,0,0,0,0,0,0,0,0,0,0,0,0,0,0,0,199,145,
49,2147483847,0,0,0,0,0,0,0,0,0,0,0,0,0,0,0,0,0,0,0,0,0,0,0,0,0,0,0,0,199,36,
153,2147483847,0,0,0,0,0,0,0,0,0,0,0,0,0,0,0,0,0,0,0,0,0,0,0,0,0,0,0,0,199,145,
49,2147483847,0,0,0,0,0,0,0,0,0,0,0,0,0,0,0,0,0,0,0,0,0,0,0,0,0,0,0,0,199,36,
153,2147483847,0,0,0,0,0,0,0,0,0,0,0,0,0,0,0,0,0,0,0,0,0,0,0,0,0,0,0,0,199,49,
145,2147483847,0,0,0,0,0,0,0,0,0,0,0,0,0,0,0,0,0,0,0,0,0,0,0,0,0,0,0,0,199,36,
36,2147483847,0,0,0,0,0,0,0,0,0,0,0,0,0,0,0,0,0,0,0,0,0,0,0,0,0,0,0,0,199,49,
49,2147483847,0,0,0,0,0,0,0,0,0,0,0,0,0,0,0,0,0,0,0,0,0,0,0,0,0,0,0,0,199,36,
153,2147483847,0,0,0,0,0,0,0,0,0,0,0,0,0,0,0,0,0,0,0,0,0,0,0,0,0,0,0,0,199,49,
49,2147483847,163,163,164,164,165,165,163,0,0,0,163,164,163,164,163,164,164,163,164,164,164,164,164,0,0,0,163,163,199,36,
7,1073741977,155,155,155,3,3,155,2147484086,0,0,0,3,3,3,3,3,3,3,3,3,155,155,155,2147484086,0,0,0,3,3,3221225625,145,
49,153,143,153,143,7,143,7,2147483847,0,0,0,199,153,49,7,49,153,153,287,247,247,247,289,212,0,0,0,2147483860,247,247,247,
36,145,36,153,289,247,287,287,212,0,0,0,199,49,36,49,7,49,2147483847,0,0,0,0,0,0,0,0,0,0,0,0,0,
49,153,49,2147483847,0,0,0,0,0,0,0,0,199,153,143,145,49,7,2147483847,0,0,0,0,0,0,0,163,164,163,164,164,165,
36,49,153,2147483847,0,0,0,0,0,0,0,0,199,143,7,49,36,49,2147483847,0,0,0,0,0,0,0,438,3,3,3,155,3,
49,153,49,2147483847,0,0,0,0,0,164,164,164,199,7,145,49,49,36,2147483847,0,0,0,0,0,0,0,199,153,143,36,49,7,
247,247,247,212,0,0,0,0,0,2147483860,155,155,2147483801,49,7,49,36,49,2147483847,0,0,0,0,0,0,0,199,49,7,49,153,49,
0,0,0,0,0,0,0,0,0,0,0,0,199,7,49,153,49,7,2147483847,0,0,0,0,0,0,0,199,36,49,145,49,49,
0,0,0,0,0,0,0,0,0,0,0,0,199,49,7,49,7,145,2147483847,0,0,0,0,0,0,0,199,49,153,49,143,49,
0,0,0,0,0,0,0,0,0,0,0,0,2147483860,287,289,247,287,287,212,0,0,0,0,0,0,0,199,36,49,49,49,49,
164,165,165,164,0,0,0,0,0,0,0,0,0,0,0,0,0,0,0,0,0,0,0,0,0,0,199,145,36,49,49,49,
155,155,3,3,0,0,0,0,0,0,0,0,0,0,0,0,0,0,0,0,0,0,0,0,0,0,199,36,143,49,49,49,
36,49,153,2147483847,251,251,251,251,251,251,251,251,251,251,251,251,251,251,251,251,251,251,251,251,251,251,199,145,36,49,49,49,
49,36,49,1073741977,155,155,155,155,155,155,155,155,155,155,155,155,155,155,155,155,155,155,155,155,155,155,3221225625,36,145,49,49,49,
49,49,36,49,7,49,153,145,7,143,36,49,153,49,7,145,36,145,153,145,36,49,153,49,153,143,153,49,36,49,145,49,
49,36,49,7,49,7,49,153,143,153,49,36,49,36,49,7,49,153,145,36,49,153,49,7,145,36,143,153,49,49,49,145
</data>
 </layer>
 <layer id="8" name="Collisions_2" width="32" height="32">
  <data encoding="csv">
0,0,0,0,0,0,0,0,0,0,0,0,0,0,0,0,0,0,0,0,0,0,0,0,0,0,0,0,0,0,0,0,
0,0,0,0,0,0,0,0,0,0,0,0,0,0,0,0,0,0,0,0,0,0,0,0,0,0,0,0,0,0,0,0,
0,0,0,0,0,0,0,0,0,0,0,0,0,0,0,0,0,0,0,0,0,0,0,0,0,0,0,0,0,0,0,0,
0,0,0,0,0,0,0,0,0,0,0,0,0,0,0,0,0,0,0,0,0,0,0,0,0,0,0,0,0,0,0,0,
0,0,0,0,0,0,0,0,0,0,0,0,0,0,0,0,0,0,0,0,0,0,0,0,0,0,0,0,0,0,0,0,
0,0,0,0,0,0,0,0,0,0,0,0,0,0,0,0,0,0,0,0,0,0,0,0,0,0,0,0,0,0,0,0,
0,0,0,0,0,0,0,0,0,0,0,0,0,0,0,0,0,0,0,0,0,0,0,0,0,0,0,0,0,0,0,0,
0,0,0,0,0,0,0,0,0,0,0,0,0,0,0,0,0,0,0,0,0,0,0,0,0,0,0,0,0,0,0,0,
0,0,0,0,0,0,0,0,0,0,0,0,0,0,0,0,0,0,0,0,0,0,0,0,0,0,0,0,0,0,0,0,
0,0,0,0,0,0,0,0,0,0,0,0,0,0,0,0,0,0,0,0,0,0,0,0,0,0,0,0,0,0,0,0,
0,0,0,0,0,0,0,0,0,0,0,0,0,0,0,0,0,0,0,0,0,0,0,0,0,0,0,0,0,0,0,0,
0,0,0,0,0,0,0,0,0,0,0,0,0,0,0,0,0,0,0,0,0,0,0,0,0,0,0,0,0,0,0,0,
0,0,0,0,0,0,0,0,0,0,0,0,0,0,0,0,0,0,0,0,0,0,0,0,0,0,0,0,0,0,0,0,
0,0,0,0,0,0,0,0,0,0,0,0,0,0,0,0,0,0,0,0,0,0,0,0,0,0,0,0,0,0,0,0,
0,0,0,0,0,0,0,0,0,0,0,0,0,0,0,0,0,0,0,0,0,0,0,0,0,0,0,0,0,0,0,0,
0,0,0,139,141,0,0,139,139,0,0,0,139,0,0,0,139,141,141,0,141,139,139,141,0,0,0,0,141,139,0,0,
0,0,0,0,0,0,0,0,0,0,0,0,0,0,0,0,0,0,0,0,0,0,0,0,0,0,0,0,0,0,0,0,
0,0,0,0,0,0,0,0,0,0,0,0,0,0,0,0,0,0,0,0,0,0,0,0,0,0,0,0,0,0,0,0,
0,0,0,0,0,0,0,0,0,0,0,0,0,0,0,0,0,0,0,0,0,0,0,0,0,0,0,0,0,0,0,0,
0,0,0,0,0,0,0,0,0,0,0,0,0,0,0,0,0,0,0,0,0,0,0,0,0,0,0,141,0,139,0,139,
0,0,0,0,0,0,0,0,0,0,0,0,0,0,0,0,0,0,0,0,0,0,0,0,0,0,0,0,0,0,0,0,
0,0,0,0,0,0,0,0,0,0,0,0,0,0,0,0,0,0,0,0,0,0,0,0,0,0,0,0,0,0,0,0,
0,0,0,0,0,0,0,0,0,0,0,0,0,0,0,0,0,0,0,0,0,0,0,0,0,0,0,0,0,0,0,0,
0,0,0,0,0,0,0,0,0,0,0,0,0,0,0,0,0,0,0,0,0,0,0,0,0,0,0,0,0,0,0,0,
0,0,0,0,0,0,0,0,0,0,0,0,0,0,0,0,0,0,0,0,0,0,0,0,0,0,0,0,0,0,0,0,
0,0,0,0,0,0,0,0,0,0,0,0,0,0,0,0,0,0,0,0,0,0,0,0,0,0,0,0,0,0,0,0,
0,139,139,0,0,0,0,0,0,0,0,0,0,0,0,0,0,0,0,0,0,0,0,0,0,0,0,0,0,0,0,0,
0,0,0,0,0,0,0,0,0,0,0,0,0,0,0,0,0,0,0,0,0,0,0,0,0,0,0,0,0,0,0,0,
0,0,0,0,0,0,0,0,0,0,0,0,0,0,0,0,0,0,0,0,0,0,0,0,0,0,0,0,0,0,0,0,
0,0,0,0,0,0,0,0,0,0,0,0,0,0,0,0,0,0,0,0,0,0,0,0,0,0,0,0,0,0,0,0,
0,0,0,0,0,0,0,0,0,0,0,0,0,0,0,0,0,0,0,0,0,0,0,0,0,0,0,0,0,0,0,0,
0,0,0,0,0,0,0,0,0,0,0,0,0,0,0,0,0,0,0,0,0,0,0,0,0,0,0,0,0,0,0,0
</data>
 </layer>
 <objectgroup id="9" name="Entities">
  <object id="1" name="Item" type="Item" x="252" y="232" width="24" height="24">
   <properties>
    <property name="__anchorX" type="int" value="264"/>
    <property name="__anchorY" type="int" value="256"/>
    <property name="__cx" type="int" value="16"/>
    <property name="__cy" type="int" value="15"/>
    <property name="count" type="int" value="50"/>
    <property name="price" type="int" value="0"/>
    <property name="type" value="Gold"/>
   </properties>
  </object>
  <object id="2" name="Item" type="Item" x="364" y="440" width="24" height="24">
   <properties>
    <property name="__anchorX" type="int" value="376"/>
    <property name="__anchorY" type="int" value="464"/>
    <property name="__cx" type="int" value="23"/>
    <property name="__cy" type="int" value="28"/>
    <property name="count" type="int" value="1"/>
    <property name="price" type="int" value="0"/>
    <property name="type" value="Gem"/>
   </properties>
  </object>
  <object id="3" name="Item" type="Item" x="44" y="232" width="24" height="24">
   <properties>
    <property name="__anchorX" type="int" value="56"/>
    <property name="__anchorY" type="int" value="256"/>
    <property name="__cx" type="int" value="3"/>
    <property name="__cy" type="int" value="15"/>
    <property name="count" type="int" value="1"/>
    <property name="price" type="int" value="0"/>
    <property name="type" value="Healing_potion"/>
   </properties>
  </object>
  <object id="4" name="Ladder" type="Ladder" x="176" y="256" width="16" height="16">
   <properties>
    <property name="__anchorX" type="int" value="176"/>
    <property name="__anchorY" type="int" value="256"/>
    <property name="__cx" type="int" value="11"/>
    <property name="__cy" type="int" value="16"/>
   </properties>
  </object>
  <object id="5" name="Ladder" type="Ladder" x="128" y="352" width="16" height="16">
   <properties>
    <property name="__anchorX" type="int" value="128"/>
    <property name="__anchorY" type="int" value="352"/>
    <property name="__cx" type="int" value="8"/>
    <property name="__cy" type="int" value="22"/>
   </properties>
  </object>
 </objectgroup>
</map>
