<?xml version="1.0" encoding="UTF-8"?>
<map version="1.10" tiledversion="1.11.2" orientation="orthogonal" renderorder="right-down" compressionlevel="0" width="16" height="32" tilewidth="16" tileheight="16" infinite="0" backgroundcolor="#37494e" nextlayerid="8" nextobjectid="2">
 <tileset firstgid="1" name="SunnyLand_by_Ansimuz" tilewidth="16" tileheight="16" tilecount="483" columns="23" objectalignment="topleft">
  <image source="atlas/SunnyLand_by_Ansimuz-extended.png" width="368" height="336"/>
 </tileset>
 <tileset firstgid="484" name="Collisions" tilewidth="16" tileheight="16" tilecount="2" columns="2" objectalignment="topleft">
  <image source="Collisions.intgrid.png" width="32" height="16"/>
 </tileset>
 <layer id="1" name="Background_1" width="16" height="32">
  <data encoding="csv">
0,0,0,0,0,0,0,0,0,0,0,0,0,0,0,0,
0,0,0,0,0,0,0,0,0,0,0,0,0,0,0,0,
0,0,0,0,0,0,0,0,0,0,0,0,0,0,0,0,
0,0,0,0,0,0,0,0,0,0,0,0,0,0,0,0,
0,412,306,412,306,412,412,412,412,412,412,412,331,2147484060,0,0,
412,2147484011,412,412,412,412,412,412,412,412,412,412,412,363,2147484060,0,
306,412,412,412,412,412,412,412,412,412,412,412,412,412,363,0,
412,412,412,412,412,412,412,412,412,412,412,412,412,412,363,0,
412,412,412,412,412,412,412,412,412,412,412,412,412,412,363,0,
0,0,1073742236,2147484011,412,363,3221225884,0,0,1073742236,2147484011,412,412,412,363,0,
0,0,0,2147484011,412,363,2147484060,0,0,412,2147484011,412,412,412,363,0,
0,0,0,2147484011,412,412,363,0,0,2147484011,412,412,412,412,363,0,
0,0,0,412,412,412,412,0,0,412,412,412,412,412,412,0,
0,0,0,412,412,412,412,0,0,412,412,412,412,412,412,0,
0,0,0,0,0,0,0,0,0,1073742236,412,3221225884,0,0,0,0,
0,0,0,0,0,0,0,0,0,0,412,0,0,0,0,0,
0,0,0,0,0,0,0,0,0,0,412,0,0,0,0,0,
0,0,0,0,0,0,0,0,0,0,412,0,0,0,0,0,
0,0,0,0,0,0,0,0,0,0,412,2147484060,0,0,0,0,
0,0,0,0,0,0,0,0,0,0,412,412,412,412,412,412,
0,0,0,0,0,0,0,0,0,0,0,0,0,0,0,0,
0,0,0,0,0,0,0,0,0,0,0,0,0,0,0,0,
0,0,0,0,0,0,0,0,0,0,0,0,0,0,0,0,
0,0,0,0,0,0,0,0,0,0,0,0,0,0,0,0,
0,0,0,0,0,0,0,0,0,0,0,0,0,0,0,0,
0,0,0,0,0,0,0,0,0,0,0,0,0,0,0,0,
0,0,0,0,0,0,0,0,0,0,0,0,0,0,0,0,
0,0,0,0,0,0,0,0,0,0,0,0,0,0,0,0,
0,0,0,0,0,0,0,0,0,0,0,0,0,0,0,0,
0,0,0,0,0,0,0,0,0,0,0,0,0,0,0,0,
0,0,0,0,0,0,0,0,0,0,0,0,0,0,0,0,
0,0,0,0,0,0,0,0,0,0,0,0,0,0,0,0
</data>
 </layer>
 <layer id="2" name="Background_2" width="16" height="32">
  <data encoding="csv">
0,0,0,0,0,0,0,0,0,0,0,0,0,0,0,0,
0,0,0,0,0,0,0,0,0,0,0,0,0,0,0,0,
0,0,0,0,0,0,0,0,0,0,0,0,0,0,0,0,
0,0,0,0,0,0,0,0,0,0,0,0,0,0,0,0,
0,0,0,0,0,0,0,0,0,0,0,0,0,0,0,0,
0,0,2147484010,0,0,0,0,0,0,0,0,0,362,0,0,0,
0,0,0,0,0,0,0,0,0,0,0,0,0,362,0,0,
0,0,0,0,0,0,0,0,0,0,0,0,0,362,0,0,
0,0,0,0,0,0,0,0,0,0,0,0,0,362,0,0,
0,0,0,0,2147484010,0,0,0,0,0,0,2147484010,0,362,0,0,
0,0,0,0,2147484010,0,0,0,0,0,0,2147484010,0,362,0,0,
0,0,0,0,2147484010,362,0,0,0,0,2147484010,0,0,362,0,0,
0,0,0,0,0,0,0,0,0,0,0,0,0,0,0,0,
0,0,0,0,0,0,0,0,0,0,0,0,0,0,0,0,
0,0,0,0,0,0,0,0,0,0,0,0,0,0,0,0,
0,0,0,0,0,0,0,0,0,0,0,0,0,0,0,0,
0,0,0,0,0,0,0,0,0,0,0,0,0,0,0,0,
0,0,0,0,0,0,0,0,0,0,0,0,0,0,0,0,
0,0,0,0,0,0,0,0,0,0,0,0,0,0,0,0,
0,0,0,0,0,0,0,0,0,0,0,0,0,0,0,0,
0,0,0,0,0,0,0,0,0,0,0,0,0,0,0,0,
0,0,0,0,0,0,0,0,0,0,0,0,0,0,0,0,
0,0,0,0,0,0,0,0,0,0,0,0,0,0,0,0,
0,0,0,0,0,0,0,0,0,0,0,0,0,0,0,0,
0,0,0,0,0,0,0,0,0,0,0,0,0,0,0,0,
0,0,0,0,0,0,0,0,0,0,0,0,0,0,0,0,
0,0,0,0,0,0,0,0,0,0,0,0,0,0,0,0,
0,0,0,0,0,0,0,0,0,0,0,0,0,0,0,0,
0,0,0,0,0,0,0,0,0,0,0,0,0,0,0,0,
0,0,0,0,0,0,0,0,0,0,0,0,0,0,0,0,
0,0,0,0,0,0,0,0,0,0,0,0,0,0,0,0,
0,0,0,0,0,0,0,0,0,0,0,0,0,0,0,0
</data>
 </layer>
 <layer id="3" name="Background_3" width="16" height="32">
  <data encoding="csv">
0,0,0,0,0,0,0,0,0,0,0,0,0,0,0,0,
0,0,0,0,0,0,0,0,0,0,0,0,0,0,0,0,
0,0,0,0,0,0,0,0,0,0,0,0,0,0,0,0,
0,0,0,0,0,0,0,0,0,0,0,0,0,0,0,0,
0,0,0,0,0,0,0,0,0,0,0,0,0,0,0,0,
0,0,0,0,0,0,0,0,0,0,0,0,0,0,0,0,
0,0,0,0,0,0,0,0,0,0,0,0,0,0,0,0,
0,0,0,0,0,0,0,0,0,0,0,0,0,0,0,0,
0,0,0,0,0,0,0,0,0,0,0,0,0,0,0,0,
0,0,0,0,362,0,0,0,0,0,0,0,0,0,0,0,
0,0,0,0,362,0,0,0,0,0,0,0,0,0,0,0,
0,0,0,0,0,0,0,0,0,0,0,0,0,0,0,0,
0,0,0,0,0,0,0,0,0,0,0,0,0,0,0,0,
0,0,0,0,0,0,0,0,0,0,0,0,0,0,0,0,
0,0,0,0,0,0,0,0,0,0,0,0,0,0,0,0,
0,0,0,0,0,0,0,0,0,0,0,0,0,0,0,0,
0,0,0,0,0,0,0,0,0,0,0,0,0,0,0,0,
0,0,0,0,0,0,0,0,0,0,0,0,0,0,0,0,
0,0,0,0,0,0,0,0,0,0,0,0,0,0,0,0,
0,0,0,0,0,0,0,0,0,0,0,0,0,0,0,0,
0,0,0,0,0,0,0,0,0,0,0,0,0,0,0,0,
0,0,0,0,0,0,0,0,0,0,0,0,0,0,0,0,
0,0,0,0,0,0,0,0,0,0,0,0,0,0,0,0,
0,0,0,0,0,0,0,0,0,0,0,0,0,0,0,0,
0,0,0,0,0,0,0,0,0,0,0,0,0,0,0,0,
0,0,0,0,0,0,0,0,0,0,0,0,0,0,0,0,
0,0,0,0,0,0,0,0,0,0,0,0,0,0,0,0,
0,0,0,0,0,0,0,0,0,0,0,0,0,0,0,0,
0,0,0,0,0,0,0,0,0,0,0,0,0,0,0,0,
0,0,0,0,0,0,0,0,0,0,0,0,0,0,0,0,
0,0,0,0,0,0,0,0,0,0,0,0,0,0,0,0,
0,0,0,0,0,0,0,0,0,0,0,0,0,0,0,0
</data>
 </layer>
 <layer id="5" name="Collisions_1" width="16" height="32">
  <data encoding="csv">
49,49,49,49,49,49,49,49,49,49,49,49,143,49,49,49,
145,36,145,36,49,153,49,153,49,153,49,153,49,153,49,153,
7,143,7,145,7,49,36,49,153,49,36,49,153,49,7,145,
145,153,247,247,247,247,247,247,289,287,247,289,247,2147483801,143,36,
153,212,0,0,0,0,0,0,0,0,0,0,0,2147483860,2147483801,143,
212,0,0,0,0,0,0,0,0,0,0,0,0,0,2147483860,2147483801,
0,0,0,0,0,0,0,0,0,0,0,0,0,0,0,199,
0,0,0,0,0,0,0,0,0,0,0,0,0,0,0,199,
164,163,165,0,0,0,165,164,164,163,0,0,0,0,0,199,
155,155,2147484086,0,0,0,3,3,155,2147484086,0,0,0,0,0,199,
36,49,2147483847,0,0,0,2147483860,2147483801,153,212,0,0,0,0,0,199,
143,36,2147483847,0,0,0,0,199,2147483847,0,0,0,0,0,0,199,
7,49,2147483847,251,251,251,251,199,2147483847,251,251,251,251,251,251,199,
143,153,2147483847,274,274,274,274,199,2147483847,274,274,274,274,274,274,199,
153,49,1073741977,155,155,155,155,3221225625,1073741977,2147484086,274,438,155,155,155,3221225625,
49,7,49,36,49,153,145,7,49,2147483847,274,199,143,153,49,36,
153,143,36,49,36,49,153,49,7,2147483847,274,199,7,49,36,143,
49,49,49,49,49,49,49,36,143,2147483847,274,199,145,36,143,7,
145,49,145,49,145,49,145,143,7,2147483847,274,1073741977,247,247,287,247,
49,49,49,145,49,49,49,153,49,2147483847,274,274,274,274,274,274,
49,49,49,49,143,49,49,145,7,1073741977,155,155,155,155,155,155,
49,145,49,143,49,49,49,7,49,36,49,36,49,36,143,153,
49,49,143,49,145,49,49,145,7,49,7,49,7,145,36,145,
49,49,49,49,49,143,49,143,49,143,49,145,49,49,49,143,
49,49,49,49,145,49,145,49,49,49,49,49,145,49,143,49,
49,49,49,49,49,143,49,143,49,49,49,145,49,49,49,49,
145,49,49,49,49,49,143,49,49,49,49,49,145,49,49,49,
49,49,49,49,49,143,49,143,49,49,49,49,49,49,49,49,
49,49,49,49,49,49,49,49,145,49,145,49,49,49,49,49,
49,49,49,49,49,143,49,145,49,143,49,49,49,49,49,49,
143,49,49,49,49,49,49,49,145,49,143,49,49,49,49,49,
49,49,49,49,49,49,49,49,49,145,49,49,49,49,49,145
</data>
 </layer>
 <layer id="6" name="Collisions_2" width="16" height="32">
  <data encoding="csv">
0,0,0,0,0,0,0,0,0,0,0,0,0,0,0,0,
0,0,0,0,0,0,0,0,0,0,0,0,0,0,0,0,
0,0,0,0,0,0,0,0,0,0,0,0,0,0,0,0,
0,0,0,0,0,0,0,0,0,0,0,0,0,0,0,0,
0,0,0,0,0,0,0,0,0,0,0,0,0,0,0,0,
0,0,0,0,0,0,0,0,0,0,0,0,0,0,0,0,
0,0,0,0,0,0,0,0,0,0,0,0,0,0,0,0,
0,0,0,0,0,0,0,0,0,0,0,0,0,0,0,0,
139,0,0,0,0,0,0,0,139,0,0,0,0,0,0,0,
0,0,0,0,0,0,0,0,0,0,0,0,0,0,0,0,
0,0,0,0,0,0,0,0,0,0,0,0,0,0,0,0,
0,0,0,0,0,0,0,0,0,0,0,0,0,0,0,0,
0,0,0,0,0,0,0,0,0,0,0,0,0,0,0,0,
0,0,0,0,0,0,0,0,0,0,0,0,0,0,0,0,
0,0,0,0,0,0,0,0,0,0,0,0,0,0,0,0,
0,0,0,0,0,0,0,0,0,0,0,0,0,0,0,0,
0,0,0,0,0,0,0,0,0,0,0,0,0,0,0,0,
0,0,0,0,0,0,0,0,0,0,0,0,0,0,0,0,
0,0,0,0,0,0,0,0,0,0,0,0,0,0,0,0,
0,0,0,0,0,0,0,0,0,0,0,0,0,0,0,0,
0,0,0,0,0,0,0,0,0,0,0,0,0,0,0,0,
0,0,0,0,0,0,0,0,0,0,0,0,0,0,0,0,
0,0,0,0,0,0,0,0,0,0,0,0,0,0,0,0,
0,0,0,0,0,0,0,0,0,0,0,0,0,0,0,0,
0,0,0,0,0,0,0,0,0,0,0,0,0,0,0,0,
0,0,0,0,0,0,0,0,0,0,0,0,0,0,0,0,
0,0,0,0,0,0,0,0,0,0,0,0,0,0,0,0,
0,0,0,0,0,0,0,0,0,0,0,0,0,0,0,0,
0,0,0,0,0,0,0,0,0,0,0,0,0,0,0,0,
0,0,0,0,0,0,0,0,0,0,0,0,0,0,0,0,
0,0,0,0,0,0,0,0,0,0,0,0,0,0,0,0,
0,0,0,0,0,0,0,0,0,0,0,0,0,0,0,0
</data>
 </layer>
 <objectgroup id="7" name="Entities">
  <object id="1" name="GameSaver" type="GameSaver" x="112" y="96" width="16" height="16">
   <properties>
    <property name="__anchorX" type="int" value="112"/>
    <property name="__anchorY" type="int" value="96"/>
    <property name="__cx" type="int" value="7"/>
    <property name="__cy" type="int" value="6"/>
   </properties>
  </object>
 </objectgroup>
</map>
