<?xml version="1.0" encoding="UTF-8"?>
<map version="1.10" tiledversion="1.11.2" orientation="orthogonal" renderorder="right-down" compressionlevel="0" width="32" height="32" tilewidth="16" tileheight="16" infinite="0" backgroundcolor="#37494e" nextlayerid="5" nextobjectid="8">
 <tileset firstgid="1" name="SunnyLand_by_Ansimuz" tilewidth="16" tileheight="16" tilecount="483" columns="23" objectalignment="topleft">
  <image source="atlas/SunnyLand_by_Ansimuz-extended.png" width="368" height="336"/>
 </tileset>
 <tileset firstgid="484" name="Collisions" tilewidth="16" tileheight="16" tilecount="2" columns="2" objectalignment="topleft">
  <image source="Collisions.intgrid.png" width="32" height="16"/>
 </tileset>
 <layer id="1" name="Background" width="32" height="32">
  <data encoding="csv">
0,0,0,0,0,0,0,0,0,0,0,0,0,0,0,0,0,0,0,0,0,0,412,412,412,0,0,0,0,0,0,0,
0,0,0,0,0,0,0,0,0,0,0,0,0,0,0,0,0,0,0,0,0,0,412,412,412,0,0,0,0,0,0,0,
0,0,0,0,0,0,0,0,0,0,0,0,0,0,0,0,0,0,0,0,0,0,412,412,412,0,0,0,0,0,0,0,
0,0,0,0,0,0,0,0,0,0,0,0,0,0,0,0,0,0,0,0,0,0,412,412,412,0,0,0,0,0,0,0,
0,0,0,0,0,0,0,0,0,0,0,0,0,0,0,0,0,0,0,0,0,0,412,412,412,0,0,0,0,0,0,0,
0,0,0,0,0,0,0,0,0,0,0,0,0,0,0,0,0,0,0,0,0,0,412,412,412,0,0,0,0,0,0,0,
0,0,0,0,0,0,0,0,0,0,0,0,0,0,0,0,0,0,0,0,0,0,412,412,412,0,0,0,0,0,0,0,
0,0,0,0,0,0,0,0,0,0,0,0,0,0,0,0,0,0,0,0,0,0,412,412,412,0,0,0,0,0,0,0,
0,0,0,0,0,0,0,0,0,0,0,0,0,0,0,0,0,0,0,0,0,0,412,412,412,0,0,0,0,0,0,0,
0,0,0,0,0,0,0,0,0,0,0,0,0,0,0,0,0,0,0,0,0,0,412,412,412,0,0,0,0,0,0,0,
0,0,0,0,0,0,0,0,0,0,0,0,0,0,0,0,0,0,0,0,0,0,412,412,412,0,0,0,0,0,0,0,
0,0,0,0,0,0,0,0,0,0,0,0,0,0,0,0,0,0,0,0,0,0,412,412,412,0,0,0,0,0,0,0,
0,0,0,0,0,0,0,0,0,0,0,0,0,0,0,0,0,0,0,0,0,412,412,412,412,2147484060,0,0,0,0,0,0,
0,0,0,0,412,412,412,412,412,412,412,412,412,412,412,412,412,412,412,412,412,412,412,412,412,412,412,412,0,0,0,0,
0,0,0,0,412,412,412,412,412,412,412,412,412,412,412,412,412,412,412,412,412,412,412,412,412,412,412,412,0,0,0,0,
0,0,0,0,412,412,412,412,412,412,412,412,412,412,412,412,412,412,412,412,412,412,412,412,412,412,412,412,0,0,0,0,
0,0,0,0,412,412,412,412,412,412,412,412,412,412,412,412,412,412,412,412,412,412,412,412,412,412,412,412,0,0,0,0,
0,0,0,0,412,412,412,412,412,412,412,412,412,412,412,412,412,412,412,412,412,412,412,412,412,412,412,412,0,0,0,0,
0,0,0,0,412,412,412,412,412,412,412,412,412,412,412,412,412,412,412,412,412,412,412,412,412,412,412,412,0,0,0,0,
0,0,0,0,412,412,412,412,412,412,412,412,412,412,412,412,412,412,412,412,412,412,412,412,412,412,412,412,0,0,0,0,
0,0,0,0,412,412,412,412,412,412,412,412,412,412,412,412,412,412,412,412,412,412,412,412,412,412,412,412,0,0,0,0,
0,0,0,0,412,412,412,412,412,412,412,412,412,412,412,412,412,412,412,412,412,412,412,412,412,412,412,412,0,0,0,0,
0,0,0,0,412,412,412,412,412,412,412,412,412,412,412,412,412,412,412,412,412,412,412,412,412,412,412,412,0,0,0,0,
0,0,0,0,412,412,412,412,412,412,412,412,412,412,412,412,412,412,412,412,412,412,412,412,412,412,412,412,0,0,0,0,
0,0,0,0,412,412,412,412,412,412,412,412,412,412,412,412,412,412,412,412,412,412,412,412,412,412,412,412,0,0,0,0,
0,0,0,0,412,412,412,412,412,412,412,412,412,412,412,412,412,412,412,412,412,412,412,412,412,412,412,412,0,0,0,0,
0,0,0,0,0,0,0,1073742236,412,412,412,412,412,412,412,412,412,412,412,412,412,412,412,412,412,412,412,412,0,0,0,0,
0,0,0,0,0,0,0,0,412,412,412,412,412,412,412,412,412,412,412,412,412,412,412,412,412,412,412,412,0,0,0,0,
0,0,0,0,0,0,0,0,0,0,0,0,0,0,0,0,0,0,0,0,0,0,0,0,0,0,0,0,0,0,0,0,
0,0,0,0,0,0,0,0,0,0,0,0,0,0,0,0,0,0,0,0,0,0,0,0,0,0,0,0,0,0,0,0,
0,0,0,0,0,0,0,0,0,0,0,0,0,0,0,0,0,0,0,0,0,0,0,0,0,0,0,0,0,0,0,0,
0,0,0,0,0,0,0,0,0,0,0,0,0,0,0,0,0,0,0,0,0,0,0,0,0,0,0,0,0,0,0,0
</data>
 </layer>
 <layer id="3" name="Collisions" width="32" height="32">
  <data encoding="csv">
49,49,143,49,49,49,49,49,49,49,49,49,145,49,49,49,145,49,143,49,153,2147483847,274,274,274,199,7,49,49,49,143,49,
49,143,49,143,49,49,49,143,49,145,49,145,49,49,49,49,49,49,49,36,49,2147483847,274,274,274,199,49,153,49,49,49,49,
145,49,143,49,143,49,145,49,49,49,145,49,143,49,143,49,49,49,145,49,7,2147483847,274,274,274,199,36,49,49,49,49,49,
49,143,49,145,49,49,49,49,49,49,49,49,49,49,49,49,49,143,49,153,49,2147483847,274,274,274,199,49,7,49,49,49,49,
145,49,145,49,49,49,49,49,49,49,49,49,143,49,145,49,49,49,145,145,153,2147483847,274,274,274,199,153,49,49,49,143,49,
49,49,49,49,49,145,49,49,49,49,49,145,49,49,49,145,49,49,49,7,145,2147483847,274,274,274,199,49,153,49,49,49,49,
49,49,145,49,49,49,49,49,49,49,49,49,49,49,143,49,49,49,49,49,7,2147483847,274,274,274,199,36,49,145,49,49,49,
49,49,49,49,49,49,49,49,49,145,49,143,49,143,49,49,49,49,49,7,49,2147483847,274,274,274,199,143,153,49,145,49,145,
145,49,49,49,49,49,49,49,49,49,49,49,143,49,49,49,49,49,49,49,153,2147483847,274,274,274,199,36,49,49,49,143,49,
49,143,49,49,49,49,49,49,49,145,49,49,49,143,49,49,49,49,49,36,49,2147483847,274,274,274,199,49,153,49,49,49,49,
143,49,153,49,153,143,7,49,153,143,36,49,7,143,36,143,36,49,7,49,153,2147483847,274,274,274,199,7,49,153,49,36,49,
49,7,49,36,49,36,49,36,145,153,49,7,49,153,49,7,49,153,49,7,145,2147483847,274,274,274,199,49,7,49,7,145,49,
49,49,153,153,247,247,247,247,289,247,247,247,247,247,247,287,289,247,247,247,289,3221225625,274,274,274,289,247,247,2147483801,49,36,49,
49,153,49,2147483847,274,274,274,274,274,274,274,274,274,274,274,274,274,274,274,274,274,274,274,274,274,274,274,274,199,7,49,49,
143,49,153,2147483847,274,274,274,274,274,274,274,274,274,274,274,274,274,274,274,274,274,274,274,274,274,274,274,274,199,143,7,49,
49,36,49,2147483847,274,274,274,274,274,274,274,274,274,274,274,274,274,274,274,274,274,274,274,274,274,274,274,274,199,7,143,49,
49,49,7,2147483847,274,274,274,274,274,274,274,274,274,274,274,274,274,274,274,274,274,274,274,274,274,274,274,274,199,143,153,49,
49,153,49,2147483847,274,274,274,274,274,274,274,274,274,274,274,274,274,274,274,274,274,274,274,274,274,274,274,274,199,153,49,145,
49,49,7,2147483847,274,274,274,274,274,274,274,274,274,274,274,274,274,274,274,274,274,274,274,274,274,274,274,274,199,49,36,49,
49,153,143,2147483847,274,274,274,274,274,274,274,274,274,274,274,274,274,274,274,274,274,274,274,274,274,274,274,274,199,153,49,49,
143,49,153,2147483847,274,274,274,274,274,274,274,274,274,274,274,274,274,274,274,274,274,274,274,274,274,274,274,274,199,143,36,49,
49,36,49,2147483847,274,274,274,274,274,274,274,274,274,274,274,274,274,274,274,274,274,274,274,274,274,274,274,274,199,7,49,49,
143,49,153,2147483847,274,274,274,274,274,274,274,274,274,274,274,274,274,274,274,274,274,274,274,274,274,274,274,274,199,49,153,49,
49,153,49,2147483847,274,274,274,274,274,274,274,274,274,274,274,274,274,274,274,274,274,274,274,274,274,274,274,274,199,36,143,49,
145,145,7,2147483847,274,274,274,274,274,274,274,274,274,274,274,274,274,274,274,274,274,274,274,274,274,274,274,274,199,145,36,49,
49,153,143,2147483847,274,274,274,274,274,274,274,274,274,274,274,274,274,274,274,274,274,274,274,274,274,274,274,274,199,153,145,49,
49,143,7,1073741977,155,155,155,2147484086,274,274,274,274,274,274,274,274,274,274,274,274,274,274,274,274,274,274,274,274,199,49,7,49,
49,36,145,36,145,36,145,2147483847,274,274,274,274,274,274,274,274,274,274,274,274,274,274,274,274,274,274,274,274,199,7,49,145,
49,143,36,49,7,49,36,1073741977,155,155,155,155,155,155,155,155,155,155,155,155,155,155,155,155,155,155,155,155,3221225625,49,36,49,
49,49,49,49,49,7,49,36,143,153,49,7,145,7,143,36,49,36,143,36,49,7,49,36,145,36,145,7,49,153,49,49,
49,49,143,49,49,145,7,143,7,49,7,143,7,145,153,49,36,49,7,143,153,49,36,49,153,49,7,145,153,49,7,49,
49,145,49,49,49,49,49,145,49,145,49,143,49,49,49,49,49,49,49,49,49,143,49,145,49,145,49,49,49,49,49,49
</data>
 </layer>
 <objectgroup id="4" name="Entities">
  <object id="1" name="Item" type="Item" x="220" y="424" width="24" height="24">
   <properties>
    <property name="__anchorX" type="int" value="232"/>
    <property name="__anchorY" type="int" value="448"/>
    <property name="__cx" type="int" value="14"/>
    <property name="__cy" type="int" value="27"/>
    <property name="count" type="int" value="200"/>
    <property name="price" type="int" value="0"/>
    <property name="type" value="Gold"/>
   </properties>
  </object>
  <object id="2" name="Item" type="Item" x="188" y="424" width="24" height="24">
   <properties>
    <property name="__anchorX" type="int" value="200"/>
    <property name="__anchorY" type="int" value="448"/>
    <property name="__cx" type="int" value="12"/>
    <property name="__cy" type="int" value="27"/>
    <property name="count" type="int" value="50"/>
    <property name="price" type="int" value="0"/>
    <property name="type" value="Gold"/>
   </properties>
  </object>
  <object id="3" name="Item" type="Item" x="300" y="424" width="24" height="24">
   <properties>
    <property name="__anchorX" type="int" value="312"/>
    <property name="__anchorY" type="int" value="448"/>
    <property name="__cx" type="int" value="19"/>
    <property name="__cy" type="int" value="27"/>
    <property name="count" type="int" value="1"/>
    <property name="price" type="int" value="0"/>
    <property name="type" value="Green_gem"/>
   </properties>
  </object>
  <object id="4" name="Item" type="Item" x="108" y="392" width="24" height="24">
   <properties>
    <property name="__anchorX" type="int" value="120"/>
    <property name="__anchorY" type="int" value="416"/>
    <property name="__cx" type="int" value="7"/>
    <property name="__cy" type="int" value="25"/>
    <property name="count" type="int" value="1"/>
    <property name="price" type="int" value="0"/>
    <property name="type" value="Gem"/>
   </properties>
  </object>
  <object id="5" name="SecretArea" type="SecretArea" x="48" y="176" width="16" height="16">
   <properties>
    <property name="__anchorX" type="int" value="48"/>
    <property name="__anchorY" type="int" value="176"/>
    <property name="__cx" type="int" value="3"/>
    <property name="__cy" type="int" value="11"/>
    <property name="playSecretJingle" type="bool" value="true"/>
   </properties>
  </object>
  <object id="6" name="Item" type="Item" x="156" y="424" width="24" height="24">
   <properties>
    <property name="__anchorX" type="int" value="168"/>
    <property name="__anchorY" type="int" value="448"/>
    <property name="__cx" type="int" value="10"/>
    <property name="__cy" type="int" value="27"/>
    <property name="count" type="int" value="50"/>
    <property name="price" type="int" value="0"/>
    <property name="type" value="Gold"/>
   </properties>
  </object>
  <object id="7" name="Item" type="Item" x="380" y="424" width="24" height="24">
   <properties>
    <property name="__anchorX" type="int" value="392"/>
    <property name="__anchorY" type="int" value="448"/>
    <property name="__cx" type="int" value="24"/>
    <property name="__cy" type="int" value="27"/>
    <property name="count" type="int" value="50"/>
    <property name="price" type="int" value="0"/>
    <property name="type" value="Gold"/>
   </properties>
  </object>
 </objectgroup>
</map>
