<?xml version="1.0" encoding="UTF-8"?>
<map version="1.10" tiledversion="1.11.2" orientation="orthogonal" renderorder="right-down" compressionlevel="0" width="32" height="16" tilewidth="16" tileheight="16" infinite="0" backgroundcolor="#37494e" nextlayerid="8" nextobjectid="3">
 <tileset firstgid="1" name="SunnyLand_by_Ansimuz" tilewidth="16" tileheight="16" tilecount="483" columns="23" objectalignment="topleft">
  <image source="atlas/SunnyLand_by_Ansimuz-extended.png" width="368" height="336"/>
 </tileset>
 <tileset firstgid="484" name="Collisions" tilewidth="16" tileheight="16" tilecount="2" columns="2" objectalignment="topleft">
  <image source="Collisions.intgrid.png" width="32" height="16"/>
 </tileset>
 <layer id="1" name="Background_1" width="32" height="16">
  <data encoding="csv">
0,0,0,0,0,0,0,0,0,0,0,0,0,0,0,0,0,0,0,0,0,0,0,0,0,0,0,0,0,0,0,0,
0,0,0,0,0,0,0,0,0,0,0,0,0,0,0,0,0,0,0,0,0,0,0,0,0,0,0,0,0,0,0,0,
0,0,0,0,0,0,0,0,0,0,0,0,0,0,0,0,0,0,0,0,0,0,0,0,0,0,0,0,0,0,0,0,
0,0,0,0,0,0,0,0,0,0,0,0,0,0,0,0,0,0,0,0,0,0,0,0,0,0,0,0,0,0,0,0,
0,0,0,0,0,0,0,0,0,0,0,0,0,0,0,0,0,0,0,0,0,0,0,0,0,0,0,0,0,0,0,0,
0,0,0,0,0,1073742297,412,412,412,412,308,412,412,412,412,1073742226,412,412,412,412,1073742226,412,308,412,1073742225,1073742226,1073742227,412,363,0,0,0,
0,0,0,0,0,2147484011,412,412,412,412,412,412,412,412,412,412,412,363,412,412,412,412,412,412,412,412,412,412,363,0,0,0,
0,0,0,0,412,2147484011,412,412,412,412,412,412,412,412,412,412,412,412,412,412,412,412,412,412,412,412,412,412,363,0,0,0,
0,2147484011,412,412,412,412,412,412,412,412,412,412,412,412,412,412,412,412,363,412,412,412,412,412,363,412,412,412,363,0,0,0,
0,2147484011,412,412,412,412,412,412,412,412,412,412,412,412,412,412,412,412,412,412,412,412,412,412,412,412,412,412,363,0,0,0,
0,473,412,412,412,363,412,412,412,412,412,412,412,412,412,412,412,412,412,412,412,412,412,412,412,412,412,412,363,0,0,0,
0,0,0,0,1073742236,2147484011,412,412,412,412,412,412,412,412,412,412,412,412,412,412,412,412,412,412,412,412,412,412,363,0,0,0,
0,0,0,0,0,473,412,412,412,412,412,412,412,412,412,412,412,412,412,412,402,412,412,412,412,412,412,412,363,0,0,0,
0,0,0,0,0,0,0,0,0,0,0,0,0,0,0,0,0,0,0,0,0,0,0,0,0,0,412,363,2147484060,0,0,0,
0,0,0,0,0,0,0,0,0,0,0,0,0,0,0,0,0,0,0,0,0,0,0,0,0,0,2147484011,412,363,0,0,0,
0,0,0,0,0,0,0,0,0,0,0,0,0,0,0,0,0,0,0,0,0,0,0,0,0,0,2147484011,412,363,0,0,0
</data>
 </layer>
 <layer id="2" name="Background_2" width="32" height="16">
  <data encoding="csv">
0,0,0,0,0,0,0,0,0,0,0,0,0,0,0,0,0,0,0,0,0,0,0,0,0,0,0,0,0,0,0,0,
0,0,0,0,0,0,0,0,0,0,0,0,0,0,0,0,0,0,0,0,0,0,0,0,0,0,0,0,0,0,0,0,
0,0,0,0,0,0,0,0,0,0,0,0,0,0,0,0,0,0,0,0,0,0,0,0,0,0,0,0,0,0,0,0,
0,0,0,0,0,0,0,0,0,0,0,0,0,0,0,0,0,0,0,0,0,0,0,0,0,0,0,0,0,0,0,0,
0,0,0,0,0,0,0,0,0,0,0,0,0,0,0,0,0,0,0,0,0,0,0,0,0,0,0,0,0,0,0,0,
0,0,0,0,0,0,1073742298,1073742299,0,0,0,0,0,0,1073742225,0,1073742227,0,0,1073742225,0,1073742227,0,0,306,0,308,362,0,0,0,0,
0,0,0,0,0,1073742274,2147484010,1073742276,0,0,331,0,0,0,1073742202,1073742203,362,0,364,1073742202,1073742203,1073742204,331,0,1073742202,1073742203,1073742204,362,0,0,0,0,
0,0,0,0,0,0,2147484010,0,0,0,0,0,0,0,1073742179,1073742180,1073742181,0,0,1073742179,1073742180,1073742181,0,0,1073742179,1073742180,1073742181,362,0,0,0,0,
0,0,2147484010,0,0,0,0,0,0,0,0,0,0,0,0,0,0,362,0,364,0,0,0,362,0,364,0,362,0,0,0,0,
0,450,2147484010,452,0,0,0,0,0,0,0,0,0,0,0,0,0,0,0,0,0,0,0,0,0,0,0,362,0,0,0,0,
0,0,474,475,362,0,364,0,0,0,0,0,0,0,0,0,0,0,0,355,356,357,0,0,0,0,0,362,0,0,0,0,
0,0,0,0,0,450,2147484010,452,0,0,0,0,0,0,0,0,0,0,0,378,379,380,0,0,0,0,0,362,0,0,0,0,
0,0,0,0,0,0,474,475,0,0,0,0,0,0,0,0,0,0,0,401,0,403,0,0,0,0,0,362,0,0,0,0,
0,0,0,0,0,0,0,0,0,0,0,0,0,0,0,0,0,0,0,0,0,0,0,0,0,0,362,0,0,0,0,0,
0,0,0,0,0,0,0,0,0,0,0,0,0,0,0,0,0,0,0,0,0,0,0,0,0,0,0,2147484010,0,0,0,0,
0,0,0,0,0,0,0,0,0,0,0,0,0,0,0,0,0,0,0,0,0,0,0,0,0,0,0,2147484010,0,0,0,0
</data>
 </layer>
 <layer id="3" name="Background_3" width="32" height="16">
  <data encoding="csv">
0,0,0,0,0,0,0,0,0,0,0,0,0,0,0,0,0,0,0,0,0,0,0,0,0,0,0,0,0,0,0,0,
0,0,0,0,0,0,0,0,0,0,0,0,0,0,0,0,0,0,0,0,0,0,0,0,0,0,0,0,0,0,0,0,
0,0,0,0,0,0,0,0,0,0,0,0,0,0,0,0,0,0,0,0,0,0,0,0,0,0,0,0,0,0,0,0,
0,0,0,0,0,0,0,0,0,0,0,0,0,0,0,0,0,0,0,0,0,0,0,0,0,0,0,0,0,0,0,0,
0,0,0,0,0,0,0,0,0,0,0,0,0,0,0,0,0,0,0,0,0,0,0,0,0,0,0,0,0,0,0,0,
0,0,0,0,0,0,0,0,0,0,0,0,0,0,0,0,0,0,0,0,0,0,0,0,0,0,0,0,0,0,0,0,
0,0,0,0,0,0,1073742275,0,0,0,0,0,0,0,0,0,1073742204,0,0,0,0,0,0,0,0,0,331,0,0,0,0,0,
0,0,0,0,0,0,0,0,0,0,0,0,0,0,0,0,0,0,0,0,0,0,0,0,0,0,0,0,0,0,0,0,
0,0,0,0,0,0,0,0,0,0,0,0,0,0,0,0,0,0,0,0,0,0,0,0,0,0,0,0,0,0,0,0,
0,0,451,0,0,0,0,0,0,0,0,0,0,0,0,0,0,0,0,0,0,0,0,0,0,0,0,0,0,0,0,0,
0,0,0,0,0,0,0,0,0,0,0,0,0,0,0,0,0,0,0,0,0,0,0,0,0,0,0,0,0,0,0,0,
0,0,0,0,0,0,451,0,0,0,0,0,0,0,0,0,0,0,0,0,0,0,0,0,0,0,0,0,0,0,0,0,
0,0,0,0,0,0,0,0,0,0,0,0,0,0,0,0,0,0,0,0,0,0,0,0,0,0,0,0,0,0,0,0,
0,0,0,0,0,0,0,0,0,0,0,0,0,0,0,0,0,0,0,0,0,0,0,0,0,0,0,0,0,0,0,0,
0,0,0,0,0,0,0,0,0,0,0,0,0,0,0,0,0,0,0,0,0,0,0,0,0,0,0,362,0,0,0,0,
0,0,0,0,0,0,0,0,0,0,0,0,0,0,0,0,0,0,0,0,0,0,0,0,0,0,0,362,0,0,0,0
</data>
 </layer>
 <layer id="5" name="Collisions_1" width="32" height="16">
  <data encoding="csv">
143,49,49,49,143,49,49,49,49,49,143,49,49,49,49,49,49,49,49,49,145,49,145,49,49,49,49,49,49,49,143,49,
49,49,49,49,49,49,49,145,49,49,49,49,49,49,49,49,49,145,49,143,49,143,49,49,49,49,49,49,49,49,49,145,
143,49,153,49,153,49,7,49,153,145,153,49,36,49,7,49,153,145,153,49,7,49,36,49,7,143,36,49,153,49,153,145,
49,49,49,7,49,36,49,36,49,153,49,7,49,7,145,7,49,153,145,153,49,7,49,7,49,153,49,7,49,7,49,7,
49,49,153,49,153,247,247,247,287,247,247,247,247,247,289,247,247,247,247,247,289,247,287,247,289,289,247,247,289,2147483801,153,49,
143,36,49,153,2147483847,0,0,0,0,0,0,0,0,0,0,0,0,0,0,0,0,0,0,0,0,0,0,0,0,199,145,153,
153,143,153,49,2147483847,0,0,0,0,0,0,0,0,0,0,0,0,0,0,0,0,0,0,0,0,0,0,0,0,199,7,143,
153,247,287,247,212,0,0,0,0,0,0,0,0,0,0,0,0,0,0,0,0,0,0,0,0,0,0,0,0,199,49,153,
2147483847,0,0,0,0,0,0,0,0,0,0,0,0,0,0,0,0,0,0,0,0,0,0,0,0,0,0,0,0,199,153,143,
2147483847,0,0,0,0,0,0,0,0,0,0,0,0,0,0,0,0,0,0,0,0,0,0,0,0,0,0,0,0,199,49,153,
2147483847,163,165,163,163,0,0,0,0,0,0,0,0,0,0,0,0,0,0,0,0,0,0,0,0,0,0,0,0,199,7,49,
1073741977,3,3,3,3,0,0,0,0,0,0,0,0,0,0,0,0,0,0,0,0,0,0,0,0,0,0,0,0,199,49,7,
7,49,7,49,2147483847,165,165,165,163,163,165,164,164,165,164,165,164,165,165,165,164,163,163,163,164,163,164,0,164,199,7,143,
145,153,49,7,1073741977,155,155,3,155,155,155,3,3,3,3,3,3,3,3,3,3,155,155,155,155,153,212,0,2147483860,2147483801,49,153,
49,49,7,49,36,49,36,145,7,143,36,145,7,49,36,49,153,49,7,145,7,49,7,145,36,2147483847,0,0,0,199,7,49,
49,145,49,7,49,36,49,153,145,153,145,7,143,7,143,7,49,7,49,153,143,36,145,7,143,2147483847,0,0,0,199,145,36
</data>
 </layer>
 <layer id="6" name="Collisions_2" width="32" height="16">
  <data encoding="csv">
0,0,0,0,0,0,0,0,0,0,0,0,0,0,0,0,0,0,0,0,0,0,0,0,0,0,0,0,0,0,0,0,
0,0,0,0,0,0,0,0,0,0,0,0,0,0,0,0,0,0,0,0,0,0,0,0,0,0,0,0,0,0,0,0,
0,0,0,0,0,0,0,0,0,0,0,0,0,0,0,0,0,0,0,0,0,0,0,0,0,0,0,0,0,0,0,0,
0,0,0,0,0,0,0,0,0,0,0,0,0,0,0,0,0,0,0,0,0,0,0,0,0,0,0,0,0,0,0,0,
0,0,0,0,0,0,0,0,0,0,0,0,0,0,0,0,0,0,0,0,0,0,0,0,0,0,0,0,0,0,0,0,
0,0,0,0,0,0,0,0,0,0,0,0,0,0,0,0,0,0,0,0,0,0,0,0,0,0,0,0,0,0,0,0,
0,0,0,0,0,0,0,0,0,0,0,0,0,0,0,0,0,0,0,0,0,0,0,0,0,0,0,0,0,0,0,0,
0,0,0,0,0,0,0,0,0,0,0,0,0,0,0,0,0,0,0,0,0,0,0,0,0,0,0,0,0,0,0,0,
0,0,0,0,0,0,0,0,0,0,0,0,0,0,0,0,0,0,0,0,0,0,0,0,0,0,0,0,0,0,0,0,
0,0,0,0,0,0,0,0,0,0,0,0,0,0,0,0,0,0,0,0,0,0,0,0,0,0,0,0,0,0,0,0,
0,139,141,141,0,0,0,0,0,0,0,0,0,0,0,0,0,0,0,0,0,0,0,0,0,0,0,0,0,0,0,0,
0,0,0,0,0,0,0,0,0,0,0,0,0,0,0,0,0,0,0,0,0,0,0,0,0,0,0,0,0,0,0,0,
0,0,0,0,0,0,139,0,141,0,141,0,0,139,139,0,141,141,0,139,0,0,139,0,139,141,0,0,0,0,0,0,
0,0,0,0,0,0,0,0,0,0,0,0,0,0,0,0,0,0,0,0,0,0,0,0,0,0,0,0,0,0,0,0,
0,0,0,0,0,0,0,0,0,0,0,0,0,0,0,0,0,0,0,0,0,0,0,0,0,0,0,0,0,0,0,0,
0,0,0,0,0,0,0,0,0,0,0,0,0,0,0,0,0,0,0,0,0,0,0,0,0,0,0,0,0,0,0,0
</data>
 </layer>
 <objectgroup id="7" name="Entities">
  <object id="1" name="Exit" type="Exit" x="16" y="128" width="16" height="16">
   <properties>
    <property name="__anchorX" type="int" value="16"/>
    <property name="__anchorY" type="int" value="128"/>
    <property name="__cx" type="int" value="1"/>
    <property name="__cy" type="int" value="8"/>
   </properties>
  </object>
  <object id="2" name="Ladder" type="Ladder" x="432" y="208" width="16" height="16">
   <properties>
    <property name="__anchorX" type="int" value="432"/>
    <property name="__anchorY" type="int" value="208"/>
    <property name="__cx" type="int" value="27"/>
    <property name="__cy" type="int" value="13"/>
   </properties>
  </object>
 </objectgroup>
</map>
