<?xml version="1.0" encoding="UTF-8"?>
<map version="1.10" tiledversion="1.11.2" orientation="orthogonal" renderorder="right-down" compressionlevel="0" width="16" height="32" tilewidth="16" tileheight="16" infinite="0" backgroundcolor="#37494e" nextlayerid="7" nextobjectid="3">
 <tileset firstgid="1" name="SunnyLand_by_Ansimuz" tilewidth="16" tileheight="16" tilecount="483" columns="23" objectalignment="topleft">
  <image source="atlas/SunnyLand_by_Ansimuz-extended.png" width="368" height="336"/>
 </tileset>
 <tileset firstgid="484" name="Collisions" tilewidth="16" tileheight="16" tilecount="2" columns="2" objectalignment="topleft">
  <image source="Collisions.intgrid.png" width="32" height="16"/>
 </tileset>
 <layer id="1" name="Background_1" width="16" height="32">
  <data encoding="csv">
0,0,0,0,0,0,0,0,0,0,0,0,0,0,0,0,
0,0,0,0,0,0,0,0,0,0,0,0,0,0,0,0,
0,0,0,0,0,0,0,0,0,0,0,0,0,0,0,0,
0,0,0,0,0,0,0,0,0,0,0,0,0,0,0,0,
0,0,0,0,0,0,0,0,0,0,0,0,0,0,0,0,
0,0,0,0,0,0,0,0,0,0,0,0,0,0,0,0,
0,0,0,0,0,0,0,0,0,0,0,0,0,0,0,0,
0,0,0,0,0,0,0,0,0,0,0,0,0,0,0,0,
0,0,0,0,0,0,0,0,0,0,0,0,0,0,0,0,
0,0,0,0,0,0,0,0,0,0,0,0,0,0,0,0,
0,0,0,0,0,0,0,0,0,0,0,0,0,0,0,0,
0,0,0,0,0,0,0,0,0,0,0,0,0,0,0,0,
0,0,0,0,0,0,0,0,0,0,0,0,0,0,0,0,
0,0,0,0,412,2147484011,412,412,412,363,2147484060,0,0,0,0,0,
0,0,0,0,2147484011,412,412,412,412,412,331,0,0,0,0,0,
0,0,0,0,2147484011,412,412,412,412,412,363,0,0,0,0,0,
0,0,0,0,2147484011,412,363,1073742236,2147484011,412,363,0,0,0,0,0,
0,0,0,412,412,412,412,412,412,412,412,2147484060,0,0,0,0,
0,0,412,412,412,412,412,412,412,412,412,412,2147484060,0,0,0,
412,412,412,412,412,412,412,412,412,412,412,412,412,412,412,412,
0,0,1073742236,412,412,412,412,412,412,412,412,412,412,412,412,412,
0,0,0,0,0,1073742236,412,412,412,412,412,412,412,3221225884,0,0,
0,0,0,0,0,0,0,0,0,1073742236,412,412,3221225884,0,0,0,
0,0,0,0,0,0,0,0,0,0,0,0,0,0,0,0,
0,0,0,0,0,0,0,0,0,0,0,0,0,0,0,0,
0,0,0,0,0,0,0,0,0,0,0,0,0,0,0,0,
0,0,0,0,0,0,0,0,0,0,0,0,0,0,0,0,
0,0,0,0,0,0,0,0,0,0,0,0,0,0,0,0,
0,0,0,0,0,0,0,0,0,0,0,0,0,0,0,0,
0,0,0,0,0,0,0,0,0,0,0,0,0,0,0,0,
0,0,0,0,0,0,0,0,0,0,0,0,0,0,0,0,
0,0,0,0,0,0,0,0,0,0,0,0,0,0,0,0
</data>
 </layer>
 <layer id="2" name="Background_2" width="16" height="32">
  <data encoding="csv">
0,0,0,0,0,0,0,0,0,0,0,0,0,0,0,0,
0,0,0,0,0,0,0,0,0,0,0,0,0,0,0,0,
0,0,0,0,0,0,0,0,0,0,0,0,0,0,0,0,
0,0,0,0,0,0,0,0,0,0,0,0,0,0,0,0,
0,0,0,0,0,0,0,0,0,0,0,0,0,0,0,0,
0,0,0,0,0,0,0,0,0,0,0,0,0,0,0,0,
0,0,0,0,0,0,0,0,0,0,0,0,0,0,0,0,
0,0,0,0,0,0,0,0,0,0,0,0,0,0,0,0,
0,0,0,0,0,0,0,0,0,0,0,0,0,0,0,0,
0,0,0,0,0,0,0,0,0,0,0,0,0,0,0,0,
0,0,0,0,0,0,0,0,0,0,0,0,0,0,0,0,
0,0,0,0,0,0,0,0,0,0,0,0,0,0,0,0,
0,0,0,0,0,0,0,0,0,0,0,0,0,0,0,0,
0,0,0,0,0,0,2147484010,0,362,0,0,0,0,0,0,0,
0,0,0,0,0,2147484010,0,0,0,0,0,0,0,0,0,0,
0,0,0,0,0,2147484010,0,0,0,362,0,0,0,0,0,0,
0,0,0,0,0,2147484010,0,0,0,2147484010,0,0,0,0,0,0,
0,0,0,0,0,0,0,0,0,0,0,0,0,0,0,0,
0,0,0,0,0,0,0,0,0,0,0,0,0,0,0,0,
0,0,0,0,0,0,0,0,0,0,0,0,0,0,0,0,
0,0,0,0,0,0,0,0,0,0,0,0,0,0,0,0,
0,0,0,0,0,0,0,0,0,0,0,0,0,0,0,0,
0,0,0,0,0,0,0,0,0,0,0,0,0,0,0,0,
0,0,0,0,0,0,0,0,0,0,0,0,0,0,0,0,
0,0,0,0,0,0,0,0,0,0,0,0,0,0,0,0,
0,0,0,0,0,0,0,0,0,0,0,0,0,0,0,0,
0,0,0,0,0,0,0,0,0,0,0,0,0,0,0,0,
0,0,0,0,0,0,0,0,0,0,0,0,0,0,0,0,
0,0,0,0,0,0,0,0,0,0,0,0,0,0,0,0,
0,0,0,0,0,0,0,0,0,0,0,0,0,0,0,0,
0,0,0,0,0,0,0,0,0,0,0,0,0,0,0,0,
0,0,0,0,0,0,0,0,0,0,0,0,0,0,0,0
</data>
 </layer>
 <layer id="3" name="Background_3" width="16" height="32">
  <data encoding="csv">
0,0,0,0,0,0,0,0,0,0,0,0,0,0,0,0,
0,0,0,0,0,0,0,0,0,0,0,0,0,0,0,0,
0,0,0,0,0,0,0,0,0,0,0,0,0,0,0,0,
0,0,0,0,0,0,0,0,0,0,0,0,0,0,0,0,
0,0,0,0,0,0,0,0,0,0,0,0,0,0,0,0,
0,0,0,0,0,0,0,0,0,0,0,0,0,0,0,0,
0,0,0,0,0,0,0,0,0,0,0,0,0,0,0,0,
0,0,0,0,0,0,0,0,0,0,0,0,0,0,0,0,
0,0,0,0,0,0,0,0,0,0,0,0,0,0,0,0,
0,0,0,0,0,0,0,0,0,0,0,0,0,0,0,0,
0,0,0,0,0,0,0,0,0,0,0,0,0,0,0,0,
0,0,0,0,0,0,0,0,0,0,0,0,0,0,0,0,
0,0,0,0,0,0,0,0,0,0,0,0,0,0,0,0,
0,0,0,0,0,0,0,0,0,0,0,0,0,0,0,0,
0,0,0,0,0,0,0,0,0,0,0,0,0,0,0,0,
0,0,0,0,0,0,0,0,0,0,0,0,0,0,0,0,
0,0,0,0,0,362,0,0,0,362,0,0,0,0,0,0,
0,0,0,0,0,0,0,0,0,0,0,0,0,0,0,0,
0,0,0,0,0,0,0,0,0,0,0,0,0,0,0,0,
0,0,0,0,0,0,0,0,0,0,0,0,0,0,0,0,
0,0,0,0,0,0,0,0,0,0,0,0,0,0,0,0,
0,0,0,0,0,0,0,0,0,0,0,0,0,0,0,0,
0,0,0,0,0,0,0,0,0,0,0,0,0,0,0,0,
0,0,0,0,0,0,0,0,0,0,0,0,0,0,0,0,
0,0,0,0,0,0,0,0,0,0,0,0,0,0,0,0,
0,0,0,0,0,0,0,0,0,0,0,0,0,0,0,0,
0,0,0,0,0,0,0,0,0,0,0,0,0,0,0,0,
0,0,0,0,0,0,0,0,0,0,0,0,0,0,0,0,
0,0,0,0,0,0,0,0,0,0,0,0,0,0,0,0,
0,0,0,0,0,0,0,0,0,0,0,0,0,0,0,0,
0,0,0,0,0,0,0,0,0,0,0,0,0,0,0,0,
0,0,0,0,0,0,0,0,0,0,0,0,0,0,0,0
</data>
 </layer>
 <layer id="5" name="Collisions" width="16" height="32">
  <data encoding="csv">
143,49,145,49,145,49,49,49,145,49,145,49,49,49,49,49,
49,49,49,49,49,145,49,145,49,49,49,49,49,49,49,143,
145,49,145,49,49,49,49,49,145,49,49,49,49,49,49,49,
49,145,49,49,49,143,49,145,49,49,49,49,49,49,49,145,
49,49,49,49,49,49,143,49,145,49,49,49,49,49,49,49,
49,49,49,49,49,143,49,145,49,145,49,143,49,49,49,143,
145,49,49,49,49,49,143,49,49,49,49,49,145,49,49,49,
49,49,49,49,49,143,49,49,49,143,49,49,49,49,49,49,
49,49,145,49,145,49,49,49,49,49,145,49,49,49,49,49,
49,49,49,143,49,143,49,49,49,49,49,49,49,49,49,49,
145,49,153,143,7,49,7,49,36,145,36,49,153,49,49,49,
49,36,49,36,49,7,49,7,49,7,49,36,49,7,49,145,
49,145,7,49,153,287,247,247,289,247,2147483801,49,36,49,145,49,
49,7,145,153,212,0,0,0,0,0,2147483860,2147483801,143,36,49,145,
49,143,153,2147483847,0,0,0,0,0,0,0,199,153,49,49,49,
145,7,49,2147483847,0,0,0,165,0,0,0,199,49,7,49,145,
36,143,153,2147483847,0,0,0,3,0,0,0,199,7,143,7,49,
49,36,153,289,251,251,251,1073741977,251,251,251,1073741977,2147483801,36,145,36,
247,289,3221225625,274,274,274,274,274,274,274,274,274,1073741977,247,289,289,
274,274,274,274,274,274,274,274,274,274,274,274,274,274,274,274,
155,155,2147484086,274,274,274,274,274,274,274,274,274,274,274,274,274,
49,153,1073741977,155,155,2147484086,274,274,274,274,274,274,274,438,155,155,
36,49,36,49,153,1073741977,155,155,155,2147484086,274,274,438,3221225625,36,49,
49,36,143,36,145,7,145,153,49,1073741977,155,155,3221225625,36,49,7,
49,49,49,143,36,49,36,49,36,49,36,143,36,145,7,49,
49,49,49,49,49,143,49,153,49,153,143,36,49,153,49,145,
49,49,145,49,49,49,49,49,49,49,49,49,49,49,145,49,
49,143,49,49,49,143,49,49,49,49,49,49,49,49,49,49,
49,49,49,49,145,49,145,49,49,49,49,49,49,49,49,49,
49,49,49,49,49,145,49,143,49,49,49,49,49,49,49,145,
145,49,49,49,49,49,145,49,49,49,143,49,49,49,49,49,
49,49,49,49,49,49,49,145,49,49,49,49,49,49,49,49
</data>
 </layer>
 <objectgroup id="6" name="Entities">
  <object id="1" name="SecretArea" type="SecretArea" x="32" y="176" width="16" height="16">
   <properties>
    <property name="__anchorX" type="int" value="32"/>
    <property name="__anchorY" type="int" value="176"/>
    <property name="__cx" type="int" value="2"/>
    <property name="__cy" type="int" value="11"/>
    <property name="playSecretJingle" type="bool" value="true"/>
   </properties>
  </object>
  <object id="2" name="Item" type="Item" x="108" y="232" width="24" height="24">
   <properties>
    <property name="__anchorX" type="int" value="120"/>
    <property name="__anchorY" type="int" value="256"/>
    <property name="__cx" type="int" value="7"/>
    <property name="__cy" type="int" value="15"/>
    <property name="count" type="int" value="1"/>
    <property name="price" type="int" value="0"/>
    <property name="type" value="Vorpal_blade"/>
   </properties>
  </object>
 </objectgroup>
</map>
