<?xml version="1.0" encoding="UTF-8"?>
<map version="1.10" tiledversion="1.11.2" orientation="orthogonal" renderorder="right-down" compressionlevel="0" width="16" height="16" tilewidth="16" tileheight="16" infinite="0" backgroundcolor="#37494e" nextlayerid="12" nextobjectid="3">
 <tileset firstgid="1" name="SunnyLand_by_Ansimuz" tilewidth="16" tileheight="16" tilecount="483" columns="23" objectalignment="topleft">
  <image source="atlas/SunnyLand_by_Ansimuz-extended.png" width="368" height="336"/>
 </tileset>
 <tileset firstgid="484" name="Collisions" tilewidth="16" tileheight="16" tilecount="2" columns="2" objectalignment="topleft">
  <image source="Collisions.intgrid.png" width="32" height="16"/>
 </tileset>
 <layer id="1" name="Background_1" width="16" height="16">
  <data encoding="csv">
0,0,0,0,0,0,0,0,0,0,0,0,0,0,0,0,
0,0,0,0,0,0,0,0,0,0,0,0,0,0,0,0,
0,0,0,0,0,0,0,0,0,0,0,0,0,0,0,0,
0,0,0,0,1073742225,1073742226,1073742227,412,412,412,412,3221225945,0,0,0,0,
0,0,0,0,2147484011,412,412,412,412,412,412,363,0,0,0,0,
0,0,0,0,1073742179,412,412,412,412,412,412,363,2147484060,0,0,0,
0,0,0,0,0,0,0,0,1073742236,2147484011,412,412,412,412,412,412,
0,0,1073742297,412,1073742225,1073742226,1073742227,0,0,2147484011,412,412,412,412,412,412,
0,412,2147484011,412,412,412,363,0,0,401,402,412,412,412,412,412,
412,412,412,412,412,412,363,0,0,0,0,0,0,0,0,0,
412,412,412,412,412,412,363,2147484060,0,0,0,0,0,0,0,0,
412,412,412,412,412,412,412,412,331,412,356,357,0,0,0,0,
0,0,0,1073742236,2147484011,412,412,412,412,363,412,363,0,0,0,0,
0,0,0,0,2147484011,412,412,412,412,412,402,403,0,0,0,0,
0,0,0,0,0,0,0,0,0,0,0,0,0,0,0,0,
0,0,0,0,0,0,0,0,0,0,0,0,0,0,0,0
</data>
 </layer>
 <layer id="2" name="Background_2" width="16" height="16">
  <data encoding="csv">
0,0,0,0,0,0,0,0,0,0,0,0,0,0,0,0,
0,0,0,0,0,0,0,0,0,0,0,0,0,0,0,0,
0,0,0,0,0,0,0,0,0,0,0,0,0,0,0,0,
0,0,0,0,1073742297,1073742298,1073742299,0,0,3221225947,3221225946,0,0,0,0,0,
0,0,0,0,1073742202,2147484010,1073742204,0,0,3221225924,362,3221225922,0,0,0,0,
0,0,0,0,473,1073742180,1073742181,0,0,0,362,0,0,0,0,0,
0,0,0,0,0,0,0,0,0,355,2147484010,357,0,0,0,0,
0,0,0,1073742298,1073742299,3221225946,3221225945,0,0,378,2147484010,380,0,0,0,0,
0,0,1073742274,2147484010,1073742202,362,1073742204,0,0,473,474,403,0,0,0,0,
0,0,0,0,1073742179,362,1073742181,0,0,0,0,0,0,0,0,0,
0,0,0,0,0,362,0,0,0,0,0,0,0,0,0,0,
0,0,0,0,0,0,0,0,0,355,3221225946,3221225945,0,0,0,0,
0,0,0,0,0,2147484010,0,0,362,378,362,380,0,0,0,0,
0,0,0,0,0,2147484010,0,0,0,401,2147484122,2147484121,0,0,0,0,
0,0,0,0,0,0,0,0,0,0,0,0,0,0,0,0,
0,0,0,0,0,0,0,0,0,0,0,0,0,0,0,0
</data>
 </layer>
 <layer id="3" name="Background_3" width="16" height="16">
  <data encoding="csv">
0,0,0,0,0,0,0,0,0,0,0,0,0,0,0,0,
0,0,0,0,0,0,0,0,0,0,0,0,0,0,0,0,
0,0,0,0,0,0,0,0,0,0,0,0,0,0,0,0,
0,0,0,0,0,0,331,0,0,0,0,0,0,0,0,0,
0,0,0,0,1073742274,1073742203,1073742276,0,0,0,3221225923,0,0,0,0,0,
0,0,0,0,0,474,475,0,0,0,0,0,0,0,0,0,
0,0,0,0,0,0,0,0,0,0,356,0,0,0,0,0,
0,0,0,0,3221225947,0,0,0,0,450,379,452,0,0,0,0,
0,0,0,1073742275,1073742276,1073742203,3221225922,0,0,0,0,475,0,0,0,0,
0,0,0,0,0,1073742180,0,0,0,0,0,0,0,0,0,0,
0,0,0,0,0,0,0,0,0,0,0,0,0,0,0,0,
0,0,0,0,0,0,0,0,0,3221225947,308,0,0,0,0,0,
0,0,0,0,0,0,0,0,0,3221225924,364,3221225922,0,0,0,0,
0,0,0,0,0,0,0,0,0,2147484123,0,0,0,0,0,0,
0,0,0,0,0,0,0,0,0,0,0,0,0,0,0,0,
0,0,0,0,0,0,0,0,0,0,0,0,0,0,0,0
</data>
 </layer>
 <layer id="4" name="Background_4" width="16" height="16">
  <data encoding="csv">
0,0,0,0,0,0,0,0,0,0,0,0,0,0,0,0,
0,0,0,0,0,0,0,0,0,0,0,0,0,0,0,0,
0,0,0,0,0,0,0,0,0,0,0,0,0,0,0,0,
0,0,0,0,0,0,0,0,0,0,0,0,0,0,0,0,
0,0,0,0,450,1073742275,452,0,0,0,0,0,0,0,0,0,
0,0,0,0,0,0,0,0,0,0,0,0,0,0,0,0,
0,0,0,0,0,0,0,0,0,0,0,0,0,0,0,0,
0,0,0,0,308,0,0,0,0,0,451,0,0,0,0,0,
0,0,0,0,3221225924,3221225923,0,0,0,0,0,0,0,0,0,0,
0,0,0,0,0,0,0,0,0,0,0,0,0,0,0,0,
0,0,0,0,0,0,0,0,0,0,0,0,0,0,0,0,
0,0,0,0,0,0,0,0,0,0,0,0,0,0,0,0,
0,0,0,0,0,0,0,0,0,2147484100,379,2147484098,0,0,0,0,
0,0,0,0,0,0,0,0,0,0,0,0,0,0,0,0,
0,0,0,0,0,0,0,0,0,0,0,0,0,0,0,0,
0,0,0,0,0,0,0,0,0,0,0,0,0,0,0,0
</data>
 </layer>
 <layer id="5" name="Background_5" width="16" height="16">
  <data encoding="csv">
0,0,0,0,0,0,0,0,0,0,0,0,0,0,0,0,
0,0,0,0,0,0,0,0,0,0,0,0,0,0,0,0,
0,0,0,0,0,0,0,0,0,0,0,0,0,0,0,0,
0,0,0,0,0,0,0,0,0,0,0,0,0,0,0,0,
0,0,0,0,0,451,0,0,0,0,0,0,0,0,0,0,
0,0,0,0,0,0,0,0,0,0,0,0,0,0,0,0,
0,0,0,0,0,0,0,0,0,0,0,0,0,0,0,0,
0,0,0,0,0,0,0,0,0,0,0,0,0,0,0,0,
0,0,0,0,331,0,0,0,0,0,0,0,0,0,0,0,
0,0,0,0,0,0,0,0,0,0,0,0,0,0,0,0,
0,0,0,0,0,0,0,0,0,0,0,0,0,0,0,0,
0,0,0,0,0,0,0,0,0,0,0,0,0,0,0,0,
0,0,0,0,0,0,0,0,0,0,3221225923,0,0,0,0,0,
0,0,0,0,0,0,0,0,0,0,0,0,0,0,0,0,
0,0,0,0,0,0,0,0,0,0,0,0,0,0,0,0,
0,0,0,0,0,0,0,0,0,0,0,0,0,0,0,0
</data>
 </layer>
 <layer id="6" name="Background_6" width="16" height="16">
  <data encoding="csv">
0,0,0,0,0,0,0,0,0,0,0,0,0,0,0,0,
0,0,0,0,0,0,0,0,0,0,0,0,0,0,0,0,
0,0,0,0,0,0,0,0,0,0,0,0,0,0,0,0,
0,0,0,0,0,0,0,0,0,0,0,0,0,0,0,0,
0,0,0,0,0,0,0,0,0,0,0,0,0,0,0,0,
0,0,0,0,0,0,0,0,0,0,0,0,0,0,0,0,
0,0,0,0,0,0,0,0,0,0,0,0,0,0,0,0,
0,0,0,0,0,0,0,0,0,0,0,0,0,0,0,0,
0,0,0,0,0,0,0,0,0,0,0,0,0,0,0,0,
0,0,0,0,0,0,0,0,0,0,0,0,0,0,0,0,
0,0,0,0,0,0,0,0,0,0,0,0,0,0,0,0,
0,0,0,0,0,0,0,0,0,0,0,0,0,0,0,0,
0,0,0,0,0,0,0,0,0,0,2147484099,0,0,0,0,0,
0,0,0,0,0,0,0,0,0,0,0,0,0,0,0,0,
0,0,0,0,0,0,0,0,0,0,0,0,0,0,0,0,
0,0,0,0,0,0,0,0,0,0,0,0,0,0,0,0
</data>
 </layer>
 <layer id="7" name="Background_7" width="16" height="16">
  <data encoding="csv">
0,0,0,0,0,0,0,0,0,0,0,0,0,0,0,0,
0,0,0,0,0,0,0,0,0,0,0,0,0,0,0,0,
0,0,0,0,0,0,0,0,0,0,0,0,0,0,0,0,
0,0,0,0,0,0,0,0,0,0,0,0,0,0,0,0,
0,0,0,0,0,0,0,0,0,0,0,0,0,0,0,0,
0,0,0,0,0,0,0,0,0,0,0,0,0,0,0,0,
0,0,0,0,0,0,0,0,0,0,0,0,0,0,0,0,
0,0,0,0,0,0,0,0,0,0,0,0,0,0,0,0,
0,0,0,0,0,0,0,0,0,0,0,0,0,0,0,0,
0,0,0,0,0,0,0,0,0,0,0,0,0,0,0,0,
0,0,0,0,0,0,0,0,0,0,0,0,0,0,0,0,
0,0,0,0,0,0,0,0,0,0,0,0,0,0,0,0,
0,0,0,0,0,0,0,0,0,0,331,0,0,0,0,0,
0,0,0,0,0,0,0,0,0,0,0,0,0,0,0,0,
0,0,0,0,0,0,0,0,0,0,0,0,0,0,0,0,
0,0,0,0,0,0,0,0,0,0,0,0,0,0,0,0
</data>
 </layer>
 <layer id="9" name="Collisions_1" width="16" height="16">
  <data encoding="csv">
145,49,153,49,153,143,36,49,36,49,7,49,36,143,7,49,
49,7,49,36,49,7,49,153,145,7,143,153,49,36,145,145,
145,145,36,153,247,287,247,247,247,247,287,289,2147483801,49,36,49,
49,7,49,2147483847,0,0,0,0,0,0,0,0,199,7,49,7,
153,49,36,2147483847,0,0,0,0,0,0,0,0,199,49,36,49,
143,7,49,2147483847,163,165,164,165,165,0,0,0,2147483860,247,287,289,
7,153,289,287,155,155,155,3,3,0,0,0,0,0,0,0,
49,2147483847,0,0,0,0,0,199,2147483847,0,0,0,0,0,0,0,
247,212,0,0,0,0,0,199,2147483847,164,165,163,164,165,163,164,
0,0,0,0,0,0,0,199,1073741977,155,155,155,155,3,3,3,
0,0,0,0,0,0,0,2147483860,247,287,247,247,2147483801,49,7,143,
165,163,164,164,0,0,0,0,0,0,0,0,199,7,145,153,
3,155,155,2147484086,0,0,0,0,0,0,0,0,199,143,153,49,
143,36,49,2147483847,163,163,163,164,163,164,163,163,199,7,49,143,
153,49,153,1073741977,155,155,3,3,3,3,155,155,3221225625,49,7,49,
49,7,49,36,49,36,49,7,49,153,143,36,49,36,49,145
</data>
 </layer>
 <layer id="10" name="Collisions_2" width="16" height="16">
  <data encoding="csv">
0,0,0,0,0,0,0,0,0,0,0,0,0,0,0,0,
0,0,0,0,0,0,0,0,0,0,0,0,0,0,0,0,
0,0,0,0,0,0,0,0,0,0,0,0,0,0,0,0,
0,0,0,0,0,0,0,0,0,0,0,0,0,0,0,0,
0,0,0,0,0,0,0,0,0,0,0,0,0,0,0,0,
0,0,0,0,0,0,0,139,0,0,0,0,0,0,0,0,
0,0,0,0,0,0,0,0,0,0,0,0,0,0,0,0,
0,0,0,0,0,0,0,0,0,0,0,0,0,0,0,0,
0,0,0,0,0,0,0,0,0,139,0,139,0,0,139,0,
0,0,0,0,0,0,0,0,0,0,0,0,0,0,0,0,
0,0,0,0,0,0,0,0,0,0,0,0,0,0,0,0,
0,0,139,0,0,0,0,0,0,0,0,0,0,0,0,0,
0,0,0,0,0,0,0,0,0,0,0,0,0,0,0,0,
0,0,0,0,139,0,139,0,0,141,139,0,0,0,0,0,
0,0,0,0,0,0,0,0,0,0,0,0,0,0,0,0,
0,0,0,0,0,0,0,0,0,0,0,0,0,0,0,0
</data>
 </layer>
 <objectgroup id="11" name="Entities">
  <object id="1" name="Teleport" type="Teleport" x="156" y="200" width="24" height="24">
   <properties>
    <property name="__anchorX" type="int" value="168"/>
    <property name="__anchorY" type="int" value="224"/>
    <property name="__cx" type="int" value="10"/>
    <property name="__cy" type="int" value="13"/>
    <property name="destination" value="9c20a1d0-66b0-11ec-b893-7dd8e9dfe663"/>
   </properties>
  </object>
  <object id="2" name="Ladder" type="Ladder" x="80" y="96" width="16" height="16">
   <properties>
    <property name="__anchorX" type="int" value="80"/>
    <property name="__anchorY" type="int" value="96"/>
    <property name="__cx" type="int" value="5"/>
    <property name="__cy" type="int" value="6"/>
   </properties>
  </object>
 </objectgroup>
</map>
